; generated by Slic3r Prusa Edition 1.41.2+win64 on 2019-04-04 at 13:24:42

; 

; external perimeters extrusion width = 0.49mm
; perimeters extrusion width = 0.49mm
; infill extrusion width = 0.56mm
; solid infill extrusion width = 0.49mm
; top infill extrusion width = 0.49mm
; first layer extrusion width = 0.50mm

M201 X500 Y500 Z100 E500 ; sets maximum accelerations, mm/sec^2
M203 X150 Y150 Z5 E100 ; sets maximum feedrates, mm/sec
M204 P500 R500 T500 ; sets acceleration (P, T) and retract acceleration (R), mm/sec^2
M205 X10.00 Y10.00 Z0.20 E2.50 ; sets the jerk limits, mm/sec
M205 S0 T0 ; sets the minimum extruding and travel feed rate, mm/sec
M107 ; disable fan
; Ender 3 Custom Start G-code
; begin heating bed
M140 S70
G28 ; Home all axes
; begin heating nozzle
M104 S235
; Wait for bed temp
M190 S70
; Wait for nozzle temp
M109 S235
G21 ; set units to millimeters
G90 ; use absolute coordinates
G92 E0 ; Reset Extruder
G1 Z2.0 F3000 ; Move Z Axis up little to prevent scratching of Heat Bed
G1 X0.1 Y20 Z0.3 F5000.0 ; Move to start position
G1 X0.1 Y200.0 Z0.3 F1500.0 E15 ; Draw the first line
G1 X0.4 Y200.0 Z0.3 F5000.0 ; Move to side a little
G1 X0.4 Y20 Z0.3 F1500.0 E30 ; Draw the second line
G1 E-4.00000 F1500.00000 ; retract
G1 X50 Y20 Z0.3 F1500.0 ; Slight side move
G92 E0 ; Reset Extruder
G1 X100 Y20 Z0.4 F1500.0 ; Slight side move
; End of custom start GCode
G21 ; set units to millimeters
G90 ; use absolute coordinates
M83 ; use relative distances for extrusion
;BEFORE_LAYER_CHANGE
;Layer 0
;0.2mm
;Printing layer 0 at 0.2mm
G1 E-4.00000 F1500.00000 ; retract
G1 Z0.280 F7200.000 ; lift Z
;AFTER_LAYER_CHANGE
;Layer 0
;0.2mm
;Printing layer 0 at 0.2mm
G1 Z0.480 ; lift Z
G1 X102.062 Y102.458 ; move to first skirt point
G1 Z0.280 ; restore layer Z
G1 E4.00000 F1200.00000 ; unretract
M204 S500 ; adjust acceleration
G1 F1800
G1 X102.631 Y101.921 E0.02677 ; skirt
G1 X103.300 Y101.506 E0.02694 ; skirt
G1 X104.035 Y101.237 E0.02677 ; skirt
G1 X104.814 Y101.119 E0.02694 ; skirt
G1 X130.005 Y101.115 E0.86168 ; skirt
G1 X130.717 Y101.181 E0.02445 ; skirt
G1 X131.404 Y101.377 E0.02445 ; skirt
G1 X132.044 Y101.696 E0.02445 ; skirt
G1 X132.618 Y102.130 E0.02462 ; skirt
G1 X133.100 Y102.658 E0.02445 ; skirt
G1 X133.479 Y103.270 E0.02462 ; skirt
G1 X133.737 Y103.936 E0.02445 ; skirt
G1 X133.868 Y104.639 E0.02445 ; skirt
G1 X133.883 Y130.127 E0.87182 ; skirt
G1 X133.806 Y130.779 E0.02246 ; skirt
G1 X133.619 Y131.413 E0.02263 ; skirt
G1 X133.327 Y132.007 E0.02263 ; skirt
G1 X132.938 Y132.542 E0.02263 ; skirt
G1 X132.342 Y133.100 E0.02793 ; skirt
G1 X131.638 Y133.523 E0.02810 ; skirt
G1 X130.861 Y133.789 E0.02810 ; skirt
G1 X130.050 Y133.885 E0.02793 ; skirt
G1 X104.869 Y133.883 E0.86134 ; skirt
G1 X104.217 Y133.805 E0.02246 ; skirt
G1 X103.582 Y133.617 E0.02263 ; skirt
G1 X102.993 Y133.327 E0.02246 ; skirt
G1 X102.458 Y132.938 E0.02263 ; skirt
G1 X101.900 Y132.342 E0.02793 ; skirt
G1 X101.477 Y131.638 E0.02810 ; skirt
G1 X101.211 Y130.861 E0.02810 ; skirt
G1 X101.115 Y130.050 E0.02793 ; skirt
G1 X101.117 Y104.869 E0.86134 ; skirt
G1 X101.195 Y104.217 E0.02246 ; skirt
G1 X101.383 Y103.582 E0.02263 ; skirt
G1 X101.673 Y102.993 E0.02246 ; skirt
G1 X102.018 Y102.519 E0.02006 ; skirt
G1 X102.929 Y102.268 F7200.000 ; move to first skirt point
G1 F1800
G1 X103.517 Y101.909 E0.02359 ; skirt
G1 X104.166 Y101.675 E0.02359 ; skirt
G1 X104.853 Y101.575 E0.02374 ; skirt
G1 X130.005 Y101.572 E0.86034 ; skirt
G1 X130.637 Y101.632 E0.02172 ; skirt
G1 X131.247 Y101.807 E0.02172 ; skirt
G1 X131.814 Y102.091 E0.02172 ; skirt
G1 X132.323 Y102.479 E0.02187 ; skirt
G1 X132.748 Y102.951 E0.02172 ; skirt
G1 X133.079 Y103.493 E0.02172 ; skirt
G1 X133.304 Y104.086 E0.02172 ; skirt
G1 X133.416 Y104.716 E0.02187 ; skirt
G1 X133.426 Y130.105 E0.86846 ; skirt
G1 X133.358 Y130.691 E0.02016 ; skirt
G1 X133.188 Y131.260 E0.02031 ; skirt
G1 X132.925 Y131.787 E0.02016 ; skirt
G1 X132.573 Y132.265 E0.02031 ; skirt
G1 X132.046 Y132.751 E0.02452 ; skirt
G1 X131.429 Y133.116 E0.02452 ; skirt
G1 X130.750 Y133.345 E0.02452 ; skirt
G1 X130.038 Y133.428 E0.02452 ; skirt
G1 X104.895 Y133.426 E0.86003 ; skirt
G1 X104.309 Y133.358 E0.02016 ; skirt
G1 X103.740 Y133.188 E0.02031 ; skirt
G1 X103.213 Y132.925 E0.02016 ; skirt
G1 X102.735 Y132.573 E0.02031 ; skirt
G1 X102.249 Y132.046 E0.02452 ; skirt
G1 X101.884 Y131.429 E0.02452 ; skirt
G1 X101.655 Y130.750 E0.02452 ; skirt
G1 X101.572 Y130.038 E0.02452 ; skirt
G1 X101.574 Y104.895 E0.86003 ; skirt
G1 X101.642 Y104.309 E0.02016 ; skirt
G1 X101.810 Y103.745 E0.02016 ; skirt
G1 X102.072 Y103.217 E0.02016 ; skirt
G1 X102.424 Y102.738 E0.02031 ; skirt
G1 X102.874 Y102.320 E0.02102 ; skirt
G1 E-3.20000 F1500.00000 ; retract
G1 F5760
G1 X103.517 Y101.909 E-0.18880 ; wipe and retract
G1 X104.166 Y101.675 E-0.17059 ; wipe and retract
G1 X104.853 Y101.575 E-0.17171 ; wipe and retract
G1 X105.778 Y101.575 E-0.22889 ; wipe and retract
G1 E-0.04000 F1500.00000 ; retract
G1 Z0.480 F7200.000 ; lift Z
G1 X103.000 Y102.000 ; move to first skirt point
G1 X102.172 Y102.172 ; move to first skirt point
G1 X102.000 Y103.000 ; move to first skirt point
G1 X102.239 Y103.902 ; move to first skirt point
G1 Z0.280 ; restore layer Z
G1 E4.00000 F1200.00000 ; unretract
G1 F1800
G1 X102.785 Y103.020 E0.03550 ; skirt
G1 X103.224 Y102.618 E0.02036 ; skirt
G1 X103.739 Y102.310 E0.02050 ; skirt
G1 X104.300 Y102.113 E0.02036 ; skirt
G1 X104.890 Y102.031 E0.02036 ; skirt
G1 X130.004 Y102.029 E0.85906 ; skirt
G1 X130.559 Y102.082 E0.01905 ; skirt
G1 X131.090 Y102.236 E0.01891 ; skirt
G1 X131.583 Y102.486 E0.01891 ; skirt
G1 X132.024 Y102.825 E0.01905 ; skirt
G1 X132.392 Y103.238 E0.01891 ; skirt
G1 X132.679 Y103.716 E0.01905 ; skirt
G1 X132.871 Y104.234 E0.01891 ; skirt
G1 X132.963 Y104.783 E0.01905 ; skirt
G1 X132.970 Y130.081 E0.86532 ; skirt
G1 X132.761 Y131.098 E0.03550 ; skirt
G1 X132.215 Y131.980 E0.03550 ; skirt
G1 X131.759 Y132.395 E0.02108 ; skirt
G1 X131.223 Y132.708 E0.02123 ; skirt
G1 X130.638 Y132.902 E0.02108 ; skirt
G1 X130.025 Y132.971 E0.02108 ; skirt
G1 X104.919 Y132.970 E0.85877 ; skirt
G1 X103.902 Y132.761 E0.03550 ; skirt
G1 X103.020 Y132.215 E0.03550 ; skirt
G1 X102.605 Y131.759 E0.02108 ; skirt
G1 X102.292 Y131.223 E0.02123 ; skirt
G1 X102.098 Y130.638 E0.02108 ; skirt
G1 X102.029 Y130.025 E0.02108 ; skirt
G1 X102.030 Y104.919 E0.85877 ; skirt
G1 X102.224 Y103.976 E0.03294 ; skirt
G1 E-3.20000 F1500.00000 ; retract
G1 F5760
G1 X102.785 Y103.020 E-0.27428 ; wipe and retract
G1 X103.224 Y102.618 E-0.14724 ; wipe and retract
G1 X103.739 Y102.310 E-0.14829 ; wipe and retract
G1 X104.300 Y102.113 E-0.14724 ; wipe and retract
G1 X104.472 Y102.089 E-0.04294 ; wipe and retract
G1 E-0.04000 F1500.00000 ; retract
G1 Z0.480 F7200.000 ; lift Z
G1 X104.183 Y102.577 ; move to first brim point
G1 Z0.280 ; restore layer Z
G1 E4.00000 F1200.00000 ; unretract
G1 F1800
G1 X104.630 Y102.486 E0.01561 ; brim
G1 X130.419 Y102.490 E0.88213 ; brim
G1 X130.775 Y102.563 E0.01240 ; brim
G1 X131.172 Y102.727 E0.01470 ; brim
G1 X131.436 Y102.895 E0.01071 ; brim
G1 X132.036 Y103.481 E0.02868 ; brim
G1 X132.288 Y103.856 E0.01545 ; brim
G1 X132.439 Y104.231 E0.01386 ; brim
G1 X132.514 Y104.629 E0.01383 ; brim
G1 X132.514 Y130.370 E0.88050 ; brim
G1 X132.427 Y130.808 E0.01528 ; brim
G1 X132.268 Y131.181 E0.01386 ; brim
G1 X132.040 Y131.515 E0.01383 ; brim
G1 X131.517 Y132.038 E0.02530 ; brim
G1 X131.276 Y132.216 E0.01025 ; brim
G1 X130.817 Y132.423 E0.01723 ; brim
G1 X130.370 Y132.514 E0.01560 ; brim
G1 X104.630 Y132.514 E0.88046 ; brim
G1 X104.192 Y132.427 E0.01528 ; brim
G1 X103.819 Y132.268 E0.01386 ; brim
G1 X103.485 Y132.040 E0.01383 ; brim
G1 X102.962 Y131.517 E0.02530 ; brim
G1 X102.784 Y131.276 E0.01025 ; brim
G1 X102.577 Y130.817 E0.01723 ; brim
G1 X102.486 Y130.370 E0.01560 ; brim
G1 X102.486 Y104.630 E0.88046 ; brim
G1 X102.573 Y104.192 E0.01528 ; brim
G1 X102.732 Y103.819 E0.01386 ; brim
G1 X102.960 Y103.485 E0.01383 ; brim
G1 X103.483 Y102.962 E0.02530 ; brim
G1 X103.724 Y102.784 E0.01025 ; brim
G1 X104.115 Y102.608 E0.01467 ; brim
G1 X103.971 Y103.170 F7200.000 ; move to first brim point
G1 F1800
G1 X104.344 Y103.005 E0.01394 ; brim
G1 X104.653 Y102.943 E0.01078 ; brim
G1 X130.393 Y102.948 E0.88048 ; brim
G1 X130.656 Y103.005 E0.00920 ; brim
G1 X130.949 Y103.126 E0.01086 ; brim
G1 X131.136 Y103.241 E0.00751 ; brim
G1 X131.700 Y103.791 E0.02694 ; brim
G1 X131.875 Y104.052 E0.01075 ; brim
G1 X131.996 Y104.345 E0.01083 ; brim
G1 X132.057 Y104.652 E0.01073 ; brim
G1 X132.057 Y130.348 E0.87893 ; brim
G1 X131.996 Y130.655 E0.01073 ; brim
G1 X131.874 Y130.948 E0.01083 ; brim
G1 X131.700 Y131.209 E0.01073 ; brim
G1 X131.208 Y131.701 E0.02384 ; brim
G1 X131.029 Y131.830 E0.00753 ; brim
G1 X130.656 Y131.995 E0.01394 ; brim
G1 X130.347 Y132.057 E0.01078 ; brim
G1 X104.652 Y132.057 E0.87892 ; brim
G1 X104.345 Y131.996 E0.01073 ; brim
G1 X104.052 Y131.874 E0.01083 ; brim
G1 X103.791 Y131.700 E0.01073 ; brim
G1 X103.299 Y131.208 E0.02384 ; brim
G1 X103.170 Y131.029 E0.00753 ; brim
G1 X103.005 Y130.656 E0.01394 ; brim
G1 X102.943 Y130.347 E0.01078 ; brim
G1 X102.943 Y104.652 E0.87892 ; brim
G1 X103.004 Y104.345 E0.01073 ; brim
G1 X103.126 Y104.052 E0.01083 ; brim
G1 X103.300 Y103.791 E0.01073 ; brim
G1 X103.792 Y103.299 E0.02384 ; brim
G1 X103.910 Y103.214 E0.00496 ; brim
G1 X104.500 Y103.435 F7200.000 ; move to first brim point
G1 F1800
G1 X104.675 Y103.400 E0.00608 ; brim
G1 X130.367 Y103.405 E0.87882 ; brim
G1 X130.498 Y103.434 E0.00461 ; brim
G1 X130.755 Y103.540 E0.00949 ; brim
G1 X130.869 Y103.613 E0.00463 ; brim
G1 X131.362 Y104.099 E0.02368 ; brim
G1 X131.461 Y104.248 E0.00611 ; brim
G1 X131.565 Y104.499 E0.00930 ; brim
G1 X131.600 Y104.675 E0.00613 ; brim
G1 X131.600 Y130.325 E0.87739 ; brim
G1 X131.565 Y130.501 E0.00613 ; brim
G1 X131.461 Y130.752 E0.00930 ; brim
G1 X131.361 Y130.901 E0.00613 ; brim
G1 X130.899 Y131.363 E0.02234 ; brim
G1 X130.788 Y131.442 E0.00465 ; brim
G1 X130.500 Y131.565 E0.01073 ; brim
G1 X130.325 Y131.600 E0.00609 ; brim
G1 X104.675 Y131.600 E0.87739 ; brim
G1 X104.499 Y131.565 E0.00613 ; brim
G1 X104.248 Y131.461 E0.00930 ; brim
G1 X104.099 Y131.361 E0.00613 ; brim
G1 X103.637 Y130.899 E0.02234 ; brim
G1 X103.558 Y130.788 E0.00465 ; brim
G1 X103.435 Y130.500 E0.01073 ; brim
G1 X103.400 Y130.325 E0.00609 ; brim
G1 X103.400 Y104.675 E0.87739 ; brim
G1 X103.435 Y104.499 E0.00613 ; brim
G1 X103.539 Y104.248 E0.00930 ; brim
G1 X103.639 Y104.099 E0.00613 ; brim
G1 X104.101 Y103.637 E0.02234 ; brim
G1 X104.212 Y103.558 E0.00465 ; brim
G1 X104.431 Y103.464 E0.00816 ; brim
G1 X104.606 Y103.886 F7200.000 ; move to first brim point
G1 F1800
G1 X104.697 Y103.857 E0.00327 ; brim
G1 X130.303 Y103.857 E0.87585 ; brim
G1 X130.594 Y103.978 E0.01078 ; brim
G1 X131.022 Y104.406 E0.02071 ; brim
G1 X131.143 Y104.697 E0.01078 ; brim
G1 X131.143 Y130.303 E0.87585 ; brim
G1 X131.022 Y130.594 E0.01078 ; brim
G1 X130.594 Y131.022 E0.02071 ; brim
G1 X130.303 Y131.143 E0.01078 ; brim
G1 X104.697 Y131.143 E0.87585 ; brim
G1 X104.406 Y131.022 E0.01078 ; brim
G1 X103.978 Y130.594 E0.02071 ; brim
G1 X103.857 Y130.303 E0.01078 ; brim
G1 X103.857 Y104.697 E0.87585 ; brim
G1 X103.978 Y104.406 E0.01078 ; brim
G1 X104.406 Y103.978 E0.02071 ; brim
G1 X104.537 Y103.914 E0.00496 ; brim
G1 X104.681 Y104.349 F7200.000 ; move to first brim point
G1 F1800
G1 X104.765 Y104.314 E0.00311 ; brim
G1 X130.235 Y104.314 E0.87120 ; brim
G1 X130.319 Y104.349 E0.00311 ; brim
G1 X130.651 Y104.681 E0.01606 ; brim
G1 X130.686 Y104.765 E0.00311 ; brim
G1 X130.686 Y130.235 E0.87120 ; brim
G1 X130.651 Y130.319 E0.00311 ; brim
G1 X130.319 Y130.651 E0.01606 ; brim
G1 X130.235 Y130.686 E0.00311 ; brim
G1 X104.765 Y130.686 E0.87120 ; brim
G1 X104.681 Y130.651 E0.00311 ; brim
G1 X104.349 Y130.319 E0.01606 ; brim
G1 X104.314 Y130.235 E0.00311 ; brim
G1 X104.314 Y104.765 E0.87120 ; brim
G1 X104.349 Y104.681 E0.00311 ; brim
G1 X104.628 Y104.402 E0.01350 ; brim
G1 X104.905 Y104.771 F7200.000 ; move to first brim point
G1 F1800
G1 X130.095 Y104.771 E0.86162 ; brim
G1 X130.229 Y104.905 E0.00648 ; brim
G1 X130.229 Y130.095 E0.86162 ; brim
G1 X130.095 Y130.229 E0.00648 ; brim
G1 X104.905 Y130.229 E0.86162 ; brim
G1 X104.771 Y130.095 E0.00648 ; brim
G1 X104.771 Y104.905 E0.86162 ; brim
G1 X104.852 Y104.824 E0.00391 ; brim
; PURGING FINISHED
G1 X105.250 Y105.250 F7200.000 ; move to first perimeter point
G1 F1800
G1 X129.750 Y105.250 E0.83804 ; perimeter
G1 X129.750 Y129.750 E0.83804 ; perimeter
G1 X105.250 Y129.750 E0.83804 ; perimeter
G1 X105.250 Y105.325 E0.83547 ; perimeter
G1 E-3.20000 F1500.00000 ; retract
G1 F5760
G1 X108.322 Y105.316 E-0.76000 ; wipe and retract
G1 E-0.04000 F1500.00000 ; retract
G1 Z0.480 F7200.000 ; lift Z
G1 X106.388 Y129.544 ; move to first infill point
G1 Z0.280 ; restore layer Z
G1 E4.00000 F1200.00000 ; unretract
G1 F1800
G1 X105.661 Y128.817 E0.03549 ; infill
G1 X105.661 Y128.165 E0.02251 ; infill
G1 X106.835 Y129.339 E0.05729 ; infill
G1 X107.487 Y129.339 E0.02251 ; infill
G1 X105.661 Y127.513 E0.08913 ; infill
G1 X105.661 Y126.860 E0.02251 ; infill
G1 X108.140 Y129.339 E0.12097 ; infill
G1 X108.792 Y129.339 E0.02251 ; infill
G1 X105.661 Y126.208 E0.15281 ; infill
G1 X105.661 Y125.556 E0.02251 ; infill
G1 X109.444 Y129.339 E0.18465 ; infill
G1 X110.096 Y129.339 E0.02251 ; infill
G1 X105.661 Y124.904 E0.21649 ; infill
G1 X105.661 Y124.251 E0.02251 ; infill
G1 X110.749 Y129.339 E0.24833 ; infill
G1 X111.401 Y129.339 E0.02251 ; infill
G1 X105.661 Y123.599 E0.28017 ; infill
G1 X105.661 Y122.947 E0.02251 ; infill
G1 X112.053 Y129.339 E0.31201 ; infill
G1 X112.706 Y129.339 E0.02251 ; infill
G1 X105.661 Y122.294 E0.34385 ; infill
G1 X105.661 Y121.642 E0.02251 ; infill
G1 X113.358 Y129.339 E0.37569 ; infill
G1 X114.010 Y129.339 E0.02251 ; infill
G1 X105.661 Y120.990 E0.40753 ; infill
G1 X105.661 Y120.338 E0.02251 ; infill
G1 X114.662 Y129.339 E0.43937 ; infill
G1 X115.315 Y129.339 E0.02251 ; infill
G1 X105.661 Y119.685 E0.47121 ; infill
G1 X105.661 Y119.033 E0.02251 ; infill
G1 X115.967 Y129.339 E0.50305 ; infill
G1 X116.619 Y129.339 E0.02251 ; infill
G1 X105.661 Y118.381 E0.53489 ; infill
G1 X105.661 Y117.729 E0.02251 ; infill
G1 X117.271 Y129.339 E0.56673 ; infill
G1 X117.924 Y129.339 E0.02251 ; infill
G1 X105.661 Y117.076 E0.59857 ; infill
G1 X105.661 Y116.424 E0.02251 ; infill
G1 X118.576 Y129.339 E0.63041 ; infill
G1 X119.228 Y129.339 E0.02251 ; infill
G1 X105.661 Y115.772 E0.66225 ; infill
G1 X105.661 Y115.119 E0.02251 ; infill
G1 X119.881 Y129.339 E0.69409 ; infill
G1 X120.533 Y129.339 E0.02251 ; infill
G1 X105.661 Y114.467 E0.72593 ; infill
G1 X105.661 Y113.815 E0.02251 ; infill
G1 X121.185 Y129.339 E0.75777 ; infill
G1 X121.837 Y129.339 E0.02251 ; infill
G1 X105.661 Y113.163 E0.78961 ; infill
G1 X105.661 Y112.510 E0.02251 ; infill
G1 X122.490 Y129.339 E0.82145 ; infill
G1 X123.142 Y129.339 E0.02251 ; infill
G1 X105.661 Y111.858 E0.85329 ; infill
G1 X105.661 Y111.206 E0.02251 ; infill
G1 X123.794 Y129.339 E0.88513 ; infill
G1 X124.447 Y129.339 E0.02251 ; infill
G1 X105.661 Y110.553 E0.91697 ; infill
G1 X105.661 Y109.901 E0.02251 ; infill
G1 X125.099 Y129.339 E0.94881 ; infill
G1 X125.751 Y129.339 E0.02251 ; infill
G1 X105.661 Y109.249 E0.98065 ; infill
G1 X105.661 Y108.597 E0.02251 ; infill
G1 X126.403 Y129.339 E1.01249 ; infill
G1 X127.056 Y129.339 E0.02251 ; infill
G1 X105.661 Y107.944 E1.04433 ; infill
G1 X105.661 Y107.292 E0.02251 ; infill
G1 X127.708 Y129.339 E1.07617 ; infill
G1 X128.360 Y129.339 E0.02251 ; infill
G1 X105.661 Y106.640 E1.10801 ; infill
G1 X105.661 Y105.988 E0.02251 ; infill
G1 X129.012 Y129.339 E1.13985 ; infill
G1 X129.339 Y129.339 E0.01126 ; infill
G1 X129.339 Y129.013 E0.01126 ; infill
G1 X105.987 Y105.661 E1.13985 ; infill
G1 X106.640 Y105.661 E0.02251 ; infill
G1 X129.339 Y128.360 E1.10801 ; infill
G1 X129.339 Y127.708 E0.02251 ; infill
G1 X107.292 Y105.661 E1.07617 ; infill
G1 X107.944 Y105.661 E0.02251 ; infill
G1 X129.339 Y127.056 E1.04433 ; infill
G1 X129.339 Y126.403 E0.02251 ; infill
G1 X108.597 Y105.661 E1.01249 ; infill
