; G-Code originally generated by Simplify3D(R) Version 4.1.2
;This calibration test gcode modified by the Teaching Tech Calibration website: https://teachingtechyt.github.io/calibration.html
;M80 ; power supply on
G90
M82
M106 S0
M140 S55 ; custom bed temp
M190 S55 ; custom bed temp
M104 S200 T0 ; custom hot end temp
M109 S200 T0 ; custom hot end temp
G28 ; home all axes
;G29 ; probe ABL
;M420 S1 ; restore ABL mesh 
;customstart
G0 Z3; fix for delta printers that home at max
M201 X50000 Y50000 Z50000; custom raise acceleration limits
M204 P500 ; custom acceleration - A
M205 X8 Y8 Z8 ; custom jerk - A
;layer 1, Z = 0.200
T0
G92 E0.0000
G1 E-0.4 F2100 ; custom retraction
;fan1;
G1 Z0.200 F1200
G1 X69.908 Y132.74200000000002 F6000
G1 E0 F2100 ; custom un-retraction/prime
G92 E0.0000
G1 X69.908 Y51.424 E3.5052 F1800
G1 X71.426 Y49.906 E3.5978
G1 X158.574 Y49.906 E7.3542
G1 X160.09199999999998 Y51.424 E7.4468
G1 X160.09199999999998 Y84.706 E8.8814
G1 X159.661 Y85.695 E8.9279
G1 X126.109 Y116.946 E10.9044
G1 X125.194 Y117.306 E10.9468
G1 X124.89 Y117.306 E10.9599
G1 X124.89 Y117.493 E10.9679
G1 X124.459 Y118.483 E11.0144
G1 X90.023 Y150.55700000000002 E13.0429
G1 X86.908 Y149.201 E13.1894
G1 X86.908 Y134.26 E13.8334
G1 X71.426 Y134.26 E14.5007
G1 X69.908 Y132.74200000000002 E14.5933
G92 E0.0000
G1 E-0.4 F2100 ; custom retraction
;zhop1
G1 X70.484 Y132.503 F6000
G1 Z0.200 F1200
G1 E0 F2100 ; custom un-retraction/prime
G92 E0.0000
G1 X70.484 Y51.663 E3.4846 F1800
G1 X71.66499999999999 Y50.482 E3.5566
G1 X158.33499999999998 Y50.482 E7.2925
G1 X159.51600000000002 Y51.663 E7.3645
G1 X159.51600000000002 Y84.586 E8.7837
G1 X159.18099999999998 Y85.35499999999999 E8.8198
G1 X125.796 Y116.45 E10.7864
G1 X125.084 Y116.73 E10.8194
G1 X124.314 Y116.73 E10.8526
G1 X124.314 Y117.373 E10.8803
G1 X123.979 Y118.143 E10.9165
G1 X89.907 Y149.878 E12.9236
G1 X87.48400000000001 Y148.82299999999998 E13.0375
G1 X87.48400000000001 Y133.684 E13.6900
G1 X71.66499999999999 Y133.684 E14.3719
G1 X70.484 Y132.503 E14.4439
G92 E0.0000
G1 E-0.4 F2100 ; custom retraction
;zhop1
G1 X71.06 Y132.264 F6000
G1 Z0.200 F1200
G1 E0 F2100 ; custom un-retraction/prime
G92 E0.0000
G1 X71.06 Y51.902 E3.4641 F1800
G1 X71.904 Y51.058 E3.5155
G1 X158.096 Y51.058 E7.2308
G1 X158.94 Y51.902 E7.2823
G1 X158.94 Y84.46600000000001 E8.6859
G1 X158.701 Y85.015 E8.7118
G1 X125.484 Y115.954 E10.6685
G1 X124.975 Y116.154 E10.6920
G1 X123.738 Y116.154 E10.7454
G1 X123.738 Y117.253 E10.7927
G1 X123.499 Y117.803 E10.8186
G1 X89.791 Y149.199 E12.8042
G1 X88.06 Y148.446 E12.8856
G1 X88.06 Y133.108 E13.5467
G1 X71.904 Y133.108 E14.2431
G1 X71.06 Y132.264 E14.2945
G92 E0.0000
G1 E-0.4 F2100 ; custom retraction
;zhop1
G1 X71.636 Y132.026 F6000
G1 Z0.200 F1200
G1 E0 F2100 ; custom un-retraction/prime
G92 E0.0000
G1 X71.636 Y52.14 E3.4435 F1800
G1 X72.142 Y51.634 E3.4743
G1 X157.858 Y51.634 E7.1691
G1 X158.364 Y52.14 E7.2000
G1 X158.364 Y84.346 E8.5882
G1 X158.22 Y84.676 E8.6037
G1 X125.171 Y115.458 E10.5505
G1 X124.866 Y115.578 E10.5647
G1 X123.162 Y115.578 E10.6381
G1 X123.162 Y117.133 E10.7052
G1 X123.018 Y117.463 E10.7207
G1 X89.674 Y148.51999999999998 E12.6848
G1 X88.636 Y148.06799999999998 E12.7337
G1 X88.636 Y132.53199999999998 E13.4033
G1 X72.142 Y132.53199999999998 E14.1143
G1 X71.636 Y132.026 E14.1452
G92 E0.0000
G1 E-0.4 F2100 ; custom retraction
;zhop1
G1 X72.212 Y131.787 F6000
G1 Z0.200 F1200
G1 E0 F2100 ; custom un-retraction/prime
G92 E0.0000
G1 X72.212 Y52.379 E3.4229 F1800
G1 X72.381 Y52.21 E3.4332
G1 X157.619 Y52.21 E7.1074
G1 X157.788 Y52.379 E7.1177
G1 X157.788 Y84.226 E8.4905
G1 X157.74 Y84.336 E8.4957
G1 X124.858 Y114.962 E10.4326
G1 X124.757 Y115.002 E10.4373
G1 X122.586 Y115.002 E10.5309
G1 X122.586 Y117.014 E10.6176
G1 X122.538 Y117.124 E10.6227
G1 X89.55799999999999 Y147.841 E12.5655
G1 X89.212 Y147.691 E12.5817
G1 X89.212 Y131.95600000000002 E13.2600
G1 X72.381 Y131.95600000000002 E13.9855
G1 X72.212 Y131.787 E13.9958
G92 E0.0000
G1 E-0.4 F2100 ; custom retraction
;zhop1
G1 X72.788 Y131.38 F6000
G1 X72.788 Y131.296
G1 X73.364 Y130.804
G1 Z0.200 F1200
G1 E0 F2100 ; custom un-retraction/prime
G92 E0.0000
G1 X73.364 Y53.362 E3.3381 F1440
G1 X156.636 Y53.362 E6.9276
G1 X156.636 Y83.78999999999999 E8.2392
G1 X124.362 Y113.85 E10.1403
G1 X121.434 Y113.85 E10.2666
G1 X121.434 Y116.578 E10.3841
G1 X90.364 Y145.517 E12.2143
G1 X90.364 Y130.804 E12.8485
G1 X73.364 Y130.804 E13.5813
G1 X72.788 Y131.38 F6000
G92 E0.0000
G1 X72.788 Y52.786 E3.3878 F1080
G1 X157.212 Y52.786 E7.0269
G1 X157.212 Y84.041 E8.3741
G1 X124.589 Y114.426 E10.2959
G1 X122.01 Y114.426 E10.4070
G1 X122.01 Y116.828 E10.5106
G1 X89.788 Y146.84 E12.4086
G1 X89.788 Y131.38 E13.0751
G1 X72.788 Y131.38 E13.8078
G92 E0.0000
G1 E-0.4 F2100 ; custom retraction
;layer 2, Z = 0.400
M106 S255; custom fan 100% from layer 2
G1 Z0.400 F1200
G1 X73.22 Y130.94799999999998 F6000
G1 E0 F2100 ; custom un-retraction/prime
G92 E0.0000
G1 X73.22 Y53.218 E2.7921 F3600 ; custom feedrate - full
G1 X156.78 Y53.218 E5.7937
G1 X156.78 Y83.85300000000001 E6.8941
G1 X124.419 Y113.994 E8.4827
G1 X121.578 Y113.994 E8.5847
G1 X121.578 Y116.64 E8.6798
G1 X90.22 Y145.84699999999998 E10.2191
G1 X90.22 Y130.94799999999998 E10.7543
G1 X73.22 Y130.94799999999998 E11.3650
G1 X72.74 Y131.428 F6000
G92 E0.0000
G1 X72.74 Y52.738 E2.8266 F1800 ; custom feedrate - half
G1 X157.26 Y52.738 E5.8627
G1 X157.26 Y84.062 E6.9878
G1 X124.608 Y114.474 E8.5907
G1 X122.058 Y114.474 E8.6823
G1 X122.058 Y116.849 E8.7676
G1 X89.74000000000001 Y146.95 E10.3540
G1 X89.74000000000001 Y131.428 E10.9116
G1 X72.74 Y131.428 E11.5223
G92 E0.0000
G1 E-0.4 F2100 ; custom retraction
;layer 3, Z = 0.600
;fan3;
G1 Z0.600 F1200
G1 X73.22 Y130.94799999999998 F6000
G1 E0 F2100 ; custom un-retraction/prime
G92 E0.0000
G1 X73.22 Y74.39699999999999 E2.0314 F3600 ; custom feedrate - full
G1 X73.645 Y74.39699999999999 E2.0466
G1 X73.645 Y70.452 E2.1883
G1 X73.22 Y70.452 E2.2036
G1 X73.22 Y53.218 E2.8227
G1 X135.18099999999998 Y53.218 E5.0484
G1 X135.18099999999998 Y53.614000000000004 E5.0626
G1 X137.014 Y53.614000000000004 E5.1284
G1 X137.014 Y53.218 E5.1426
G1 X156.78 Y53.218 E5.8527
G1 X156.78 Y83.85300000000001 E6.9531
G1 X124.419 Y113.994 E8.5417
G1 X121.578 Y113.994 E8.6437
G1 X121.578 Y116.64 E8.7387
G1 X90.22 Y145.84699999999998 E10.2781
G1 X90.22 Y130.94799999999998 E10.8133
G1 X73.22 Y130.94799999999998 E11.4239
G1 X72.74 Y131.428 F6000
G92 E0.0000
G1 X72.74 Y73.917 E2.0659 F1800 ; custom feedrate - half
G1 X73.16499999999999 Y73.917 E2.0811
G1 X73.16499999999999 Y73.05 E2.1123
G1 X72.74 Y73.05 E2.1275
G1 X72.74 Y71.827 E2.1715
G1 X73.16499999999999 Y71.827 E2.1867
G1 X73.16499999999999 Y70.932 E2.2189
G1 X72.74 Y70.932 E2.2341
G1 X72.74 Y52.738 E2.8877
G1 X135.661 Y52.738 E5.1479
G1 X135.661 Y53.134 E5.1621
G1 X136.534 Y53.134 E5.1934
G1 X136.534 Y52.738 E5.2076
G1 X157.26 Y52.738 E5.9522
G1 X157.26 Y84.062 E7.0773
G1 X124.608 Y114.474 E8.6802
G1 X122.058 Y114.474 E8.7718
G1 X122.058 Y116.849 E8.8571
G1 X89.74000000000001 Y146.95 E10.4435
G1 X89.74000000000001 Y131.428 E11.0011
G1 X72.74 Y131.428 E11.6118
G1 X73.352 Y72.607 F6000
G92 E0.0000
G1 X73.02799999999999 Y72.283 E0.0165 F3600 ; custom feedrate - full
G92 E0.0000
G1 E-0.4 F2100 ; custom retraction
;layer 4, Z = 0.800
;fan4;
G1 Z0.800 F1200
G1 X73.031 Y73.05 F6000
G1 X73.16499999999999 Y73.05
G1 X73.16499999999999 Y73.917
G1 X73.033 Y73.917
G1 X73.22 Y130.94799999999998
G1 E0 F2100 ; custom un-retraction/prime
G92 E0.0000
G1 X73.22 Y74.29599999999999 E2.0350 F3600 ; custom feedrate - full
G1 X73.645 Y74.29599999999999 E2.0503
G1 X73.645 Y70.553 E2.1847
G1 X73.22 Y70.553 E2.2000
G1 X73.22 Y53.218 E2.8227
G1 X135.18099999999998 Y53.218 E5.0484
G1 X135.18099999999998 Y53.614000000000004 E5.0626
G1 X137.014 Y53.614000000000004 E5.1284
G1 X137.014 Y53.218 E5.1426
G1 X156.78 Y53.218 E5.8527
G1 X156.78 Y83.85300000000001 E6.9531
G1 X124.419 Y113.994 E8.5417
G1 X121.578 Y113.994 E8.6437
G1 X121.578 Y116.64 E8.7387
G1 X90.22 Y145.84699999999998 E10.2781
G1 X90.22 Y130.94799999999998 E10.8133
G1 X73.22 Y130.94799999999998 E11.4239
G1 X72.74 Y131.428 F6000
G92 E0.0000
G1 X72.74 Y73.816 E2.0695 F1800 ; custom feedrate - half
G1 X73.16499999999999 Y73.816 E2.0847
G1 X73.16499999999999 Y72.951 E2.1158
G1 X72.74 Y72.951 E2.1311
G1 X72.74 Y71.924 E2.1680
G1 X73.16499999999999 Y71.924 E2.1833
G1 X73.16499999999999 Y71.033 E2.2153
G1 X72.74 Y71.033 E2.2305
G1 X72.74 Y52.738 E2.8877
G1 X135.661 Y52.738 E5.1479
G1 X135.661 Y53.134 E5.1621
G1 X136.534 Y53.134 E5.1934
G1 X136.534 Y52.738 E5.2076
G1 X157.26 Y52.738 E5.9522
G1 X157.26 Y84.062 E7.0773
G1 X124.608 Y114.474 E8.6802
G1 X122.058 Y114.474 E8.7718
G1 X122.058 Y116.849 E8.8571
G1 X89.74000000000001 Y146.95 E10.4435
G1 X89.74000000000001 Y131.428 E11.0011
G1 X72.74 Y131.428 E11.6118
G1 X73.09 Y73.816 F6000
G1 X73.16499999999999 Y73.816
G1 X73.16499999999999 Y72.951
G1 X73.095 Y72.951
G1 X73.09700000000001 Y72.663
G92 E0.0000
G1 X73.352 Y72.408 E0.0130 F3600 ; custom feedrate - full
G92 E0.0000
G1 E-0.4 F2100 ; custom retraction
;layer 5, Z = 1.000
;fan5;
;
G1 Z1.000 F1200
G1 X73.22 Y130.94799999999998 F6000
G1 E0 F2100 ; custom un-retraction/prime
G92 E0.0000
G1 X73.22 Y74.195 E2.0386 F3600 ; custom feedrate - full
G1 X73.645 Y74.195 E2.0539
G1 X73.645 Y70.65299999999999 E2.1811
G1 X73.22 Y70.65299999999999 E2.1964
G1 X73.22 Y53.218 E2.8227
G1 X135.18099999999998 Y53.218 E5.0484
G1 X135.18099999999998 Y53.614000000000004 E5.0626
G1 X137.014 Y53.614000000000004 E5.1284
G1 X137.014 Y53.218 E5.1426
G1 X156.78 Y53.218 E5.8527
G1 X156.78 Y83.85300000000001 E6.9531
G1 X124.419 Y113.994 E8.5417
G1 X121.578 Y113.994 E8.6437
G1 X121.578 Y116.64 E8.7387
G1 X90.22 Y145.84699999999998 E10.2781
G1 X90.22 Y130.94799999999998 E10.8133
G1 X73.22 Y130.94799999999998 E11.4239
G1 X72.74 Y131.428 F6000
G92 E0.0000
G1 X72.74 Y73.715 E2.0731 F1800 ; custom feedrate - half
G1 X73.16499999999999 Y73.715 E2.0884
G1 X73.16499999999999 Y72.85300000000001 E2.1193
G1 X72.74 Y72.85300000000001 E2.1346
G1 X72.74 Y72.02000000000001 E2.1645
G1 X73.16499999999999 Y72.02000000000001 E2.1798
G1 X73.16499999999999 Y71.133 E2.2116
G1 X72.74 Y71.133 E2.2269
G1 X72.74 Y52.738 E2.8877
G1 X135.661 Y52.738 E5.1479
G1 X135.661 Y53.134 E5.1621
G1 X136.534 Y53.134 E5.1934
G1 X136.534 Y52.738 E5.2076
G1 X157.26 Y52.738 E5.9522
G1 X157.26 Y84.062 E7.0773
G1 X124.608 Y114.474 E8.6802
G1 X122.058 Y114.474 E8.7718
G1 X122.058 Y116.849 E8.8571
G1 X89.74000000000001 Y146.95 E10.4435
G1 X89.74000000000001 Y131.428 E11.0011
G1 X72.74 Y131.428 E11.6118
G1 X73.309 Y72.565 F6000
G92 E0.0000
G1 X73.053 Y72.30799999999999 E0.0130 F3600 ; custom feedrate - full
G92 E0.0000
G1 E-0.4 F2100 ; custom retraction
;layer 6, Z = 1.200
;fan6;
G1 Z1.200 F1200
G1 X73.055 Y72.85300000000001 F6000
G1 X73.16499999999999 Y72.85300000000001
G1 X73.16499999999999 Y73.715
G1 X73.057 Y73.715
G1 X73.22 Y130.94799999999998
G1 E0 F2100 ; custom un-retraction/prime
G92 E0.0000
G1 X73.22 Y74.095 E2.0422 F3600 ; custom feedrate - full
G1 X73.645 Y74.095 E2.0575
G1 X73.645 Y70.753 E2.1775
G1 X73.22 Y70.753 E2.1928
G1 X73.22 Y53.218 E2.8227
G1 X135.18099999999998 Y53.218 E5.0484
G1 X135.18099999999998 Y53.614000000000004 E5.0626
G1 X137.014 Y53.614000000000004 E5.1284
G1 X137.014 Y53.218 E5.1426
G1 X156.78 Y53.218 E5.8527
G1 X156.78 Y83.85300000000001 E6.9531
G1 X124.419 Y113.994 E8.5417
G1 X121.578 Y113.994 E8.6437
G1 X121.578 Y116.64 E8.7387
G1 X90.22 Y145.84699999999998 E10.2781
G1 X90.22 Y130.94799999999998 E10.8133
G1 X73.22 Y130.94799999999998 E11.4239
G1 X72.74 Y131.428 F6000
G92 E0.0000
G1 X72.74 Y73.61500000000001 E2.0767 F1800 ; custom feedrate - half
G1 X73.16499999999999 Y73.61500000000001 E2.0920
G1 X73.16499999999999 Y72.75399999999999 E2.1229
G1 X72.74 Y72.75399999999999 E2.1381
G1 X72.74 Y72.11699999999999 E2.1610
G1 X73.16499999999999 Y72.11699999999999 E2.1763
G1 X73.16499999999999 Y71.233 E2.2080
G1 X72.74 Y71.233 E2.2233
G1 X72.74 Y52.738 E2.8877
G1 X135.661 Y52.738 E5.1479
G1 X135.661 Y53.134 E5.1621
G1 X136.534 Y53.134 E5.1934
G1 X136.534 Y52.738 E5.2076
G1 X157.26 Y52.738 E5.9522
G1 X157.26 Y84.062 E7.0773
G1 X124.608 Y114.474 E8.6802
G1 X122.058 Y114.474 E8.7718
G1 X122.058 Y116.849 E8.8571
G1 X89.74000000000001 Y146.95 E10.4435
G1 X89.74000000000001 Y131.428 E11.0011
G1 X72.74 Y131.428 E11.6118
G1 X73.294 Y72.46600000000001 F6000
G92 E0.0000
G1 X73.352 Y72.408 E0.0030 F3600 ; custom feedrate - full
G92 E0.0000
G1 E-0.4 F2100 ; custom retraction
;layer 7, Z = 1.400
;fan7;
G1 Z1.400 F1200
G1 X73.22 Y130.94799999999998 F6000
G1 E0 F2100 ; custom un-retraction/prime
G92 E0.0000
G1 X73.22 Y73.994 E2.0458 F3600 ; custom feedrate - full
G1 X73.645 Y73.994 E2.0611
G1 X73.645 Y70.854 E2.1739
G1 X73.22 Y70.854 E2.1892
G1 X73.22 Y53.218 E2.8227
G1 X135.18099999999998 Y53.218 E5.0484
G1 X135.18099999999998 Y53.614000000000004 E5.0626
G1 X137.014 Y53.614000000000004 E5.1284
G1 X137.014 Y53.218 E5.1426
G1 X156.78 Y53.218 E5.8527
G1 X156.78 Y83.85300000000001 E6.9531
G1 X124.419 Y113.994 E8.5417
G1 X121.578 Y113.994 E8.6437
G1 X121.578 Y116.64 E8.7387
G1 X90.22 Y145.84699999999998 E10.2781
G1 X90.22 Y130.94799999999998 E10.8133
G1 X73.22 Y130.94799999999998 E11.4239
G1 X72.74 Y131.428 F6000
G92 E0.0000
G1 X72.74 Y73.51400000000001 E2.0803 F1800 ; custom feedrate - half
G1 X73.16499999999999 Y73.51400000000001 E2.0956
G1 X73.16499999999999 Y72.656 E2.1264
G1 X72.74 Y72.656 E2.1417
G1 X72.74 Y72.214 E2.1576
G1 X73.16499999999999 Y72.214 E2.1728
G1 X73.16499999999999 Y71.334 E2.2044
G1 X72.74 Y71.334 E2.2197
G1 X72.74 Y52.738 E2.8877
G1 X135.661 Y52.738 E5.1479
G1 X135.661 Y53.134 E5.1621
G1 X136.534 Y53.134 E5.1934
G1 X136.534 Y52.738 E5.2076
G1 X157.26 Y52.738 E5.9522
G1 X157.26 Y84.062 E7.0773
G1 X124.608 Y114.474 E8.6802
G1 X122.058 Y114.474 E8.7718
G1 X122.058 Y116.849 E8.8571
G1 X89.74000000000001 Y146.95 E10.4435
G1 X89.74000000000001 Y131.428 E11.0011
G1 X72.74 Y131.428 E11.6118
G92 E0.0000
G1 E-0.4 F2100 ; custom retraction
;layer 8, Z = 1.600
;fan8;
G1 Z1.600 F1200
G1 X73.22 Y130.94799999999998 F6000
G1 E0 F2100 ; custom un-retraction/prime
G92 E0.0000
G1 X73.22 Y73.893 E2.0495 F3600 ; custom feedrate - full
G1 X73.645 Y73.893 E2.0647
G1 X73.645 Y70.95400000000001 E2.1703
G1 X73.22 Y70.95400000000001 E2.1856
G1 X73.22 Y53.218 E2.8227
G1 X135.18099999999998 Y53.218 E5.0484
G1 X135.18099999999998 Y53.614000000000004 E5.0626
G1 X137.014 Y53.614000000000004 E5.1284
G1 X137.014 Y53.218 E5.1426
G1 X156.78 Y53.218 E5.8527
G1 X156.78 Y83.85300000000001 E6.9531
G1 X124.419 Y113.994 E8.5417
G1 X121.578 Y113.994 E8.6437
G1 X121.578 Y116.64 E8.7387
G1 X90.22 Y145.84699999999998 E10.2781
G1 X90.22 Y130.94799999999998 E10.8133
G1 X73.22 Y130.94799999999998 E11.4239
G1 X72.74 Y131.428 F6000
G92 E0.0000
G1 X72.74 Y73.413 E2.0840 F1800 ; custom feedrate - half
G1 X73.16499999999999 Y73.413 E2.0992
G1 X73.16499999999999 Y72.557 E2.1300
G1 X72.74 Y72.557 E2.1452
G1 X72.74 Y72.311 E2.1541
G1 X73.16499999999999 Y72.311 E2.1693
G1 X73.16499999999999 Y71.434 E2.2008
G1 X72.74 Y71.434 E2.2161
G1 X72.74 Y52.738 E2.8877
G1 X135.661 Y52.738 E5.1479
G1 X135.661 Y53.134 E5.1621
G1 X136.534 Y53.134 E5.1934
G1 X136.534 Y52.738 E5.2076
G1 X157.26 Y52.738 E5.9522
G1 X157.26 Y84.062 E7.0773
G1 X124.608 Y114.474 E8.6802
G1 X122.058 Y114.474 E8.7718
G1 X122.058 Y116.849 E8.8571
G1 X89.74000000000001 Y146.95 E10.4435
G1 X89.74000000000001 Y131.428 E11.0011
G1 X72.74 Y131.428 E11.6118
G92 E0.0000
G1 E-0.4 F2100 ; custom retraction
;layer 9, Z = 1.800
;fan9;
G1 Z1.800 F1200
G1 X73.22 Y130.94799999999998 F6000
G1 E0 F2100 ; custom un-retraction/prime
G92 E0.0000
G1 X73.22 Y73.792 E2.0531 F3600 ; custom feedrate - full
G1 X73.645 Y73.792 E2.0684
G1 X73.645 Y71.055 E2.1667
G1 X73.22 Y71.055 E2.1820
G1 X73.22 Y53.218 E2.8227
G1 X135.18099999999998 Y53.218 E5.0484
G1 X135.18099999999998 Y53.614000000000004 E5.0626
G1 X137.014 Y53.614000000000004 E5.1284
G1 X137.014 Y53.218 E5.1426
G1 X156.78 Y53.218 E5.8527
G1 X156.78 Y83.85300000000001 E6.9531
G1 X124.419 Y113.994 E8.5417
G1 X121.578 Y113.994 E8.6437
G1 X121.578 Y116.64 E8.7387
G1 X90.22 Y145.84699999999998 E10.2781
G1 X90.22 Y130.94799999999998 E10.8133
G1 X73.22 Y130.94799999999998 E11.4239
G1 X72.74 Y131.428 F6000
G92 E0.0000
G1 X72.74 Y73.312 E2.0876 F1800 ; custom feedrate - half
G1 X73.16499999999999 Y73.312 E2.1028
G1 X73.16499999999999 Y72.459 E2.1335
G1 X72.74 Y72.459 E2.1488
G1 X72.74 Y72.407 E2.1506
G1 X73.16499999999999 Y72.407 E2.1659
G1 X73.16499999999999 Y71.535 E2.1972
G1 X72.74 Y71.535 E2.2125
G1 X72.74 Y52.738 E2.8877
G1 X135.661 Y52.738 E5.1479
G1 X135.661 Y53.134 E5.1621
G1 X136.534 Y53.134 E5.1934
G1 X136.534 Y52.738 E5.2076
G1 X157.26 Y52.738 E5.9522
G1 X157.26 Y84.062 E7.0773
G1 X124.608 Y114.474 E8.6802
G1 X122.058 Y114.474 E8.7718
G1 X122.058 Y116.849 E8.8571
G1 X89.74000000000001 Y146.95 E10.4435
G1 X89.74000000000001 Y131.428 E11.0011
G1 X72.74 Y131.428 E11.6118
G92 E0.0000
G1 E-0.4 F2100 ; custom retraction
;layer 10, Z = 2.000
;fan10;
G1 Z2.000 F1200
G1 X73.22 Y130.94799999999998 F6000
G1 E0 F2100 ; custom un-retraction/prime
G92 E0.0000
G1 X73.22 Y73.69200000000001 E2.0567 F3600 ; custom feedrate - full
G1 X73.645 Y73.69200000000001 E2.0720
G1 X73.645 Y71.155 E2.1631
G1 X73.22 Y71.155 E2.1784
G1 X73.22 Y53.218 E2.8227
G1 X135.18099999999998 Y53.218 E5.0484
G1 X135.18099999999998 Y53.614000000000004 E5.0626
G1 X137.014 Y53.614000000000004 E5.1284
G1 X137.014 Y53.218 E5.1426
G1 X156.78 Y53.218 E5.8527
G1 X156.78 Y83.85300000000001 E6.9531
G1 X124.419 Y113.994 E8.5417
G1 X121.578 Y113.994 E8.6437
G1 X121.578 Y116.64 E8.7387
G1 X90.22 Y145.84699999999998 E10.2781
G1 X90.22 Y130.94799999999998 E10.8133
G1 X73.22 Y130.94799999999998 E11.4239
G1 X72.74 Y131.428 F6000
G92 E0.0000
G1 X72.74 Y73.212 E2.0912 F1800 ; custom feedrate - half
G1 X73.16499999999999 Y73.212 E2.1065
G1 X73.16499999999999 Y71.635 E2.1631
G1 X72.74 Y71.635 E2.1784
G1 X72.74 Y52.738 E2.8572
G1 X135.661 Y52.738 E5.1173
G1 X135.661 Y53.134 E5.1315
G1 X136.534 Y53.134 E5.1629
G1 X136.534 Y52.738 E5.1771
G1 X157.26 Y52.738 E5.9216
G1 X157.26 Y84.062 E7.0468
G1 X124.608 Y114.474 E8.6497
G1 X122.058 Y114.474 E8.7412
G1 X122.058 Y116.849 E8.8266
G1 X89.74000000000001 Y146.95 E10.4130
G1 X89.74000000000001 Y131.428 E10.9706
G1 X72.74 Y131.428 E11.5812
G92 E0.0000
G1 E-0.4 F2100 ; custom retraction
;layer 11, Z = 2.200
;fan11;
G1 Z2.200 F1200
G1 X73.22 Y130.94799999999998 F6000
G1 E0 F2100 ; custom un-retraction/prime
G92 E0.0000
G1 X73.22 Y73.59100000000001 E2.0603 F3600 ; custom feedrate - full
G1 X73.645 Y73.59100000000001 E2.0756
G1 X73.645 Y71.255 E2.1595
G1 X73.22 Y71.255 E2.1748
G1 X73.22 Y53.218 E2.8227
G1 X135.136 Y53.218 E5.0468
G1 X135.136 Y53.614000000000004 E5.0610
G1 X137.048 Y53.614000000000004 E5.1297
G1 X137.048 Y53.218 E5.1439
G1 X156.78 Y53.218 E5.8527
G1 X156.78 Y83.85300000000001 E6.9531
G1 X124.419 Y113.994 E8.5417
G1 X121.578 Y113.994 E8.6437
G1 X121.578 Y116.64 E8.7387
G1 X90.22 Y145.84699999999998 E10.2781
G1 X90.22 Y130.94799999999998 E10.8133
G1 X73.22 Y130.94799999999998 E11.4239
G1 X72.74 Y131.428 F6000
G92 E0.0000
G1 X72.74 Y73.11099999999999 E2.0948 F1800 ; custom feedrate - half
G1 X73.16499999999999 Y73.11099999999999 E2.1101
G1 X73.16499999999999 Y71.735 E2.1595
G1 X72.74 Y71.735 E2.1748
G1 X72.74 Y52.738 E2.8572
G1 X135.61599999999999 Y52.738 E5.1157
G1 X135.61599999999999 Y53.134 E5.1300
G1 X136.56799999999998 Y53.134 E5.1641
G1 X136.56799999999998 Y52.738 E5.1784
G1 X157.26 Y52.738 E5.9216
G1 X157.26 Y84.062 E7.0468
G1 X124.608 Y114.474 E8.6497
G1 X122.058 Y114.474 E8.7412
G1 X122.058 Y116.849 E8.8266
G1 X89.74000000000001 Y146.95 E10.4130
G1 X89.74000000000001 Y131.428 E10.9706
G1 X72.74 Y131.428 E11.5812
G92 E0.0000
G1 E-0.4 F2100 ; custom retraction
;layer 12, Z = 2.400
;fan12;
G1 Z2.400 F1200
G1 X73.22 Y130.94799999999998 F6000
G1 E0 F2100 ; custom un-retraction/prime
G92 E0.0000
G1 X73.22 Y73.49000000000001 E2.0639 F3600 ; custom feedrate - full
G1 X73.645 Y73.49000000000001 E2.0792
G1 X73.645 Y71.356 E2.1559
G1 X73.22 Y71.356 E2.1711
G1 X73.22 Y53.218 E2.8227
G1 X135.04500000000002 Y53.218 E5.0435
G1 X135.04500000000002 Y53.614000000000004 E5.0577
G1 X137.14100000000002 Y53.614000000000004 E5.1330
G1 X137.14100000000002 Y53.218 E5.1472
G1 X156.78 Y53.218 E5.8527
G1 X156.78 Y83.85300000000001 E6.9531
G1 X124.419 Y113.994 E8.5417
G1 X121.578 Y113.994 E8.6437
G1 X121.578 Y116.64 E8.7387
G1 X90.22 Y145.84699999999998 E10.2781
G1 X90.22 Y130.94799999999998 E10.8133
G1 X73.22 Y130.94799999999998 E11.4239
G1 X72.74 Y131.428 F6000
G92 E0.0000
G1 X72.74 Y73.00999999999999 E2.0984 F1800 ; custom feedrate - half
G1 X73.16499999999999 Y73.00999999999999 E2.1137
G1 X73.16499999999999 Y71.836 E2.1559
G1 X72.74 Y71.836 E2.1711
G1 X72.74 Y52.738 E2.8572
G1 X135.525 Y52.738 E5.1124
G1 X135.525 Y53.134 E5.1267
G1 X136.661 Y53.134 E5.1675
G1 X136.661 Y52.738 E5.1817
G1 X157.26 Y52.738 E5.9216
G1 X157.26 Y84.062 E7.0468
G1 X124.608 Y114.474 E8.6497
G1 X122.058 Y114.474 E8.7412
G1 X122.058 Y116.849 E8.8266
G1 X89.74000000000001 Y146.95 E10.4130
G1 X89.74000000000001 Y131.428 E10.9706
G1 X72.74 Y131.428 E11.5812
G92 E0.0000
G1 E-0.4 F2100 ; custom retraction
;layer 13, Z = 2.600
;fan13;
G1 Z2.600 F1200
G1 X73.22 Y130.94799999999998 F6000
G1 E0 F2100 ; custom un-retraction/prime
G92 E0.0000
G1 X73.22 Y73.38900000000001 E2.0676 F3600 ; custom feedrate - full
G1 X73.645 Y73.38900000000001 E2.0828
G1 X73.645 Y71.456 E2.1523
G1 X73.22 Y71.456 E2.1675
G1 X73.22 Y53.218 E2.8227
G1 X134.953 Y53.218 E5.0402
G1 X134.953 Y53.614000000000004 E5.0544
G1 X137.23399999999998 Y53.614000000000004 E5.1363
G1 X137.23399999999998 Y53.218 E5.1505
G1 X156.78 Y53.218 E5.8527
G1 X156.78 Y83.85300000000001 E6.9531
G1 X124.419 Y113.994 E8.5417
G1 X121.578 Y113.994 E8.6437
G1 X121.578 Y116.64 E8.7387
G1 X90.22 Y145.84699999999998 E10.2781
G1 X90.22 Y130.94799999999998 E10.8133
G1 X73.22 Y130.94799999999998 E11.4239
G1 X72.74 Y131.428 F6000
G92 E0.0000
G1 X72.74 Y72.90899999999999 E2.1020 F1800 ; custom feedrate - half
G1 X73.16499999999999 Y72.90899999999999 E2.1173
G1 X73.16499999999999 Y71.936 E2.1523
G1 X72.74 Y71.936 E2.1675
G1 X72.74 Y52.738 E2.8572
G1 X135.433 Y52.738 E5.1091
G1 X135.433 Y53.134 E5.1234
G1 X136.75400000000002 Y53.134 E5.1708
G1 X136.75400000000002 Y52.738 E5.1850
G1 X157.26 Y52.738 E5.9216
G1 X157.26 Y84.062 E7.0468
G1 X124.608 Y114.474 E8.6497
G1 X122.058 Y114.474 E8.7412
G1 X122.058 Y116.849 E8.8266
G1 X89.74000000000001 Y146.95 E10.4130
G1 X89.74000000000001 Y131.428 E10.9706
G1 X72.74 Y131.428 E11.5812
G92 E0.0000
G1 E-0.4 F2100 ; custom retraction
;layer 14, Z = 2.800
;fan14;
G1 Z2.800 F1200
G1 X73.22 Y130.94799999999998 F6000
G1 E0 F2100 ; custom un-retraction/prime
G92 E0.0000
G1 X73.22 Y73.418 E2.0665 F3600 ; custom feedrate - full
G1 X73.645 Y73.418 E2.0818
G1 X73.645 Y71.443 E2.1528
G1 X73.22 Y71.443 E2.1680
G1 X73.22 Y53.218 E2.8227
G1 X134.861 Y53.218 E5.0369
G1 X134.861 Y53.614000000000004 E5.0511
G1 X137.326 Y53.614000000000004 E5.1396
G1 X137.326 Y53.218 E5.1539
G1 X156.78 Y53.218 E5.8527
G1 X156.78 Y83.85300000000001 E6.9531
G1 X124.419 Y113.994 E8.5417
G1 X121.578 Y113.994 E8.6437
G1 X121.578 Y116.64 E8.7387
G1 X90.22 Y145.84699999999998 E10.2781
G1 X90.22 Y130.94799999999998 E10.8133
G1 X73.22 Y130.94799999999998 E11.4239
G1 X72.74 Y131.428 F6000
G92 E0.0000
G1 X72.74 Y72.938 E2.1010 F1800 ; custom feedrate - half
G1 X73.16499999999999 Y72.938 E2.1163
G1 X73.16499999999999 Y71.923 E2.1528
G1 X72.74 Y71.923 E2.1680
G1 X72.74 Y52.738 E2.8572
G1 X135.341 Y52.738 E5.1059
G1 X135.341 Y53.134 E5.1201
G1 X136.846 Y53.134 E5.1741
G1 X136.846 Y52.738 E5.1883
G1 X157.26 Y52.738 E5.9216
G1 X157.26 Y84.062 E7.0468
G1 X124.608 Y114.474 E8.6497
G1 X122.058 Y114.474 E8.7412
G1 X122.058 Y116.849 E8.8266
G1 X89.74000000000001 Y146.95 E10.4130
G1 X89.74000000000001 Y131.428 E10.9706
G1 X72.74 Y131.428 E11.5812
G92 E0.0000
G1 E-0.4 F2100 ; custom retraction
;layer 15, Z = 3.000
;fan15;
G1 Z3.000 F1200
G1 X73.22 Y130.94799999999998 F6000
G1 E0 F2100 ; custom un-retraction/prime
G92 E0.0000
G1 X73.22 Y73.521 E2.0628 F3600 ; custom feedrate - full
G1 X73.645 Y73.521 E2.0781
G1 X73.645 Y71.339 E2.1565
G1 X73.22 Y71.339 E2.1717
G1 X73.22 Y53.218 E2.8227
G1 X134.76999999999998 Y53.218 E5.0336
G1 X134.76999999999998 Y53.614000000000004 E5.0478
G1 X137.41899999999998 Y53.614000000000004 E5.1430
G1 X137.41899999999998 Y53.218 E5.1572
G1 X156.78 Y53.218 E5.8527
G1 X156.78 Y83.85300000000001 E6.9531
G1 X124.419 Y113.994 E8.5417
G1 X121.578 Y113.994 E8.6437
G1 X121.578 Y116.64 E8.7387
G1 X90.22 Y145.84699999999998 E10.2781
G1 X90.22 Y130.94799999999998 E10.8133
G1 X73.22 Y130.94799999999998 E11.4239
G1 X72.74 Y131.428 F6000
G92 E0.0000
G1 X72.74 Y73.041 E2.0973 F1800 ; custom feedrate - half
G1 X73.16499999999999 Y73.041 E2.1126
G1 X73.16499999999999 Y71.819 E2.1565
G1 X72.74 Y71.819 E2.1717
G1 X72.74 Y52.738 E2.8572
G1 X135.25 Y52.738 E5.1026
G1 X135.25 Y53.134 E5.1168
G1 X136.939 Y53.134 E5.1775
G1 X136.939 Y52.738 E5.1917
G1 X157.26 Y52.738 E5.9216
G1 X157.26 Y84.062 E7.0468
G1 X124.608 Y114.474 E8.6497
G1 X122.058 Y114.474 E8.7412
G1 X122.058 Y116.849 E8.8266
G1 X89.74000000000001 Y146.95 E10.4130
G1 X89.74000000000001 Y131.428 E10.9706
G1 X72.74 Y131.428 E11.5812
G92 E0.0000
G1 E-0.4 F2100 ; custom retraction
;layer 16, Z = 3.200
;fan16;
G1 Z3.200 F1200
G1 X73.22 Y130.94799999999998 F6000
G1 E0 F2100 ; custom un-retraction/prime
G92 E0.0000
G1 X73.22 Y73.624 E2.0591 F3600 ; custom feedrate - full
G1 X73.645 Y73.624 E2.0744
G1 X73.645 Y71.236 E2.1602
G1 X73.22 Y71.236 E2.1755
G1 X73.22 Y53.218 E2.8227
G1 X134.678 Y53.218 E5.0303
G1 X134.678 Y53.614000000000004 E5.0445
G1 X137.512 Y53.614000000000004 E5.1463
G1 X137.512 Y53.218 E5.1605
G1 X156.78 Y53.218 E5.8527
G1 X156.78 Y83.85300000000001 E6.9531
G1 X124.419 Y113.994 E8.5417
G1 X121.578 Y113.994 E8.6437
G1 X121.578 Y116.64 E8.7387
G1 X90.22 Y145.84699999999998 E10.2781
G1 X90.22 Y130.94799999999998 E10.8133
G1 X73.22 Y130.94799999999998 E11.4239
G1 X72.74 Y131.428 F6000
G92 E0.0000
G1 X72.74 Y73.144 E2.0936 F1800 ; custom feedrate - half
G1 X73.16499999999999 Y73.144 E2.1089
G1 X73.16499999999999 Y71.71600000000001 E2.1602
G1 X72.74 Y71.71600000000001 E2.1755
G1 X72.74 Y52.738 E2.8572
G1 X135.15800000000002 Y52.738 E5.0993
G1 X135.15800000000002 Y53.134 E5.1135
G1 X136.05200000000002 Y53.134 E5.1456
G1 X136.05200000000002 Y52.738 E5.1598
G1 X136.14499999999998 Y52.738 E5.1631
G1 X136.14499999999998 Y53.134 E5.1774
G1 X137.03199999999998 Y53.134 E5.2092
G1 X137.03199999999998 Y52.738 E5.2234
G1 X157.26 Y52.738 E5.9501
G1 X157.26 Y84.062 E7.0752
G1 X124.608 Y114.474 E8.6781
G1 X122.058 Y114.474 E8.7697
G1 X122.058 Y116.849 E8.8550
G1 X89.74000000000001 Y146.95 E10.4414
G1 X89.74000000000001 Y131.428 E10.9990
G1 X72.74 Y131.428 E11.6097
G92 E0.0000
G1 E-0.4 F2100 ; custom retraction
;layer 17, Z = 3.400
;fan17;
G1 Z3.400 F1200
G1 X73.22 Y130.94799999999998 F6000
G1 E0 F2100 ; custom un-retraction/prime
G92 E0.0000
G1 X73.22 Y73.726 E2.0555 F3600 ; custom feedrate - full
G1 X73.645 Y73.726 E2.0707
G1 X73.645 Y71.132 E2.1639
G1 X73.22 Y71.132 E2.1792
G1 X73.22 Y53.218 E2.8227
G1 X134.586 Y53.218 E5.0270
G1 X134.586 Y53.614000000000004 E5.0412
G1 X137.60399999999998 Y53.614000000000004 E5.1496
G1 X137.60399999999998 Y53.218 E5.1639
G1 X156.78 Y53.218 E5.8527
G1 X156.78 Y83.85300000000001 E6.9531
G1 X124.419 Y113.994 E8.5417
G1 X121.578 Y113.994 E8.6437
G1 X121.578 Y116.64 E8.7387
G1 X90.22 Y145.84699999999998 E10.2781
G1 X90.22 Y130.94799999999998 E10.8133
G1 X73.22 Y130.94799999999998 E11.4239
G1 X72.74 Y131.428 F6000
G92 E0.0000
G1 X72.74 Y73.24600000000001 E2.0899 F1800 ; custom feedrate - half
G1 X73.16499999999999 Y73.24600000000001 E2.1052
G1 X73.16499999999999 Y71.612 E2.1639
G1 X72.74 Y71.612 E2.1792
G1 X72.74 Y52.738 E2.8572
G1 X135.066 Y52.738 E5.0960
G1 X135.066 Y53.134 E5.1102
G1 X135.962 Y53.134 E5.1424
G1 X135.962 Y52.738 E5.1566
G1 X136.235 Y52.738 E5.1664
G1 X136.235 Y53.134 E5.1806
G1 X137.124 Y53.134 E5.2126
G1 X137.124 Y52.738 E5.2268
G1 X157.26 Y52.738 E5.9501
G1 X157.26 Y84.062 E7.0752
G1 X124.608 Y114.474 E8.6781
G1 X122.058 Y114.474 E8.7697
G1 X122.058 Y116.849 E8.8550
G1 X89.74000000000001 Y146.95 E10.4414
G1 X89.74000000000001 Y131.428 E10.9990
G1 X72.74 Y131.428 E11.6097
G92 E0.0000
G1 E-0.4 F2100 ; custom retraction
;layer 18, Z = 3.600
;fan18;
G1 Z3.600 F1200
G1 X73.22 Y130.94799999999998 F6000
G1 E0 F2100 ; custom un-retraction/prime
G92 E0.0000
G1 X73.22 Y73.82900000000001 E2.0518 F3600 ; custom feedrate - full
G1 X73.645 Y73.82900000000001 E2.0670
G1 X73.645 Y71.02799999999999 E2.1676
G1 X73.22 Y71.02799999999999 E2.1829
G1 X73.22 Y53.218 E2.8227
G1 X134.495 Y53.218 E5.0237
G1 X134.495 Y53.614000000000004 E5.0379
G1 X137.697 Y53.614000000000004 E5.1530
G1 X137.697 Y53.218 E5.1672
G1 X156.78 Y53.218 E5.8527
G1 X156.78 Y83.85300000000001 E6.9531
G1 X124.419 Y113.994 E8.5417
G1 X121.578 Y113.994 E8.6437
G1 X121.578 Y116.64 E8.7387
G1 X90.22 Y145.84699999999998 E10.2781
G1 X90.22 Y130.94799999999998 E10.8133
G1 X73.22 Y130.94799999999998 E11.4239
G1 X72.74 Y131.428 F6000
G92 E0.0000
G1 X72.74 Y73.34899999999999 E2.0862 F1800 ; custom feedrate - half
G1 X73.16499999999999 Y73.34899999999999 E2.1015
G1 X73.16499999999999 Y72.483 E2.1326
G1 X72.74 Y72.483 E2.1479
G1 X72.74 Y72.36 E2.1523
G1 X73.16499999999999 Y72.36 E2.1676
G1 X73.16499999999999 Y71.508 E2.1982
G1 X72.74 Y71.508 E2.2134
G1 X72.74 Y52.738 E2.8877
G1 X134.975 Y52.738 E5.1232
G1 X134.975 Y53.134 E5.1374
G1 X135.872 Y53.134 E5.1697
G1 X135.872 Y52.738 E5.1839
G1 X136.326 Y52.738 E5.2002
G1 X136.326 Y53.134 E5.2144
G1 X137.21699999999998 Y53.134 E5.2464
G1 X137.21699999999998 Y52.738 E5.2606
G1 X157.26 Y52.738 E5.9806
G1 X157.26 Y84.062 E7.1058
G1 X124.608 Y114.474 E8.7086
G1 X122.058 Y114.474 E8.8002
G1 X122.058 Y116.849 E8.8855
G1 X89.74000000000001 Y146.95 E10.4720
G1 X89.74000000000001 Y131.428 E11.0296
G1 X72.74 Y131.428 E11.6402
G92 E0.0000
G1 E-0.4 F2100 ; custom retraction
;layer 19, Z = 3.800
;fan19;
G1 Z3.800 F1200
G1 X73.22 Y130.94799999999998 F6000
G1 E0 F2100 ; custom un-retraction/prime
G92 E0.0000
G1 X73.22 Y73.932 E2.0481 F3600 ; custom feedrate - full
G1 X73.645 Y73.932 E2.0633
G1 X73.645 Y70.925 E2.1714
G1 X73.22 Y70.925 E2.1866
G1 X73.22 Y53.218 E2.8227
G1 X134.40300000000002 Y53.218 E5.0204
G1 X134.40300000000002 Y53.614000000000004 E5.0346
G1 X137.79000000000002 Y53.614000000000004 E5.1563
G1 X137.79000000000002 Y53.218 E5.1705
G1 X156.78 Y53.218 E5.8527
G1 X156.78 Y83.85300000000001 E6.9531
G1 X124.419 Y113.994 E8.5417
G1 X121.578 Y113.994 E8.6437
G1 X121.578 Y116.64 E8.7387
G1 X90.22 Y145.84699999999998 E10.2781
G1 X90.22 Y130.94799999999998 E10.8133
G1 X73.22 Y130.94799999999998 E11.4239
G1 X72.74 Y131.428 F6000
G92 E0.0000
G1 X72.74 Y73.452 E2.0825 F1800 ; custom feedrate - half
G1 X73.16499999999999 Y73.452 E2.0978
G1 X73.16499999999999 Y72.582 E2.1291
G1 X72.74 Y72.582 E2.1443
G1 X72.74 Y72.25999999999999 E2.1559
G1 X73.16499999999999 Y72.25999999999999 E2.1712
G1 X73.16499999999999 Y71.405 E2.2019
G1 X72.74 Y71.405 E2.2172
G1 X72.74 Y52.738 E2.8877
G1 X134.88299999999998 Y52.738 E5.1199
G1 X134.88299999999998 Y53.134 E5.1341
G1 X135.78199999999998 Y53.134 E5.1664
G1 X135.78199999999998 Y52.738 E5.1806
G1 X136.417 Y52.738 E5.2034
G1 X136.417 Y53.134 E5.2177
G1 X137.31 Y53.134 E5.2497
G1 X137.31 Y52.738 E5.2640
G1 X157.26 Y52.738 E5.9806
G1 X157.26 Y84.062 E7.1058
G1 X124.608 Y114.474 E8.7086
G1 X122.058 Y114.474 E8.8002
G1 X122.058 Y116.849 E8.8855
G1 X89.74000000000001 Y146.95 E10.4720
G1 X89.74000000000001 Y131.428 E11.0296
G1 X72.74 Y131.428 E11.6402
G1 X136.12900000000002 Y53.246 F6000
G92 E0.0000
G1 X136.07 Y53.188 E0.0030 F3600 ; custom feedrate - full
G92 E0.0000
G1 E-0.4 F2100 ; custom retraction
;layer 20, Z = 4.000
;fan20;
G1 Z4.000 F1200
G1 X73.22 Y130.94799999999998 F6000
G1 E0 F2100 ; custom un-retraction/prime
G92 E0.0000
G1 X73.22 Y74.035 E2.0444 F3600 ; custom feedrate - full
G1 X73.645 Y74.035 E2.0596
G1 X73.645 Y70.821 E2.1751
G1 X73.22 Y70.821 E2.1903
G1 X73.22 Y53.218 E2.8227
G1 X134.311 Y53.218 E5.0171
G1 X134.311 Y53.614000000000004 E5.0313
G1 X137.882 Y53.614000000000004 E5.1596
G1 X137.882 Y53.218 E5.1738
G1 X156.78 Y53.218 E5.8527
G1 X156.78 Y83.85300000000001 E6.9531
G1 X124.419 Y113.994 E8.5417
G1 X121.578 Y113.994 E8.6437
G1 X121.578 Y116.64 E8.7387
G1 X90.22 Y145.84699999999998 E10.2781
G1 X90.22 Y130.94799999999998 E10.8133
G1 X73.22 Y130.94799999999998 E11.4239
G1 X72.74 Y131.428 F6000
G92 E0.0000
G1 X72.74 Y73.555 E2.0789 F1800 ; custom feedrate - half
G1 X73.16499999999999 Y73.555 E2.0941
G1 X73.16499999999999 Y72.681 E2.1255
G1 X72.74 Y72.681 E2.1408
G1 X72.74 Y72.16 E2.1595
G1 X73.16499999999999 Y72.16 E2.1748
G1 X73.16499999999999 Y71.301 E2.2056
G1 X72.74 Y71.301 E2.2209
G1 X72.74 Y52.738 E2.8877
G1 X134.791 Y52.738 E5.1166
G1 X134.791 Y53.134 E5.1308
G1 X135.692 Y53.134 E5.1632
G1 X135.692 Y52.738 E5.1774
G1 X136.507 Y52.738 E5.2067
G1 X136.507 Y53.134 E5.2209
G1 X137.402 Y53.134 E5.2531
G1 X137.402 Y52.738 E5.2673
G1 X157.26 Y52.738 E5.9806
G1 X157.26 Y84.062 E7.1058
G1 X124.608 Y114.474 E8.7086
G1 X122.058 Y114.474 E8.8002
G1 X122.058 Y116.849 E8.8855
G1 X89.74000000000001 Y146.95 E10.4720
G1 X89.74000000000001 Y131.428 E11.0296
G1 X72.74 Y131.428 E11.6402
G1 X135.98000000000002 Y53.225 F6000
G92 E0.0000
G1 X136.179 Y53.025999999999996 E0.0101 F3600 ; custom feedrate - full
G92 E0.0000
G1 E-0.4 F2100 ; custom retraction
;layer 21, Z = 4.200
;fan21;
G1 Z4.200 F1200
G1 X73.22 Y130.94799999999998 F6000
G1 E0 F2100 ; custom un-retraction/prime
G92 E0.0000
G1 X73.22 Y74.138 E2.0407 F3600 ; custom feedrate - full
G1 X73.645 Y74.138 E2.0559
G1 X73.645 Y70.718 E2.1788
G1 X73.22 Y70.718 E2.1941
G1 X73.22 Y53.218 E2.8227
G1 X134.22 Y53.218 E5.0138
G1 X134.22 Y53.614000000000004 E5.0280
G1 X137.975 Y53.614000000000004 E5.1630
G1 X137.975 Y53.218 E5.1772
G1 X156.78 Y53.218 E5.8527
G1 X156.78 Y83.85300000000001 E6.9531
G1 X124.419 Y113.994 E8.5417
G1 X121.578 Y113.994 E8.6437
G1 X121.578 Y116.64 E8.7387
G1 X90.22 Y145.84699999999998 E10.2781
G1 X90.22 Y130.94799999999998 E10.8133
G1 X73.22 Y130.94799999999998 E11.4239
G1 X72.74 Y131.428 F6000
G92 E0.0000
G1 X72.74 Y73.658 E2.0752 F1800 ; custom feedrate - half
G1 X73.16499999999999 Y73.658 E2.0904
G1 X73.16499999999999 Y72.78 E2.1220
G1 X72.74 Y72.78 E2.1372
G1 X72.74 Y72.059 E2.1631
G1 X73.16499999999999 Y72.059 E2.1784
G1 X73.16499999999999 Y71.19800000000001 E2.2093
G1 X72.74 Y71.19800000000001 E2.2246
G1 X72.74 Y52.738 E2.8877
G1 X134.7 Y52.738 E5.1133
G1 X134.7 Y53.134 E5.1275
G1 X135.602 Y53.134 E5.1600
G1 X135.602 Y52.738 E5.1742
G1 X136.598 Y52.738 E5.2100
G1 X136.598 Y53.134 E5.2242
G1 X137.495 Y53.134 E5.2564
G1 X137.495 Y52.738 E5.2706
G1 X157.26 Y52.738 E5.9806
G1 X157.26 Y84.062 E7.1058
G1 X124.608 Y114.474 E8.7086
G1 X122.058 Y114.474 E8.8002
G1 X122.058 Y116.849 E8.8855
G1 X89.74000000000001 Y146.95 E10.4720
G1 X89.74000000000001 Y131.428 E11.0296
G1 X72.74 Y131.428 E11.6402
G1 X73.237 Y72.49199999999999 F6000
G92 E0.0000
G1 X73.092 Y72.34700000000001 E0.0073 F3600 ; custom feedrate - full
G1 X135.558 Y53.134 F6000
G1 X135.602 Y53.134
G1 X135.602 Y53.12
G1 X135.90800000000002 Y53.025999999999996
G92 E0.0000
G1 X136.203 Y53.321 E0.0150 F3600 ; custom feedrate - full
G92 E0.0000
G1 E-0.4 F2100 ; custom retraction
;layer 22, Z = 4.400
;fan22;
G1 Z4.400 F1200
G1 X73.22 Y130.94799999999998 F6000
G1 E0 F2100 ; custom un-retraction/prime
G92 E0.0000
G1 X73.22 Y74.24000000000001 E2.0370 F3600 ; custom feedrate - full
G1 X73.645 Y74.24000000000001 E2.0523
G1 X73.645 Y70.614 E2.1825
G1 X73.22 Y70.614 E2.1978
G1 X73.22 Y53.218 E2.8227
G1 X134.128 Y53.218 E5.0105
G1 X134.128 Y53.614000000000004 E5.0248
G1 X138.06799999999998 Y53.614000000000004 E5.1663
G1 X138.06799999999998 Y53.218 E5.1805
G1 X156.78 Y53.218 E5.8527
G1 X156.78 Y83.85300000000001 E6.9531
G1 X124.419 Y113.994 E8.5417
G1 X121.578 Y113.994 E8.6437
G1 X121.578 Y116.64 E8.7387
G1 X90.22 Y145.84699999999998 E10.2781
G1 X90.22 Y130.94799999999998 E10.8133
G1 X73.22 Y130.94799999999998 E11.4239
G1 X72.74 Y131.428 F6000
G92 E0.0000
G1 X72.74 Y73.761 E2.0715 F1800 ; custom feedrate - half
G1 X73.16499999999999 Y73.761 E2.0867
G1 X73.16499999999999 Y72.87899999999999 E2.1184
G1 X72.74 Y72.87899999999999 E2.1337
G1 X72.74 Y71.959 E2.1667
G1 X73.16499999999999 Y71.959 E2.1820
G1 X73.16499999999999 Y71.094 E2.2131
G1 X72.74 Y71.094 E2.2283
G1 X72.74 Y52.738 E2.8877
G1 X134.608 Y52.738 E5.1100
G1 X134.608 Y53.134 E5.1243
G1 X135.512 Y53.134 E5.1567
G1 X135.512 Y52.738 E5.1709
G1 X136.688 Y52.738 E5.2132
G1 X136.688 Y53.134 E5.2274
G1 X137.588 Y53.134 E5.2597
G1 X137.588 Y52.738 E5.2740
G1 X157.26 Y52.738 E5.9806
G1 X157.26 Y84.062 E7.1058
G1 X124.608 Y114.474 E8.7086
G1 X122.058 Y114.474 E8.8002
G1 X122.058 Y116.849 E8.8855
G1 X89.74000000000001 Y146.95 E10.4720
G1 X89.74000000000001 Y131.428 E11.0296
G1 X72.74 Y131.428 E11.6402
G1 X73.16499999999999 Y73.761 F6000
G1 X73.16499999999999 Y73.114
G1 X73.169 Y72.59100000000001
G92 E0.0000
G1 X73.352 Y72.408 E0.0093 F3600 ; custom feedrate - full
G1 X135.88400000000001 Y53.321 F6000
G92 E0.0000
G1 X136.179 Y53.025999999999996 E0.0150 F3600 ; custom feedrate - full
G92 E0.0000
G1 E-0.4 F2100 ; custom retraction
;layer 23, Z = 4.600
;fan23;
G1 Z4.600 F1200
G1 X73.22 Y130.94799999999998 F6000
G1 E0 F2100 ; custom un-retraction/prime
G92 E0.0000
G1 X73.22 Y53.218 E2.7921 F3600 ; custom feedrate - full
G1 X156.78 Y53.218 E5.7937
G1 X156.78 Y83.85300000000001 E6.8941
G1 X124.419 Y113.994 E8.4827
G1 X121.578 Y113.994 E8.5847
G1 X121.578 Y116.64 E8.6798
G1 X90.22 Y145.84699999999998 E10.2191
G1 X90.22 Y130.94799999999998 E10.7543
G1 X73.22 Y130.94799999999998 E11.3650
G1 X72.74 Y131.428 F6000
G92 E0.0000
G1 X72.74 Y52.738 E2.8266 F1800 ; custom feedrate - half
G1 X157.26 Y52.738 E5.8627
G1 X157.26 Y84.062 E6.9878
G1 X124.608 Y114.474 E8.5907
G1 X122.058 Y114.474 E8.6823
G1 X122.058 Y116.849 E8.7676
G1 X89.74000000000001 Y146.95 E10.3540
G1 X89.74000000000001 Y131.428 E10.9116
G1 X72.74 Y131.428 E11.5223
G92 E0.0000
G1 E-0.4 F2100 ; custom retraction
;layer 24, Z = 4.800
;fan24;
G1 Z4.800 F1200
G1 X73.22 Y130.94799999999998 F6000
G1 E0 F2100 ; custom un-retraction/prime
G92 E0.0000
G1 X73.22 Y53.218 E2.7921 F3600 ; custom feedrate - full
G1 X156.61 Y53.218 E5.7876
G1 X156.61 Y84.011 E6.8937
G1 X124.419 Y113.994 E8.4739
G1 X121.578 Y113.994 E8.5760
G1 X121.578 Y116.64 E8.6710
G1 X90.22 Y145.84699999999998 E10.2103
G1 X90.22 Y130.94799999999998 E10.7455
G1 X73.22 Y130.94799999999998 E11.3562
G1 X72.74 Y131.428 F6000
G92 E0.0000
G1 X72.74 Y52.738 E2.8266 F1800 ; custom feedrate - half
G1 X157.09 Y52.738 E5.8566
G1 X157.09 Y84.22 E6.9874
G1 X124.608 Y114.474 E8.5819
G1 X122.058 Y114.474 E8.6735
G1 X122.058 Y116.849 E8.7588
G1 X89.74000000000001 Y146.95 E10.3453
G1 X89.74000000000001 Y131.428 E10.9028
G1 X72.74 Y131.428 E11.5135
G92 E0.0000
G1 E-0.4 F2100 ; custom retraction
;layer 25, Z = 5.000
;fan25;
G1 Z5.000 F1200
G1 X73.22 Y130.94799999999998 F6000
G1 E0 F2100 ; custom un-retraction/prime
G92 E0.0000
G1 X73.22 Y53.218 E2.7921 F3600 ; custom feedrate - full
G1 X156.44 Y53.218 E5.7815
G1 X156.44 Y84.169 E6.8933
G1 X124.419 Y113.994 E8.4652
G1 X121.578 Y113.994 E8.5672
G1 X121.578 Y116.64 E8.6622
G1 X90.22 Y145.84699999999998 E10.2016
G1 X90.22 Y130.94799999999998 E10.7368
G1 X73.22 Y130.94799999999998 E11.3474
G1 X72.74 Y131.428 F6000
G92 E0.0000
G1 X72.74 Y52.738 E2.8266 F1800 ; custom feedrate - half
G1 X156.92000000000002 Y52.738 E5.8504
G1 X156.92000000000002 Y84.378 E6.9870
G1 X124.608 Y114.474 E8.5732
G1 X122.058 Y114.474 E8.6648
G1 X122.058 Y116.849 E8.7501
G1 X89.74000000000001 Y146.95 E10.3365
G1 X89.74000000000001 Y131.428 E10.8941
G1 X72.74 Y131.428 E11.5047
G92 E0.0000
G1 E-0.4 F2100 ; custom retraction
M204 P600 ; custom acceleration - B
M205 X8 Y8 Z8 ; custom jerk - B
;layer 26, Z = 5.200
;fan26;
G1 Z5.200 F1200
G1 X73.22 Y130.94799999999998 F6000
G1 E0 F2100 ; custom un-retraction/prime
G92 E0.0000
G1 X73.22 Y53.218 E2.7921 F3600 ; custom feedrate - full
G1 X156.78 Y53.218 E5.7937
G1 X156.78 Y83.85300000000001 E6.8941
G1 X124.419 Y113.994 E8.4827
G1 X121.578 Y113.994 E8.5847
G1 X121.578 Y116.64 E8.6798
G1 X90.22 Y145.84699999999998 E10.2191
G1 X90.22 Y130.94799999999998 E10.7543
G1 X73.22 Y130.94799999999998 E11.3650
G1 X72.74 Y131.428 F6000
G92 E0.0000
G1 X72.74 Y52.738 E2.8266 F1800 ; custom feedrate - half
G1 X157.26 Y52.738 E5.8627
G1 X157.26 Y84.062 E6.9878
G1 X124.608 Y114.474 E8.5907
G1 X122.058 Y114.474 E8.6823
G1 X122.058 Y116.849 E8.7676
G1 X89.74000000000001 Y146.95 E10.3540
G1 X89.74000000000001 Y131.428 E10.9116
G1 X72.74 Y131.428 E11.5223
G92 E0.0000
G1 E-0.4 F2100 ; custom retraction
;layer 27, Z = 5.400
;fan27;
G1 Z5.400 F1200
G1 X73.22 Y130.94799999999998 F6000
G1 E0 F2100 ; custom un-retraction/prime
G92 E0.0000
G1 X73.22 Y53.218 E2.7921 F3600 ; custom feedrate - full
G1 X156.78 Y53.218 E5.7937
G1 X156.78 Y83.85300000000001 E6.8941
G1 X124.419 Y113.994 E8.4827
G1 X121.578 Y113.994 E8.5847
G1 X121.578 Y116.64 E8.6798
G1 X90.22 Y145.84699999999998 E10.2191
G1 X90.22 Y130.94799999999998 E10.7543
G1 X73.22 Y130.94799999999998 E11.3650
G1 X72.74 Y131.428 F6000
G92 E0.0000
G1 X72.74 Y52.738 E2.8266 F1800 ; custom feedrate - half
G1 X157.26 Y52.738 E5.8627
G1 X157.26 Y84.062 E6.9878
G1 X124.608 Y114.474 E8.5907
G1 X122.058 Y114.474 E8.6823
G1 X122.058 Y116.849 E8.7676
G1 X89.74000000000001 Y146.95 E10.3540
G1 X89.74000000000001 Y131.428 E10.9116
G1 X72.74 Y131.428 E11.5223
G92 E0.0000
G1 E-0.4 F2100 ; custom retraction
;layer 28, Z = 5.600
;fan28;
G1 Z5.600 F1200
G1 X73.22 Y130.94799999999998 F6000
G1 E0 F2100 ; custom un-retraction/prime
G92 E0.0000
G1 X73.22 Y74.39699999999999 E2.0314 F3600 ; custom feedrate - full
G1 X73.645 Y74.39699999999999 E2.0466
G1 X73.645 Y70.452 E2.1883
G1 X73.22 Y70.452 E2.2036
G1 X73.22 Y53.218 E2.8227
G1 X135.18099999999998 Y53.218 E5.0484
G1 X135.18099999999998 Y53.614000000000004 E5.0626
G1 X137.014 Y53.614000000000004 E5.1284
G1 X137.014 Y53.218 E5.1426
G1 X156.78 Y53.218 E5.8527
G1 X156.78 Y83.85300000000001 E6.9531
G1 X124.419 Y113.994 E8.5417
G1 X121.578 Y113.994 E8.6437
G1 X121.578 Y116.64 E8.7387
G1 X90.22 Y145.84699999999998 E10.2781
G1 X90.22 Y130.94799999999998 E10.8133
G1 X73.22 Y130.94799999999998 E11.4239
G1 X72.74 Y131.428 F6000
G92 E0.0000
G1 X72.74 Y73.917 E2.0659 F1800 ; custom feedrate - half
G1 X73.16499999999999 Y73.917 E2.0811
G1 X73.16499999999999 Y73.05 E2.1123
G1 X72.74 Y73.05 E2.1275
G1 X72.74 Y71.827 E2.1715
G1 X73.16499999999999 Y71.827 E2.1867
G1 X73.16499999999999 Y70.932 E2.2189
G1 X72.74 Y70.932 E2.2341
G1 X72.74 Y52.738 E2.8877
G1 X135.661 Y52.738 E5.1479
G1 X135.661 Y53.134 E5.1621
G1 X136.534 Y53.134 E5.1934
G1 X136.534 Y52.738 E5.2076
G1 X157.26 Y52.738 E5.9522
G1 X157.26 Y84.062 E7.0773
G1 X124.608 Y114.474 E8.6802
G1 X122.058 Y114.474 E8.7718
G1 X122.058 Y116.849 E8.8571
G1 X89.74000000000001 Y146.95 E10.4435
G1 X89.74000000000001 Y131.428 E11.0011
G1 X72.74 Y131.428 E11.6118
G1 X73.02199999999999 Y73.917 F6000
G1 X73.16499999999999 Y73.917
G1 X73.16499999999999 Y73.05
G1 X73.026 Y73.05
G1 X73.02799999999999 Y72.732
G92 E0.0000
G1 X73.352 Y72.408 E0.0165 F3600 ; custom feedrate - full
G92 E0.0000
G1 E-0.4 F2100 ; custom retraction
;layer 29, Z = 5.800
;fan29;
G1 Z5.800 F1200
G1 X73.22 Y130.94799999999998 F6000
G1 E0 F2100 ; custom un-retraction/prime
G92 E0.0000
G1 X73.22 Y74.29599999999999 E2.0350 F3600 ; custom feedrate - full
G1 X73.645 Y74.29599999999999 E2.0503
G1 X73.645 Y70.553 E2.1847
G1 X73.22 Y70.553 E2.2000
G1 X73.22 Y53.218 E2.8227
G1 X135.18099999999998 Y53.218 E5.0484
G1 X135.18099999999998 Y53.614000000000004 E5.0626
G1 X137.014 Y53.614000000000004 E5.1284
G1 X137.014 Y53.218 E5.1426
G1 X156.78 Y53.218 E5.8527
G1 X156.78 Y83.85300000000001 E6.9531
G1 X124.419 Y113.994 E8.5417
G1 X121.578 Y113.994 E8.6437
G1 X121.578 Y116.64 E8.7387
G1 X90.22 Y145.84699999999998 E10.2781
G1 X90.22 Y130.94799999999998 E10.8133
G1 X73.22 Y130.94799999999998 E11.4239
G1 X72.74 Y131.428 F6000
G92 E0.0000
G1 X72.74 Y73.816 E2.0695 F1800 ; custom feedrate - half
G1 X73.16499999999999 Y73.816 E2.0847
G1 X73.16499999999999 Y72.951 E2.1158
G1 X72.74 Y72.951 E2.1311
G1 X72.74 Y71.924 E2.1680
G1 X73.16499999999999 Y71.924 E2.1833
G1 X73.16499999999999 Y71.033 E2.2153
G1 X72.74 Y71.033 E2.2305
G1 X72.74 Y52.738 E2.8877
G1 X135.661 Y52.738 E5.1479
G1 X135.661 Y53.134 E5.1621
G1 X136.534 Y53.134 E5.1934
G1 X136.534 Y52.738 E5.2076
G1 X157.26 Y52.738 E5.9522
G1 X157.26 Y84.062 E7.0773
G1 X124.608 Y114.474 E8.6802
G1 X122.058 Y114.474 E8.7718
G1 X122.058 Y116.849 E8.8571
G1 X89.74000000000001 Y146.95 E10.4435
G1 X89.74000000000001 Y131.428 E11.0011
G1 X72.74 Y131.428 E11.6118
G1 X73.352 Y72.607 F6000
G92 E0.0000
G1 X73.02799999999999 Y72.283 E0.0165 F3600 ; custom feedrate - full
G92 E0.0000
G1 E-0.4 F2100 ; custom retraction
;layer 30, Z = 6.000
;fan30;
G1 Z6.000 F1200
G1 X73.03 Y72.951 F6000
G1 X73.16499999999999 Y72.951
G1 X73.16499999999999 Y73.816
G1 X73.033 Y73.816
G1 X73.22 Y130.94799999999998
G1 E0 F2100 ; custom un-retraction/prime
G92 E0.0000
G1 X73.22 Y74.195 E2.0386 F3600 ; custom feedrate - full
G1 X73.645 Y74.195 E2.0539
G1 X73.645 Y70.65299999999999 E2.1811
G1 X73.22 Y70.65299999999999 E2.1964
G1 X73.22 Y53.218 E2.8227
G1 X135.18099999999998 Y53.218 E5.0484
G1 X135.18099999999998 Y53.614000000000004 E5.0626
G1 X137.014 Y53.614000000000004 E5.1284
G1 X137.014 Y53.218 E5.1426
G1 X156.78 Y53.218 E5.8527
G1 X156.78 Y83.85300000000001 E6.9531
G1 X124.419 Y113.994 E8.5417
G1 X121.578 Y113.994 E8.6437
G1 X121.578 Y116.64 E8.7387
G1 X90.22 Y145.84699999999998 E10.2781
G1 X90.22 Y130.94799999999998 E10.8133
G1 X73.22 Y130.94799999999998 E11.4239
G1 X72.74 Y131.428 F6000
G92 E0.0000
G1 X72.74 Y73.715 E2.0731 F1800 ; custom feedrate - half
G1 X73.16499999999999 Y73.715 E2.0884
G1 X73.16499999999999 Y72.85300000000001 E2.1193
G1 X72.74 Y72.85300000000001 E2.1346
G1 X72.74 Y72.02000000000001 E2.1645
G1 X73.16499999999999 Y72.02000000000001 E2.1798
G1 X73.16499999999999 Y71.133 E2.2116
G1 X72.74 Y71.133 E2.2269
G1 X72.74 Y52.738 E2.8877
G1 X135.661 Y52.738 E5.1479
G1 X135.661 Y53.134 E5.1621
G1 X136.534 Y53.134 E5.1934
G1 X136.534 Y52.738 E5.2076
G1 X157.26 Y52.738 E5.9522
G1 X157.26 Y84.062 E7.0773
G1 X124.608 Y114.474 E8.6802
G1 X122.058 Y114.474 E8.7718
G1 X122.058 Y116.849 E8.8571
G1 X89.74000000000001 Y146.95 E10.4435
G1 X89.74000000000001 Y131.428 E11.0011
G1 X72.74 Y131.428 E11.6118
G1 X73.195 Y72.565 F6000
G92 E0.0000
G1 X73.352 Y72.408 E0.0080 F3600 ; custom feedrate - full
G92 E0.0000
G1 E-0.4 F2100 ; custom retraction
;layer 31, Z = 6.200
;fan31;
G1 Z6.200 F1200
G1 X73.22 Y130.94799999999998 F6000
G1 E0 F2100 ; custom un-retraction/prime
G92 E0.0000
G1 X73.22 Y74.095 E2.0422 F3600 ; custom feedrate - full
G1 X73.645 Y74.095 E2.0575
G1 X73.645 Y70.753 E2.1775
G1 X73.22 Y70.753 E2.1928
G1 X73.22 Y53.218 E2.8227
G1 X135.18099999999998 Y53.218 E5.0484
G1 X135.18099999999998 Y53.614000000000004 E5.0626
G1 X137.014 Y53.614000000000004 E5.1284
G1 X137.014 Y53.218 E5.1426
G1 X156.78 Y53.218 E5.8527
G1 X156.78 Y83.85300000000001 E6.9531
G1 X124.419 Y113.994 E8.5417
G1 X121.578 Y113.994 E8.6437
G1 X121.578 Y116.64 E8.7387
G1 X90.22 Y145.84699999999998 E10.2781
G1 X90.22 Y130.94799999999998 E10.8133
G1 X73.22 Y130.94799999999998 E11.4239
G1 X72.74 Y131.428 F6000
G92 E0.0000
G1 X72.74 Y73.61500000000001 E2.0767 F1800 ; custom feedrate - half
G1 X73.16499999999999 Y73.61500000000001 E2.0920
G1 X73.16499999999999 Y72.75399999999999 E2.1229
G1 X72.74 Y72.75399999999999 E2.1381
G1 X72.74 Y72.11699999999999 E2.1610
G1 X73.16499999999999 Y72.11699999999999 E2.1763
G1 X73.16499999999999 Y71.233 E2.2080
G1 X72.74 Y71.233 E2.2233
G1 X72.74 Y52.738 E2.8877
G1 X135.661 Y52.738 E5.1479
G1 X135.661 Y53.134 E5.1621
G1 X136.534 Y53.134 E5.1934
G1 X136.534 Y52.738 E5.2076
G1 X157.26 Y52.738 E5.9522
G1 X157.26 Y84.062 E7.0773
G1 X124.608 Y114.474 E8.6802
G1 X122.058 Y114.474 E8.7718
G1 X122.058 Y116.849 E8.8571
G1 X89.74000000000001 Y146.95 E10.4435
G1 X89.74000000000001 Y131.428 E11.0011
G1 X72.74 Y131.428 E11.6118
G1 X73.211 Y72.46600000000001 F6000
G92 E0.0000
G1 X73.15 Y72.405 E0.0031 F3600 ; custom feedrate - full
G92 E0.0000
G1 E-0.4 F2100 ; custom retraction
;layer 32, Z = 6.400
;fan32;
G1 Z6.400 F1200
G1 X73.15 Y72.75399999999999 F6000
G1 X73.16499999999999 Y72.75399999999999
G1 X73.16499999999999 Y73.61500000000001
G1 X73.151 Y73.61500000000001
G1 X73.22 Y130.94799999999998
G1 E0 F2100 ; custom un-retraction/prime
G92 E0.0000
G1 X73.22 Y73.994 E2.0458 F3600 ; custom feedrate - full
G1 X73.645 Y73.994 E2.0611
G1 X73.645 Y70.854 E2.1739
G1 X73.22 Y70.854 E2.1892
G1 X73.22 Y53.218 E2.8227
G1 X135.18099999999998 Y53.218 E5.0484
G1 X135.18099999999998 Y53.614000000000004 E5.0626
G1 X137.014 Y53.614000000000004 E5.1284
G1 X137.014 Y53.218 E5.1426
G1 X156.78 Y53.218 E5.8527
G1 X156.78 Y83.85300000000001 E6.9531
G1 X124.419 Y113.994 E8.5417
G1 X121.578 Y113.994 E8.6437
G1 X121.578 Y116.64 E8.7387
G1 X90.22 Y145.84699999999998 E10.2781
G1 X90.22 Y130.94799999999998 E10.8133
G1 X73.22 Y130.94799999999998 E11.4239
G1 X72.74 Y131.428 F6000
G92 E0.0000
G1 X72.74 Y73.51400000000001 E2.0803 F1800 ; custom feedrate - half
G1 X73.16499999999999 Y73.51400000000001 E2.0956
G1 X73.16499999999999 Y72.656 E2.1264
G1 X72.74 Y72.656 E2.1417
G1 X72.74 Y72.214 E2.1576
G1 X73.16499999999999 Y72.214 E2.1728
G1 X73.16499999999999 Y71.334 E2.2044
G1 X72.74 Y71.334 E2.2197
G1 X72.74 Y52.738 E2.8877
G1 X135.661 Y52.738 E5.1479
G1 X135.661 Y53.134 E5.1621
G1 X136.534 Y53.134 E5.1934
G1 X136.534 Y52.738 E5.2076
G1 X157.26 Y52.738 E5.9522
G1 X157.26 Y84.062 E7.0773
G1 X124.608 Y114.474 E8.6802
G1 X122.058 Y114.474 E8.7718
G1 X122.058 Y116.849 E8.8571
G1 X89.74000000000001 Y146.95 E10.4435
G1 X89.74000000000001 Y131.428 E11.0011
G1 X72.74 Y131.428 E11.6118
G92 E0.0000
G1 E-0.4 F2100 ; custom retraction
;layer 33, Z = 6.600
;fan33;
G1 Z6.600 F1200
G1 X73.22 Y130.94799999999998 F6000
G1 E0 F2100 ; custom un-retraction/prime
G92 E0.0000
G1 X73.22 Y73.893 E2.0495 F3600 ; custom feedrate - full
G1 X73.645 Y73.893 E2.0647
G1 X73.645 Y70.95400000000001 E2.1703
G1 X73.22 Y70.95400000000001 E2.1856
G1 X73.22 Y53.218 E2.8227
G1 X135.18099999999998 Y53.218 E5.0484
G1 X135.18099999999998 Y53.614000000000004 E5.0626
G1 X137.014 Y53.614000000000004 E5.1284
G1 X137.014 Y53.218 E5.1426
G1 X156.78 Y53.218 E5.8527
G1 X156.78 Y83.85300000000001 E6.9531
G1 X124.419 Y113.994 E8.5417
G1 X121.578 Y113.994 E8.6437
G1 X121.578 Y116.64 E8.7387
G1 X90.22 Y145.84699999999998 E10.2781
G1 X90.22 Y130.94799999999998 E10.8133
G1 X73.22 Y130.94799999999998 E11.4239
G1 X72.74 Y131.428 F6000
G92 E0.0000
G1 X72.74 Y73.413 E2.0840 F1800 ; custom feedrate - half
G1 X73.16499999999999 Y73.413 E2.0992
G1 X73.16499999999999 Y72.557 E2.1300
G1 X72.74 Y72.557 E2.1452
G1 X72.74 Y72.311 E2.1541
G1 X73.16499999999999 Y72.311 E2.1693
G1 X73.16499999999999 Y71.434 E2.2008
G1 X72.74 Y71.434 E2.2161
G1 X72.74 Y52.738 E2.8877
G1 X135.661 Y52.738 E5.1479
G1 X135.661 Y53.134 E5.1621
G1 X136.534 Y53.134 E5.1934
G1 X136.534 Y52.738 E5.2076
G1 X157.26 Y52.738 E5.9522
G1 X157.26 Y84.062 E7.0773
G1 X124.608 Y114.474 E8.6802
G1 X122.058 Y114.474 E8.7718
G1 X122.058 Y116.849 E8.8571
G1 X89.74000000000001 Y146.95 E10.4435
G1 X89.74000000000001 Y131.428 E11.0011
G1 X72.74 Y131.428 E11.6118
G92 E0.0000
G1 E-0.4 F2100 ; custom retraction
;layer 34, Z = 6.800
;fan34;
G1 Z6.800 F1200
G1 X73.22 Y130.94799999999998 F6000
G1 E0 F2100 ; custom un-retraction/prime
G92 E0.0000
G1 X73.22 Y73.792 E2.0531 F3600 ; custom feedrate - full
G1 X73.645 Y73.792 E2.0684
G1 X73.645 Y71.055 E2.1667
G1 X73.22 Y71.055 E2.1820
G1 X73.22 Y53.218 E2.8227
G1 X135.18099999999998 Y53.218 E5.0484
G1 X135.18099999999998 Y53.614000000000004 E5.0626
G1 X137.014 Y53.614000000000004 E5.1284
G1 X137.014 Y53.218 E5.1426
G1 X156.78 Y53.218 E5.8527
G1 X156.78 Y83.85300000000001 E6.9531
G1 X124.419 Y113.994 E8.5417
G1 X121.578 Y113.994 E8.6437
G1 X121.578 Y116.64 E8.7387
G1 X90.22 Y145.84699999999998 E10.2781
G1 X90.22 Y130.94799999999998 E10.8133
G1 X73.22 Y130.94799999999998 E11.4239
G1 X72.74 Y131.428 F6000
G92 E0.0000
G1 X72.74 Y73.312 E2.0876 F1800 ; custom feedrate - half
G1 X73.16499999999999 Y73.312 E2.1028
G1 X73.16499999999999 Y72.459 E2.1335
G1 X72.74 Y72.459 E2.1488
G1 X72.74 Y72.407 E2.1506
G1 X73.16499999999999 Y72.407 E2.1659
G1 X73.16499999999999 Y71.535 E2.1972
G1 X72.74 Y71.535 E2.2125
G1 X72.74 Y52.738 E2.8877
G1 X135.661 Y52.738 E5.1479
G1 X135.661 Y53.134 E5.1621
G1 X136.534 Y53.134 E5.1934
G1 X136.534 Y52.738 E5.2076
G1 X157.26 Y52.738 E5.9522
G1 X157.26 Y84.062 E7.0773
G1 X124.608 Y114.474 E8.6802
G1 X122.058 Y114.474 E8.7718
G1 X122.058 Y116.849 E8.8571
G1 X89.74000000000001 Y146.95 E10.4435
G1 X89.74000000000001 Y131.428 E11.0011
G1 X72.74 Y131.428 E11.6118
G92 E0.0000
G1 E-0.4 F2100 ; custom retraction
;layer 35, Z = 7.000
;fan35;
G1 Z7.000 F1200
G1 X73.22 Y130.94799999999998 F6000
G1 E0 F2100 ; custom un-retraction/prime
G92 E0.0000
G1 X73.22 Y73.69200000000001 E2.0567 F3600 ; custom feedrate - full
G1 X73.645 Y73.69200000000001 E2.0720
G1 X73.645 Y71.155 E2.1631
G1 X73.22 Y71.155 E2.1784
G1 X73.22 Y53.218 E2.8227
G1 X135.18099999999998 Y53.218 E5.0484
G1 X135.18099999999998 Y53.614000000000004 E5.0626
G1 X137.014 Y53.614000000000004 E5.1284
G1 X137.014 Y53.218 E5.1426
G1 X156.78 Y53.218 E5.8527
G1 X156.78 Y83.85300000000001 E6.9531
G1 X124.419 Y113.994 E8.5417
G1 X121.578 Y113.994 E8.6437
G1 X121.578 Y116.64 E8.7387
G1 X90.22 Y145.84699999999998 E10.2781
G1 X90.22 Y130.94799999999998 E10.8133
G1 X73.22 Y130.94799999999998 E11.4239
G1 X72.74 Y131.428 F6000
G92 E0.0000
G1 X72.74 Y73.212 E2.0912 F1800 ; custom feedrate - half
G1 X73.16499999999999 Y73.212 E2.1065
G1 X73.16499999999999 Y71.635 E2.1631
G1 X72.74 Y71.635 E2.1784
G1 X72.74 Y52.738 E2.8572
G1 X135.661 Y52.738 E5.1173
G1 X135.661 Y53.134 E5.1315
G1 X136.534 Y53.134 E5.1629
G1 X136.534 Y52.738 E5.1771
G1 X157.26 Y52.738 E5.9216
G1 X157.26 Y84.062 E7.0468
G1 X124.608 Y114.474 E8.6497
G1 X122.058 Y114.474 E8.7412
G1 X122.058 Y116.849 E8.8266
G1 X89.74000000000001 Y146.95 E10.4130
G1 X89.74000000000001 Y131.428 E10.9706
G1 X72.74 Y131.428 E11.5812
G92 E0.0000
G1 E-0.4 F2100 ; custom retraction
;layer 36, Z = 7.200
;fan36;
G1 Z7.200 F1200
G1 X73.22 Y130.94799999999998 F6000
G1 E0 F2100 ; custom un-retraction/prime
G92 E0.0000
G1 X73.22 Y73.59100000000001 E2.0603 F3600 ; custom feedrate - full
G1 X73.645 Y73.59100000000001 E2.0756
G1 X73.645 Y71.255 E2.1595
G1 X73.22 Y71.255 E2.1748
G1 X73.22 Y53.218 E2.8227
G1 X135.136 Y53.218 E5.0468
G1 X135.136 Y53.614000000000004 E5.0610
G1 X137.048 Y53.614000000000004 E5.1297
G1 X137.048 Y53.218 E5.1439
G1 X156.78 Y53.218 E5.8527
G1 X156.78 Y83.85300000000001 E6.9531
G1 X124.419 Y113.994 E8.5417
G1 X121.578 Y113.994 E8.6437
G1 X121.578 Y116.64 E8.7387
G1 X90.22 Y145.84699999999998 E10.2781
G1 X90.22 Y130.94799999999998 E10.8133
G1 X73.22 Y130.94799999999998 E11.4239
G1 X72.74 Y131.428 F6000
G92 E0.0000
G1 X72.74 Y73.11099999999999 E2.0948 F1800 ; custom feedrate - half
G1 X73.16499999999999 Y73.11099999999999 E2.1101
G1 X73.16499999999999 Y71.735 E2.1595
G1 X72.74 Y71.735 E2.1748
G1 X72.74 Y52.738 E2.8572
G1 X135.61599999999999 Y52.738 E5.1157
G1 X135.61599999999999 Y53.134 E5.1300
G1 X136.56799999999998 Y53.134 E5.1641
G1 X136.56799999999998 Y52.738 E5.1784
G1 X157.26 Y52.738 E5.9216
G1 X157.26 Y84.062 E7.0468
G1 X124.608 Y114.474 E8.6497
G1 X122.058 Y114.474 E8.7412
G1 X122.058 Y116.849 E8.8266
G1 X89.74000000000001 Y146.95 E10.4130
G1 X89.74000000000001 Y131.428 E10.9706
G1 X72.74 Y131.428 E11.5812
G92 E0.0000
G1 E-0.4 F2100 ; custom retraction
;layer 37, Z = 7.400
;fan37;
G1 Z7.400 F1200
G1 X73.22 Y130.94799999999998 F6000
G1 E0 F2100 ; custom un-retraction/prime
G92 E0.0000
G1 X73.22 Y73.49000000000001 E2.0639 F3600 ; custom feedrate - full
G1 X73.645 Y73.49000000000001 E2.0792
G1 X73.645 Y71.356 E2.1559
G1 X73.22 Y71.356 E2.1711
G1 X73.22 Y53.218 E2.8227
G1 X135.04500000000002 Y53.218 E5.0435
G1 X135.04500000000002 Y53.614000000000004 E5.0577
G1 X137.14100000000002 Y53.614000000000004 E5.1330
G1 X137.14100000000002 Y53.218 E5.1472
G1 X156.78 Y53.218 E5.8527
G1 X156.78 Y83.85300000000001 E6.9531
G1 X124.419 Y113.994 E8.5417
G1 X121.578 Y113.994 E8.6437
G1 X121.578 Y116.64 E8.7387
G1 X90.22 Y145.84699999999998 E10.2781
G1 X90.22 Y130.94799999999998 E10.8133
G1 X73.22 Y130.94799999999998 E11.4239
G1 X72.74 Y131.428 F6000
G92 E0.0000
G1 X72.74 Y73.00999999999999 E2.0984 F1800 ; custom feedrate - half
G1 X73.16499999999999 Y73.00999999999999 E2.1137
G1 X73.16499999999999 Y71.836 E2.1559
G1 X72.74 Y71.836 E2.1711
G1 X72.74 Y52.738 E2.8572
G1 X135.525 Y52.738 E5.1124
G1 X135.525 Y53.134 E5.1267
G1 X136.661 Y53.134 E5.1675
G1 X136.661 Y52.738 E5.1817
G1 X157.26 Y52.738 E5.9216
G1 X157.26 Y84.062 E7.0468
G1 X124.608 Y114.474 E8.6497
G1 X122.058 Y114.474 E8.7412
G1 X122.058 Y116.849 E8.8266
G1 X89.74000000000001 Y146.95 E10.4130
G1 X89.74000000000001 Y131.428 E10.9706
G1 X72.74 Y131.428 E11.5812
G92 E0.0000
G1 E-0.4 F2100 ; custom retraction
;layer 38, Z = 7.600
;fan38;
G1 Z7.600 F1200
G1 X73.22 Y130.94799999999998 F6000
G1 E0 F2100 ; custom un-retraction/prime
G92 E0.0000
G1 X73.22 Y73.38900000000001 E2.0676 F3600 ; custom feedrate - full
G1 X73.645 Y73.38900000000001 E2.0828
G1 X73.645 Y71.456 E2.1523
G1 X73.22 Y71.456 E2.1675
G1 X73.22 Y53.218 E2.8227
G1 X134.953 Y53.218 E5.0402
G1 X134.953 Y53.614000000000004 E5.0544
G1 X137.23399999999998 Y53.614000000000004 E5.1363
G1 X137.23399999999998 Y53.218 E5.1505
G1 X156.78 Y53.218 E5.8527
G1 X156.78 Y83.85300000000001 E6.9531
G1 X124.419 Y113.994 E8.5417
G1 X121.578 Y113.994 E8.6437
G1 X121.578 Y116.64 E8.7387
G1 X90.22 Y145.84699999999998 E10.2781
G1 X90.22 Y130.94799999999998 E10.8133
G1 X73.22 Y130.94799999999998 E11.4239
G1 X72.74 Y131.428 F6000
G92 E0.0000
G1 X72.74 Y72.90899999999999 E2.1020 F1800 ; custom feedrate - half
G1 X73.16499999999999 Y72.90899999999999 E2.1173
G1 X73.16499999999999 Y71.936 E2.1523
G1 X72.74 Y71.936 E2.1675
G1 X72.74 Y52.738 E2.8572
G1 X135.433 Y52.738 E5.1091
G1 X135.433 Y53.134 E5.1234
G1 X136.75400000000002 Y53.134 E5.1708
G1 X136.75400000000002 Y52.738 E5.1850
G1 X157.26 Y52.738 E5.9216
G1 X157.26 Y84.062 E7.0468
G1 X124.608 Y114.474 E8.6497
G1 X122.058 Y114.474 E8.7412
G1 X122.058 Y116.849 E8.8266
G1 X89.74000000000001 Y146.95 E10.4130
G1 X89.74000000000001 Y131.428 E10.9706
G1 X72.74 Y131.428 E11.5812
G92 E0.0000
G1 E-0.4 F2100 ; custom retraction
;layer 39, Z = 7.800
;fan39;
G1 Z7.800 F1200
G1 X73.22 Y130.94799999999998 F6000
G1 E0 F2100 ; custom un-retraction/prime
G92 E0.0000
G1 X73.22 Y73.418 E2.0665 F3600 ; custom feedrate - full
G1 X73.645 Y73.418 E2.0818
G1 X73.645 Y71.443 E2.1528
G1 X73.22 Y71.443 E2.1680
G1 X73.22 Y53.218 E2.8227
G1 X134.861 Y53.218 E5.0369
G1 X134.861 Y53.614000000000004 E5.0511
G1 X137.326 Y53.614000000000004 E5.1396
G1 X137.326 Y53.218 E5.1539
G1 X156.78 Y53.218 E5.8527
G1 X156.78 Y83.85300000000001 E6.9531
G1 X124.419 Y113.994 E8.5417
G1 X121.578 Y113.994 E8.6437
G1 X121.578 Y116.64 E8.7387
G1 X90.22 Y145.84699999999998 E10.2781
G1 X90.22 Y130.94799999999998 E10.8133
G1 X73.22 Y130.94799999999998 E11.4239
G1 X72.74 Y131.428 F6000
G92 E0.0000
G1 X72.74 Y72.938 E2.1010 F1800 ; custom feedrate - half
G1 X73.16499999999999 Y72.938 E2.1163
G1 X73.16499999999999 Y71.923 E2.1528
G1 X72.74 Y71.923 E2.1680
G1 X72.74 Y52.738 E2.8572
G1 X135.341 Y52.738 E5.1059
G1 X135.341 Y53.134 E5.1201
G1 X136.846 Y53.134 E5.1741
G1 X136.846 Y52.738 E5.1883
G1 X157.26 Y52.738 E5.9216
G1 X157.26 Y84.062 E7.0468
G1 X124.608 Y114.474 E8.6497
G1 X122.058 Y114.474 E8.7412
G1 X122.058 Y116.849 E8.8266
G1 X89.74000000000001 Y146.95 E10.4130
G1 X89.74000000000001 Y131.428 E10.9706
G1 X72.74 Y131.428 E11.5812
G92 E0.0000
G1 E-0.4 F2100 ; custom retraction
;layer 40, Z = 8.000
;fan40;
G1 Z8.000 F1200
G1 X73.22 Y130.94799999999998 F6000
G1 E0 F2100 ; custom un-retraction/prime
G92 E0.0000
G1 X73.22 Y73.521 E2.0628 F3600 ; custom feedrate - full
G1 X73.645 Y73.521 E2.0781
G1 X73.645 Y71.339 E2.1565
G1 X73.22 Y71.339 E2.1717
G1 X73.22 Y53.218 E2.8227
G1 X134.76999999999998 Y53.218 E5.0336
G1 X134.76999999999998 Y53.614000000000004 E5.0478
G1 X137.41899999999998 Y53.614000000000004 E5.1430
G1 X137.41899999999998 Y53.218 E5.1572
G1 X156.78 Y53.218 E5.8527
G1 X156.78 Y83.85300000000001 E6.9531
G1 X124.419 Y113.994 E8.5417
G1 X121.578 Y113.994 E8.6437
G1 X121.578 Y116.64 E8.7387
G1 X90.22 Y145.84699999999998 E10.2781
G1 X90.22 Y130.94799999999998 E10.8133
G1 X73.22 Y130.94799999999998 E11.4239
G1 X72.74 Y131.428 F6000
G92 E0.0000
G1 X72.74 Y73.041 E2.0973 F1800 ; custom feedrate - half
G1 X73.16499999999999 Y73.041 E2.1126
G1 X73.16499999999999 Y71.819 E2.1565
G1 X72.74 Y71.819 E2.1717
G1 X72.74 Y52.738 E2.8572
G1 X135.25 Y52.738 E5.1026
G1 X135.25 Y53.134 E5.1168
G1 X136.939 Y53.134 E5.1775
G1 X136.939 Y52.738 E5.1917
G1 X157.26 Y52.738 E5.9216
G1 X157.26 Y84.062 E7.0468
G1 X124.608 Y114.474 E8.6497
G1 X122.058 Y114.474 E8.7412
G1 X122.058 Y116.849 E8.8266
G1 X89.74000000000001 Y146.95 E10.4130
G1 X89.74000000000001 Y131.428 E10.9706
G1 X72.74 Y131.428 E11.5812
G92 E0.0000
G1 E-0.4 F2100 ; custom retraction
;layer 41, Z = 8.200
;fan41;
G1 Z8.200 F1200
G1 X73.22 Y130.94799999999998 F6000
G1 E0 F2100 ; custom un-retraction/prime
G92 E0.0000
G1 X73.22 Y73.624 E2.0591 F3600 ; custom feedrate - full
G1 X73.645 Y73.624 E2.0744
G1 X73.645 Y71.236 E2.1602
G1 X73.22 Y71.236 E2.1755
G1 X73.22 Y53.218 E2.8227
G1 X134.678 Y53.218 E5.0303
G1 X134.678 Y53.614000000000004 E5.0445
G1 X137.512 Y53.614000000000004 E5.1463
G1 X137.512 Y53.218 E5.1605
G1 X156.78 Y53.218 E5.8527
G1 X156.78 Y83.85300000000001 E6.9531
G1 X124.419 Y113.994 E8.5417
G1 X121.578 Y113.994 E8.6437
G1 X121.578 Y116.64 E8.7387
G1 X90.22 Y145.84699999999998 E10.2781
G1 X90.22 Y130.94799999999998 E10.8133
G1 X73.22 Y130.94799999999998 E11.4239
G1 X72.74 Y131.428 F6000
G92 E0.0000
G1 X72.74 Y73.144 E2.0936 F1800 ; custom feedrate - half
G1 X73.16499999999999 Y73.144 E2.1089
G1 X73.16499999999999 Y71.71600000000001 E2.1602
G1 X72.74 Y71.71600000000001 E2.1755
G1 X72.74 Y52.738 E2.8572
G1 X135.15800000000002 Y52.738 E5.0993
G1 X135.15800000000002 Y53.134 E5.1135
G1 X136.05200000000002 Y53.134 E5.1456
G1 X136.05200000000002 Y52.738 E5.1598
G1 X136.14499999999998 Y52.738 E5.1631
G1 X136.14499999999998 Y53.134 E5.1774
G1 X137.03199999999998 Y53.134 E5.2092
G1 X137.03199999999998 Y52.738 E5.2234
G1 X157.26 Y52.738 E5.9501
G1 X157.26 Y84.062 E7.0752
G1 X124.608 Y114.474 E8.6781
G1 X122.058 Y114.474 E8.7697
G1 X122.058 Y116.849 E8.8550
G1 X89.74000000000001 Y146.95 E10.4414
G1 X89.74000000000001 Y131.428 E10.9990
G1 X72.74 Y131.428 E11.6097
G92 E0.0000
G1 E-0.4 F2100 ; custom retraction
;layer 42, Z = 8.400
;fan42;
G1 Z8.400 F1200
G1 X73.22 Y130.94799999999998 F6000
G1 E0 F2100 ; custom un-retraction/prime
G92 E0.0000
G1 X73.22 Y73.726 E2.0555 F3600 ; custom feedrate - full
G1 X73.645 Y73.726 E2.0707
G1 X73.645 Y71.132 E2.1639
G1 X73.22 Y71.132 E2.1792
G1 X73.22 Y53.218 E2.8227
G1 X134.586 Y53.218 E5.0270
G1 X134.586 Y53.614000000000004 E5.0412
G1 X137.60399999999998 Y53.614000000000004 E5.1496
G1 X137.60399999999998 Y53.218 E5.1639
G1 X156.78 Y53.218 E5.8527
G1 X156.78 Y83.85300000000001 E6.9531
G1 X124.419 Y113.994 E8.5417
G1 X121.578 Y113.994 E8.6437
G1 X121.578 Y116.64 E8.7387
G1 X90.22 Y145.84699999999998 E10.2781
G1 X90.22 Y130.94799999999998 E10.8133
G1 X73.22 Y130.94799999999998 E11.4239
G1 X72.74 Y131.428 F6000
G92 E0.0000
G1 X72.74 Y73.24600000000001 E2.0899 F1800 ; custom feedrate - half
G1 X73.16499999999999 Y73.24600000000001 E2.1052
G1 X73.16499999999999 Y71.612 E2.1639
G1 X72.74 Y71.612 E2.1792
G1 X72.74 Y52.738 E2.8572
G1 X135.066 Y52.738 E5.0960
G1 X135.066 Y53.134 E5.1102
G1 X135.962 Y53.134 E5.1424
G1 X135.962 Y52.738 E5.1566
G1 X136.235 Y52.738 E5.1664
G1 X136.235 Y53.134 E5.1806
G1 X137.124 Y53.134 E5.2126
G1 X137.124 Y52.738 E5.2268
G1 X157.26 Y52.738 E5.9501
G1 X157.26 Y84.062 E7.0752
G1 X124.608 Y114.474 E8.6781
G1 X122.058 Y114.474 E8.7697
G1 X122.058 Y116.849 E8.8550
G1 X89.74000000000001 Y146.95 E10.4414
G1 X89.74000000000001 Y131.428 E10.9990
G1 X72.74 Y131.428 E11.6097
G92 E0.0000
G1 E-0.4 F2100 ; custom retraction
;layer 43, Z = 8.600
;fan43;
G1 Z8.600 F1200
G1 X73.22 Y130.94799999999998 F6000
G1 E0 F2100 ; custom un-retraction/prime
G92 E0.0000
G1 X73.22 Y73.82900000000001 E2.0518 F3600 ; custom feedrate - full
G1 X73.645 Y73.82900000000001 E2.0670
G1 X73.645 Y71.02799999999999 E2.1676
G1 X73.22 Y71.02799999999999 E2.1829
G1 X73.22 Y53.218 E2.8227
G1 X134.495 Y53.218 E5.0237
G1 X134.495 Y53.614000000000004 E5.0379
G1 X137.697 Y53.614000000000004 E5.1530
G1 X137.697 Y53.218 E5.1672
G1 X156.78 Y53.218 E5.8527
G1 X156.78 Y83.85300000000001 E6.9531
G1 X124.419 Y113.994 E8.5417
G1 X121.578 Y113.994 E8.6437
G1 X121.578 Y116.64 E8.7387
G1 X90.22 Y145.84699999999998 E10.2781
G1 X90.22 Y130.94799999999998 E10.8133
G1 X73.22 Y130.94799999999998 E11.4239
G1 X72.74 Y131.428 F6000
G92 E0.0000
G1 X72.74 Y73.34899999999999 E2.0862 F1800 ; custom feedrate - half
G1 X73.16499999999999 Y73.34899999999999 E2.1015
G1 X73.16499999999999 Y72.483 E2.1326
G1 X72.74 Y72.483 E2.1479
G1 X72.74 Y72.36 E2.1523
G1 X73.16499999999999 Y72.36 E2.1676
G1 X73.16499999999999 Y71.508 E2.1982
G1 X72.74 Y71.508 E2.2134
G1 X72.74 Y52.738 E2.8877
G1 X134.975 Y52.738 E5.1232
G1 X134.975 Y53.134 E5.1374
G1 X135.872 Y53.134 E5.1697
G1 X135.872 Y52.738 E5.1839
G1 X136.326 Y52.738 E5.2002
G1 X136.326 Y53.134 E5.2144
G1 X137.21699999999998 Y53.134 E5.2464
G1 X137.21699999999998 Y52.738 E5.2606
G1 X157.26 Y52.738 E5.9806
G1 X157.26 Y84.062 E7.1058
G1 X124.608 Y114.474 E8.7086
G1 X122.058 Y114.474 E8.8002
G1 X122.058 Y116.849 E8.8855
G1 X89.74000000000001 Y146.95 E10.4720
G1 X89.74000000000001 Y131.428 E11.0296
G1 X72.74 Y131.428 E11.6402
G92 E0.0000
G1 E-0.4 F2100 ; custom retraction
;layer 44, Z = 8.800
;fan44;
G1 Z8.800 F1200
G1 X73.22 Y130.94799999999998 F6000
G1 E0 F2100 ; custom un-retraction/prime
G92 E0.0000
G1 X73.22 Y73.932 E2.0481 F3600 ; custom feedrate - full
G1 X73.645 Y73.932 E2.0633
G1 X73.645 Y70.925 E2.1714
G1 X73.22 Y70.925 E2.1866
G1 X73.22 Y53.218 E2.8227
G1 X134.40300000000002 Y53.218 E5.0204
G1 X134.40300000000002 Y53.614000000000004 E5.0346
G1 X137.79000000000002 Y53.614000000000004 E5.1563
G1 X137.79000000000002 Y53.218 E5.1705
G1 X156.78 Y53.218 E5.8527
G1 X156.78 Y83.85300000000001 E6.9531
G1 X124.419 Y113.994 E8.5417
G1 X121.578 Y113.994 E8.6437
G1 X121.578 Y116.64 E8.7387
G1 X90.22 Y145.84699999999998 E10.2781
G1 X90.22 Y130.94799999999998 E10.8133
G1 X73.22 Y130.94799999999998 E11.4239
G1 X72.74 Y131.428 F6000
G92 E0.0000
G1 X72.74 Y73.452 E2.0825 F1800 ; custom feedrate - half
G1 X73.16499999999999 Y73.452 E2.0978
G1 X73.16499999999999 Y72.582 E2.1291
G1 X72.74 Y72.582 E2.1443
G1 X72.74 Y72.25999999999999 E2.1559
G1 X73.16499999999999 Y72.25999999999999 E2.1712
G1 X73.16499999999999 Y71.405 E2.2019
G1 X72.74 Y71.405 E2.2172
G1 X72.74 Y52.738 E2.8877
G1 X134.88299999999998 Y52.738 E5.1199
G1 X134.88299999999998 Y53.134 E5.1341
G1 X135.78199999999998 Y53.134 E5.1664
G1 X135.78199999999998 Y52.738 E5.1806
G1 X136.417 Y52.738 E5.2034
G1 X136.417 Y53.134 E5.2177
G1 X137.31 Y53.134 E5.2497
G1 X137.31 Y52.738 E5.2640
G1 X157.26 Y52.738 E5.9806
G1 X157.26 Y84.062 E7.1058
G1 X124.608 Y114.474 E8.7086
G1 X122.058 Y114.474 E8.8002
G1 X122.058 Y116.849 E8.8855
G1 X89.74000000000001 Y146.95 E10.4720
G1 X89.74000000000001 Y131.428 E11.0296
G1 X72.74 Y131.428 E11.6402
G1 X136.07 Y53.135 F6000
G92 E0.0000
G1 X136.12900000000002 Y53.076 E0.0030 F3600 ; custom feedrate - full
G92 E0.0000
G1 E-0.4 F2100 ; custom retraction
;layer 45, Z = 9.000
;fan45;
G1 Z9.000 F1200
G1 X73.22 Y130.94799999999998 F6000
G1 E0 F2100 ; custom un-retraction/prime
G92 E0.0000
G1 X73.22 Y74.035 E2.0444 F3600 ; custom feedrate - full
G1 X73.645 Y74.035 E2.0596
G1 X73.645 Y70.821 E2.1751
G1 X73.22 Y70.821 E2.1903
G1 X73.22 Y53.218 E2.8227
G1 X134.311 Y53.218 E5.0171
G1 X134.311 Y53.614000000000004 E5.0313
G1 X137.882 Y53.614000000000004 E5.1596
G1 X137.882 Y53.218 E5.1738
G1 X156.78 Y53.218 E5.8527
G1 X156.78 Y83.85300000000001 E6.9531
G1 X124.419 Y113.994 E8.5417
G1 X121.578 Y113.994 E8.6437
G1 X121.578 Y116.64 E8.7387
G1 X90.22 Y145.84699999999998 E10.2781
G1 X90.22 Y130.94799999999998 E10.8133
G1 X73.22 Y130.94799999999998 E11.4239
G1 X72.74 Y131.428 F6000
G92 E0.0000
G1 X72.74 Y73.555 E2.0789 F1800 ; custom feedrate - half
G1 X73.16499999999999 Y73.555 E2.0941
G1 X73.16499999999999 Y72.681 E2.1255
G1 X72.74 Y72.681 E2.1408
G1 X72.74 Y72.16 E2.1595
G1 X73.16499999999999 Y72.16 E2.1748
G1 X73.16499999999999 Y71.301 E2.2056
G1 X72.74 Y71.301 E2.2209
G1 X72.74 Y52.738 E2.8877
G1 X134.791 Y52.738 E5.1166
G1 X134.791 Y53.134 E5.1308
G1 X135.692 Y53.134 E5.1632
G1 X135.692 Y52.738 E5.1774
G1 X136.507 Y52.738 E5.2067
G1 X136.507 Y53.134 E5.2209
G1 X137.402 Y53.134 E5.2531
G1 X137.402 Y52.738 E5.2673
G1 X157.26 Y52.738 E5.9806
G1 X157.26 Y84.062 E7.1058
G1 X124.608 Y114.474 E8.7086
G1 X122.058 Y114.474 E8.8002
G1 X122.058 Y116.849 E8.8855
G1 X89.74000000000001 Y146.95 E10.4720
G1 X89.74000000000001 Y131.428 E11.0296
G1 X72.74 Y131.428 E11.6402
G1 X136.203 Y53.321 F6000
G92 E0.0000
G1 X135.98000000000002 Y53.098 E0.0113 F3600 ; custom feedrate - full
G92 E0.0000
G1 E-0.4 F2100 ; custom retraction
;layer 46, Z = 9.200
;fan46;
G1 Z9.200 F1200
G1 X73.22 Y130.94799999999998 F6000
G1 E0 F2100 ; custom un-retraction/prime
G92 E0.0000
G1 X73.22 Y74.138 E2.0407 F3600 ; custom feedrate - full
G1 X73.645 Y74.138 E2.0559
G1 X73.645 Y70.718 E2.1788
G1 X73.22 Y70.718 E2.1941
G1 X73.22 Y53.218 E2.8227
G1 X134.22 Y53.218 E5.0138
G1 X134.22 Y53.614000000000004 E5.0280
G1 X137.975 Y53.614000000000004 E5.1630
G1 X137.975 Y53.218 E5.1772
G1 X156.78 Y53.218 E5.8527
G1 X156.78 Y83.85300000000001 E6.9531
G1 X124.419 Y113.994 E8.5417
G1 X121.578 Y113.994 E8.6437
G1 X121.578 Y116.64 E8.7387
G1 X90.22 Y145.84699999999998 E10.2781
G1 X90.22 Y130.94799999999998 E10.8133
G1 X73.22 Y130.94799999999998 E11.4239
G1 X72.74 Y131.428 F6000
G92 E0.0000
G1 X72.74 Y73.658 E2.0752 F1800 ; custom feedrate - half
G1 X73.16499999999999 Y73.658 E2.0904
G1 X73.16499999999999 Y72.78 E2.1220
G1 X72.74 Y72.78 E2.1372
G1 X72.74 Y72.059 E2.1631
G1 X73.16499999999999 Y72.059 E2.1784
G1 X73.16499999999999 Y71.19800000000001 E2.2093
G1 X72.74 Y71.19800000000001 E2.2246
G1 X72.74 Y52.738 E2.8877
G1 X134.7 Y52.738 E5.1133
G1 X134.7 Y53.134 E5.1275
G1 X135.602 Y53.134 E5.1600
G1 X135.602 Y52.738 E5.1742
G1 X136.598 Y52.738 E5.2100
G1 X136.598 Y53.134 E5.2242
G1 X137.495 Y53.134 E5.2564
G1 X137.495 Y52.738 E5.2706
G1 X157.26 Y52.738 E5.9806
G1 X157.26 Y84.062 E7.1058
G1 X124.608 Y114.474 E8.7086
G1 X122.058 Y114.474 E8.8002
G1 X122.058 Y116.849 E8.8855
G1 X89.74000000000001 Y146.95 E10.4720
G1 X89.74000000000001 Y131.428 E11.0296
G1 X72.74 Y131.428 E11.6402
G1 X73.268 Y72.49199999999999 F6000
G92 E0.0000
G1 X73.352 Y72.408 E0.0043 F3600 ; custom feedrate - full
G1 X135.89 Y53.315 F6000
G92 E0.0000
G1 X136.179 Y53.025999999999996 E0.0147 F3600 ; custom feedrate - full
G92 E0.0000
G1 E-0.4 F2100 ; custom retraction
;layer 47, Z = 9.400
;fan47;
G1 Z9.400 F1200
G1 X73.22 Y130.94799999999998 F6000
G1 E0 F2100 ; custom un-retraction/prime
G92 E0.0000
G1 X73.22 Y74.24000000000001 E2.0370 F3600 ; custom feedrate - full
G1 X73.645 Y74.24000000000001 E2.0523
G1 X73.645 Y70.614 E2.1825
G1 X73.22 Y70.614 E2.1978
G1 X73.22 Y53.218 E2.8227
G1 X134.128 Y53.218 E5.0105
G1 X134.128 Y53.614000000000004 E5.0248
G1 X138.06799999999998 Y53.614000000000004 E5.1663
G1 X138.06799999999998 Y53.218 E5.1805
G1 X156.78 Y53.218 E5.8527
G1 X156.78 Y83.85300000000001 E6.9531
G1 X124.419 Y113.994 E8.5417
G1 X121.578 Y113.994 E8.6437
G1 X121.578 Y116.64 E8.7387
G1 X90.22 Y145.84699999999998 E10.2781
G1 X90.22 Y130.94799999999998 E10.8133
G1 X73.22 Y130.94799999999998 E11.4239
G1 X72.74 Y131.428 F6000
G92 E0.0000
G1 X72.74 Y73.761 E2.0715 F1800 ; custom feedrate - half
G1 X73.16499999999999 Y73.761 E2.0867
G1 X73.16499999999999 Y72.87899999999999 E2.1184
G1 X72.74 Y72.87899999999999 E2.1337
G1 X72.74 Y71.959 E2.1667
G1 X73.16499999999999 Y71.959 E2.1820
G1 X73.16499999999999 Y71.094 E2.2131
G1 X72.74 Y71.094 E2.2283
G1 X72.74 Y52.738 E2.8877
G1 X134.608 Y52.738 E5.1100
G1 X134.608 Y53.134 E5.1243
G1 X135.512 Y53.134 E5.1567
G1 X135.512 Y52.738 E5.1709
G1 X136.688 Y52.738 E5.2132
G1 X136.688 Y53.134 E5.2274
G1 X137.588 Y53.134 E5.2597
G1 X137.588 Y52.738 E5.2740
G1 X157.26 Y52.738 E5.9806
G1 X157.26 Y84.062 E7.1058
G1 X124.608 Y114.474 E8.7086
G1 X122.058 Y114.474 E8.8002
G1 X122.058 Y116.849 E8.8855
G1 X89.74000000000001 Y146.95 E10.4720
G1 X89.74000000000001 Y131.428 E11.0296
G1 X72.74 Y131.428 E11.6402
G1 X73.336 Y72.59100000000001 F6000
G92 E0.0000
G1 X73.02799999999999 Y72.283 E0.0157 F3600 ; custom feedrate - full
G1 X135.90800000000002 Y53.025999999999996 F6000
G92 E0.0000
G1 X136.203 Y53.321 E0.0150 F3600 ; custom feedrate - full
G92 E0.0000
G1 E-0.4 F2100 ; custom retraction
;layer 48, Z = 9.600
;fan48;
G1 Z9.600 F1200
G1 X73.22 Y130.94799999999998 F6000
G1 E0 F2100 ; custom un-retraction/prime
G92 E0.0000
G1 X73.22 Y53.218 E2.7921 F3600 ; custom feedrate - full
G1 X156.78 Y53.218 E5.7937
G1 X156.78 Y83.85300000000001 E6.8941
G1 X124.419 Y113.994 E8.4827
G1 X121.578 Y113.994 E8.5847
G1 X121.578 Y116.64 E8.6798
G1 X90.22 Y145.84699999999998 E10.2191
G1 X90.22 Y130.94799999999998 E10.7543
G1 X73.22 Y130.94799999999998 E11.3650
G1 X72.74 Y131.428 F6000
G92 E0.0000
G1 X72.74 Y52.738 E2.8266 F1800 ; custom feedrate - half
G1 X157.26 Y52.738 E5.8627
G1 X157.26 Y84.062 E6.9878
G1 X124.608 Y114.474 E8.5907
G1 X122.058 Y114.474 E8.6823
G1 X122.058 Y116.849 E8.7676
G1 X89.74000000000001 Y146.95 E10.3540
G1 X89.74000000000001 Y131.428 E10.9116
G1 X72.74 Y131.428 E11.5223
G92 E0.0000
G1 E-0.4 F2100 ; custom retraction
;layer 49, Z = 9.800
;fan49;
G1 Z9.800 F1200
G1 X73.22 Y130.94799999999998 F6000
G1 E0 F2100 ; custom un-retraction/prime
G92 E0.0000
G1 X73.22 Y53.218 E2.7921 F3600 ; custom feedrate - full
G1 X156.61 Y53.218 E5.7876
G1 X156.61 Y84.011 E6.8937
G1 X124.419 Y113.994 E8.4739
G1 X121.578 Y113.994 E8.5760
G1 X121.578 Y116.64 E8.6710
G1 X90.22 Y145.84699999999998 E10.2103
G1 X90.22 Y130.94799999999998 E10.7455
G1 X73.22 Y130.94799999999998 E11.3562
G1 X72.74 Y131.428 F6000
G92 E0.0000
G1 X72.74 Y52.738 E2.8266 F1800 ; custom feedrate - half
G1 X157.09 Y52.738 E5.8566
G1 X157.09 Y84.22 E6.9874
G1 X124.608 Y114.474 E8.5819
G1 X122.058 Y114.474 E8.6735
G1 X122.058 Y116.849 E8.7588
G1 X89.74000000000001 Y146.95 E10.3453
G1 X89.74000000000001 Y131.428 E10.9028
G1 X72.74 Y131.428 E11.5135
G92 E0.0000
G1 E-0.4 F2100 ; custom retraction
;layer 50, Z = 10.000
;fan50;
G1 Z10.000 F1200
G1 X73.22 Y130.94799999999998 F6000
G1 E0 F2100 ; custom un-retraction/prime
G92 E0.0000
G1 X73.22 Y53.218 E2.7921 F3600 ; custom feedrate - full
G1 X156.44 Y53.218 E5.7815
G1 X156.44 Y84.169 E6.8933
G1 X124.419 Y113.994 E8.4652
G1 X121.578 Y113.994 E8.5672
G1 X121.578 Y116.64 E8.6622
G1 X90.22 Y145.84699999999998 E10.2016
G1 X90.22 Y130.94799999999998 E10.7368
G1 X73.22 Y130.94799999999998 E11.3474
G1 X72.74 Y131.428 F6000
G92 E0.0000
G1 X72.74 Y52.738 E2.8266 F1800 ; custom feedrate - half
G1 X156.92000000000002 Y52.738 E5.8504
G1 X156.92000000000002 Y84.378 E6.9870
G1 X124.608 Y114.474 E8.5732
G1 X122.058 Y114.474 E8.6648
G1 X122.058 Y116.849 E8.7501
G1 X89.74000000000001 Y146.95 E10.3365
G1 X89.74000000000001 Y131.428 E10.8941
G1 X72.74 Y131.428 E11.5047
G92 E0.0000
G1 E-0.4 F2100 ; custom retraction
M204 P700 ; custom acceleration - C
M205 X8 Y8 Z8 ; custom jerk - C
;layer 51, Z = 10.200
;fan51;
G1 Z10.200 F1200
G1 X73.22 Y130.94799999999998 F6000
G1 E0 F2100 ; custom un-retraction/prime
G92 E0.0000
G1 X73.22 Y53.218 E2.7921 F3600 ; custom feedrate - full
G1 X156.78 Y53.218 E5.7937
G1 X156.78 Y83.85300000000001 E6.8941
G1 X124.419 Y113.994 E8.4827
G1 X121.578 Y113.994 E8.5847
G1 X121.578 Y116.64 E8.6798
G1 X90.22 Y145.84699999999998 E10.2191
G1 X90.22 Y130.94799999999998 E10.7543
G1 X73.22 Y130.94799999999998 E11.3650
G1 X72.74 Y131.428 F6000
G92 E0.0000
G1 X72.74 Y52.738 E2.8266 F1800 ; custom feedrate - half
G1 X157.26 Y52.738 E5.8627
G1 X157.26 Y84.062 E6.9878
G1 X124.608 Y114.474 E8.5907
G1 X122.058 Y114.474 E8.6823
G1 X122.058 Y116.849 E8.7676
G1 X89.74000000000001 Y146.95 E10.3540
G1 X89.74000000000001 Y131.428 E10.9116
G1 X72.74 Y131.428 E11.5223
G92 E0.0000
G1 E-0.4 F2100 ; custom retraction
;layer 52, Z = 10.400
;fan52;
G1 Z10.400 F1200
G1 X73.22 Y130.94799999999998 F6000
G1 E0 F2100 ; custom un-retraction/prime
G92 E0.0000
G1 X73.22 Y53.218 E2.7921 F3600 ; custom feedrate - full
G1 X156.78 Y53.218 E5.7937
G1 X156.78 Y83.85300000000001 E6.8941
G1 X124.419 Y113.994 E8.4827
G1 X121.578 Y113.994 E8.5847
G1 X121.578 Y116.64 E8.6798
G1 X90.22 Y145.84699999999998 E10.2191
G1 X90.22 Y130.94799999999998 E10.7543
G1 X73.22 Y130.94799999999998 E11.3650
G1 X72.74 Y131.428 F6000
G92 E0.0000
G1 X72.74 Y52.738 E2.8266 F1800 ; custom feedrate - half
G1 X157.26 Y52.738 E5.8627
G1 X157.26 Y84.062 E6.9878
G1 X124.608 Y114.474 E8.5907
G1 X122.058 Y114.474 E8.6823
G1 X122.058 Y116.849 E8.7676
G1 X89.74000000000001 Y146.95 E10.3540
G1 X89.74000000000001 Y131.428 E10.9116
G1 X72.74 Y131.428 E11.5223
G92 E0.0000
G1 E-0.4 F2100 ; custom retraction
;layer 53, Z = 10.600
;fan53;
G1 Z10.600 F1200
G1 X73.22 Y130.94799999999998 F6000
G1 E0 F2100 ; custom un-retraction/prime
G92 E0.0000
G1 X73.22 Y74.39699999999999 E2.0314 F3600 ; custom feedrate - full
G1 X73.645 Y74.39699999999999 E2.0466
G1 X73.645 Y70.452 E2.1883
G1 X73.22 Y70.452 E2.2036
G1 X73.22 Y53.218 E2.8227
G1 X135.18099999999998 Y53.218 E5.0484
G1 X135.18099999999998 Y53.614000000000004 E5.0626
G1 X137.014 Y53.614000000000004 E5.1284
G1 X137.014 Y53.218 E5.1426
G1 X156.78 Y53.218 E5.8527
G1 X156.78 Y83.85300000000001 E6.9531
G1 X124.419 Y113.994 E8.5417
G1 X121.578 Y113.994 E8.6437
G1 X121.578 Y116.64 E8.7387
G1 X90.22 Y145.84699999999998 E10.2781
G1 X90.22 Y130.94799999999998 E10.8133
G1 X73.22 Y130.94799999999998 E11.4239
G1 X72.74 Y131.428 F6000
G92 E0.0000
G1 X72.74 Y73.917 E2.0659 F1800 ; custom feedrate - half
G1 X73.16499999999999 Y73.917 E2.0811
G1 X73.16499999999999 Y73.05 E2.1123
G1 X72.74 Y73.05 E2.1275
G1 X72.74 Y71.827 E2.1715
G1 X73.16499999999999 Y71.827 E2.1867
G1 X73.16499999999999 Y70.932 E2.2189
G1 X72.74 Y70.932 E2.2341
G1 X72.74 Y52.738 E2.8877
G1 X135.661 Y52.738 E5.1479
G1 X135.661 Y53.134 E5.1621
G1 X136.534 Y53.134 E5.1934
G1 X136.534 Y52.738 E5.2076
G1 X157.26 Y52.738 E5.9522
G1 X157.26 Y84.062 E7.0773
G1 X124.608 Y114.474 E8.6802
G1 X122.058 Y114.474 E8.7718
G1 X122.058 Y116.849 E8.8571
G1 X89.74000000000001 Y146.95 E10.4435
G1 X89.74000000000001 Y131.428 E11.0011
G1 X72.74 Y131.428 E11.6118
G1 X73.352 Y72.607 F6000
G92 E0.0000
G1 X73.02799999999999 Y72.283 E0.0165 F3600 ; custom feedrate - full
G92 E0.0000
G1 E-0.4 F2100 ; custom retraction
;layer 54, Z = 10.800
;fan54;
G1 Z10.800 F1200
G1 X73.031 Y73.05 F6000
G1 X73.16499999999999 Y73.05
G1 X73.16499999999999 Y73.917
G1 X73.033 Y73.917
G1 X73.22 Y130.94799999999998
G1 E0 F2100 ; custom un-retraction/prime
G92 E0.0000
G1 X73.22 Y74.29599999999999 E2.0350 F3600 ; custom feedrate - full
G1 X73.645 Y74.29599999999999 E2.0503
G1 X73.645 Y70.553 E2.1847
G1 X73.22 Y70.553 E2.2000
G1 X73.22 Y53.218 E2.8227
G1 X135.18099999999998 Y53.218 E5.0484
G1 X135.18099999999998 Y53.614000000000004 E5.0626
G1 X137.014 Y53.614000000000004 E5.1284
G1 X137.014 Y53.218 E5.1426
G1 X156.78 Y53.218 E5.8527
G1 X156.78 Y83.85300000000001 E6.9531
G1 X124.419 Y113.994 E8.5417
G1 X121.578 Y113.994 E8.6437
G1 X121.578 Y116.64 E8.7387
G1 X90.22 Y145.84699999999998 E10.2781
G1 X90.22 Y130.94799999999998 E10.8133
G1 X73.22 Y130.94799999999998 E11.4239
G1 X72.74 Y131.428 F6000
G92 E0.0000
G1 X72.74 Y73.816 E2.0695 F1800 ; custom feedrate - half
G1 X73.16499999999999 Y73.816 E2.0847
G1 X73.16499999999999 Y72.951 E2.1158
G1 X72.74 Y72.951 E2.1311
G1 X72.74 Y71.924 E2.1680
G1 X73.16499999999999 Y71.924 E2.1833
G1 X73.16499999999999 Y71.033 E2.2153
G1 X72.74 Y71.033 E2.2305
G1 X72.74 Y52.738 E2.8877
G1 X135.661 Y52.738 E5.1479
G1 X135.661 Y53.134 E5.1621
G1 X136.534 Y53.134 E5.1934
G1 X136.534 Y52.738 E5.2076
G1 X157.26 Y52.738 E5.9522
G1 X157.26 Y84.062 E7.0773
G1 X124.608 Y114.474 E8.6802
G1 X122.058 Y114.474 E8.7718
G1 X122.058 Y116.849 E8.8571
G1 X89.74000000000001 Y146.95 E10.4435
G1 X89.74000000000001 Y131.428 E11.0011
G1 X72.74 Y131.428 E11.6118
G1 X73.09 Y73.816 F6000
G1 X73.16499999999999 Y73.816
G1 X73.16499999999999 Y72.951
G1 X73.095 Y72.951
G1 X73.09700000000001 Y72.663
G92 E0.0000
G1 X73.352 Y72.408 E0.0130 F3600 ; custom feedrate - full
G92 E0.0000
G1 E-0.4 F2100 ; custom retraction
;layer 55, Z = 11.000
;fan55;
G1 Z11.000 F1200
G1 X73.22 Y130.94799999999998 F6000
G1 E0 F2100 ; custom un-retraction/prime
G92 E0.0000
G1 X73.22 Y74.195 E2.0386 F3600 ; custom feedrate - full
G1 X73.645 Y74.195 E2.0539
G1 X73.645 Y70.65299999999999 E2.1811
G1 X73.22 Y70.65299999999999 E2.1964
G1 X73.22 Y53.218 E2.8227
G1 X135.18099999999998 Y53.218 E5.0484
G1 X135.18099999999998 Y53.614000000000004 E5.0626
G1 X137.014 Y53.614000000000004 E5.1284
G1 X137.014 Y53.218 E5.1426
G1 X156.78 Y53.218 E5.8527
G1 X156.78 Y83.85300000000001 E6.9531
G1 X124.419 Y113.994 E8.5417
G1 X121.578 Y113.994 E8.6437
G1 X121.578 Y116.64 E8.7387
G1 X90.22 Y145.84699999999998 E10.2781
G1 X90.22 Y130.94799999999998 E10.8133
G1 X73.22 Y130.94799999999998 E11.4239
G1 X72.74 Y131.428 F6000
G92 E0.0000
G1 X72.74 Y73.715 E2.0731 F1800 ; custom feedrate - half
G1 X73.16499999999999 Y73.715 E2.0884
G1 X73.16499999999999 Y72.85300000000001 E2.1193
G1 X72.74 Y72.85300000000001 E2.1346
G1 X72.74 Y72.02000000000001 E2.1645
G1 X73.16499999999999 Y72.02000000000001 E2.1798
G1 X73.16499999999999 Y71.133 E2.2116
G1 X72.74 Y71.133 E2.2269
G1 X72.74 Y52.738 E2.8877
G1 X135.661 Y52.738 E5.1479
G1 X135.661 Y53.134 E5.1621
G1 X136.534 Y53.134 E5.1934
G1 X136.534 Y52.738 E5.2076
G1 X157.26 Y52.738 E5.9522
G1 X157.26 Y84.062 E7.0773
G1 X124.608 Y114.474 E8.6802
G1 X122.058 Y114.474 E8.7718
G1 X122.058 Y116.849 E8.8571
G1 X89.74000000000001 Y146.95 E10.4435
G1 X89.74000000000001 Y131.428 E11.0011
G1 X72.74 Y131.428 E11.6118
G1 X73.309 Y72.565 F6000
G92 E0.0000
G1 X73.053 Y72.30799999999999 E0.0130 F3600 ; custom feedrate - full
G92 E0.0000
G1 E-0.4 F2100 ; custom retraction
;layer 56, Z = 11.200
;fan56;
G1 Z11.200 F1200
G1 X73.055 Y72.85300000000001 F6000
G1 X73.16499999999999 Y72.85300000000001
G1 X73.16499999999999 Y73.715
G1 X73.057 Y73.715
G1 X73.22 Y130.94799999999998
G1 E0 F2100 ; custom un-retraction/prime
G92 E0.0000
G1 X73.22 Y74.095 E2.0422 F3600 ; custom feedrate - full
G1 X73.645 Y74.095 E2.0575
G1 X73.645 Y70.753 E2.1775
G1 X73.22 Y70.753 E2.1928
G1 X73.22 Y53.218 E2.8227
G1 X135.18099999999998 Y53.218 E5.0484
G1 X135.18099999999998 Y53.614000000000004 E5.0626
G1 X137.014 Y53.614000000000004 E5.1284
G1 X137.014 Y53.218 E5.1426
G1 X156.78 Y53.218 E5.8527
G1 X156.78 Y83.85300000000001 E6.9531
G1 X124.419 Y113.994 E8.5417
G1 X121.578 Y113.994 E8.6437
G1 X121.578 Y116.64 E8.7387
G1 X90.22 Y145.84699999999998 E10.2781
G1 X90.22 Y130.94799999999998 E10.8133
G1 X73.22 Y130.94799999999998 E11.4239
G1 X72.74 Y131.428 F6000
G92 E0.0000
G1 X72.74 Y73.61500000000001 E2.0767 F1800 ; custom feedrate - half
G1 X73.16499999999999 Y73.61500000000001 E2.0920
G1 X73.16499999999999 Y72.75399999999999 E2.1229
G1 X72.74 Y72.75399999999999 E2.1381
G1 X72.74 Y72.11699999999999 E2.1610
G1 X73.16499999999999 Y72.11699999999999 E2.1763
G1 X73.16499999999999 Y71.233 E2.2080
G1 X72.74 Y71.233 E2.2233
G1 X72.74 Y52.738 E2.8877
G1 X135.661 Y52.738 E5.1479
G1 X135.661 Y53.134 E5.1621
G1 X136.534 Y53.134 E5.1934
G1 X136.534 Y52.738 E5.2076
G1 X157.26 Y52.738 E5.9522
G1 X157.26 Y84.062 E7.0773
G1 X124.608 Y114.474 E8.6802
G1 X122.058 Y114.474 E8.7718
G1 X122.058 Y116.849 E8.8571
G1 X89.74000000000001 Y146.95 E10.4435
G1 X89.74000000000001 Y131.428 E11.0011
G1 X72.74 Y131.428 E11.6118
G1 X73.294 Y72.46600000000001 F6000
G92 E0.0000
G1 X73.352 Y72.408 E0.0030 F3600 ; custom feedrate - full
G92 E0.0000
G1 E-0.4 F2100 ; custom retraction
;layer 57, Z = 11.400
;fan57;
G1 Z11.400 F1200
G1 X73.22 Y130.94799999999998 F6000
G1 E0 F2100 ; custom un-retraction/prime
G92 E0.0000
G1 X73.22 Y73.994 E2.0458 F3600 ; custom feedrate - full
G1 X73.645 Y73.994 E2.0611
G1 X73.645 Y70.854 E2.1739
G1 X73.22 Y70.854 E2.1892
G1 X73.22 Y53.218 E2.8227
G1 X135.18099999999998 Y53.218 E5.0484
G1 X135.18099999999998 Y53.614000000000004 E5.0626
G1 X137.014 Y53.614000000000004 E5.1284
G1 X137.014 Y53.218 E5.1426
G1 X156.78 Y53.218 E5.8527
G1 X156.78 Y83.85300000000001 E6.9531
G1 X124.419 Y113.994 E8.5417
G1 X121.578 Y113.994 E8.6437
G1 X121.578 Y116.64 E8.7387
G1 X90.22 Y145.84699999999998 E10.2781
G1 X90.22 Y130.94799999999998 E10.8133
G1 X73.22 Y130.94799999999998 E11.4239
G1 X72.74 Y131.428 F6000
G92 E0.0000
G1 X72.74 Y73.51400000000001 E2.0803 F1800 ; custom feedrate - half
G1 X73.16499999999999 Y73.51400000000001 E2.0956
G1 X73.16499999999999 Y72.656 E2.1264
G1 X72.74 Y72.656 E2.1417
G1 X72.74 Y72.214 E2.1576
G1 X73.16499999999999 Y72.214 E2.1728
G1 X73.16499999999999 Y71.334 E2.2044
G1 X72.74 Y71.334 E2.2197
G1 X72.74 Y52.738 E2.8877
G1 X135.661 Y52.738 E5.1479
G1 X135.661 Y53.134 E5.1621
G1 X136.534 Y53.134 E5.1934
G1 X136.534 Y52.738 E5.2076
G1 X157.26 Y52.738 E5.9522
G1 X157.26 Y84.062 E7.0773
G1 X124.608 Y114.474 E8.6802
G1 X122.058 Y114.474 E8.7718
G1 X122.058 Y116.849 E8.8571
G1 X89.74000000000001 Y146.95 E10.4435
G1 X89.74000000000001 Y131.428 E11.0011
G1 X72.74 Y131.428 E11.6118
G92 E0.0000
G1 E-0.4 F2100 ; custom retraction
;layer 58, Z = 11.600
;fan58;
G1 Z11.600 F1200
G1 X73.22 Y130.94799999999998 F6000
G1 E0 F2100 ; custom un-retraction/prime
G92 E0.0000
G1 X73.22 Y73.893 E2.0495 F3600 ; custom feedrate - full
G1 X73.645 Y73.893 E2.0647
G1 X73.645 Y70.95400000000001 E2.1703
G1 X73.22 Y70.95400000000001 E2.1856
G1 X73.22 Y53.218 E2.8227
G1 X135.18099999999998 Y53.218 E5.0484
G1 X135.18099999999998 Y53.614000000000004 E5.0626
G1 X137.014 Y53.614000000000004 E5.1284
G1 X137.014 Y53.218 E5.1426
G1 X156.78 Y53.218 E5.8527
G1 X156.78 Y83.85300000000001 E6.9531
G1 X124.419 Y113.994 E8.5417
G1 X121.578 Y113.994 E8.6437
G1 X121.578 Y116.64 E8.7387
G1 X90.22 Y145.84699999999998 E10.2781
G1 X90.22 Y130.94799999999998 E10.8133
G1 X73.22 Y130.94799999999998 E11.4239
G1 X72.74 Y131.428 F6000
G92 E0.0000
G1 X72.74 Y73.413 E2.0840 F1800 ; custom feedrate - half
G1 X73.16499999999999 Y73.413 E2.0992
G1 X73.16499999999999 Y72.557 E2.1300
G1 X72.74 Y72.557 E2.1452
G1 X72.74 Y72.311 E2.1541
G1 X73.16499999999999 Y72.311 E2.1693
G1 X73.16499999999999 Y71.434 E2.2008
G1 X72.74 Y71.434 E2.2161
G1 X72.74 Y52.738 E2.8877
G1 X135.661 Y52.738 E5.1479
G1 X135.661 Y53.134 E5.1621
G1 X136.534 Y53.134 E5.1934
G1 X136.534 Y52.738 E5.2076
G1 X157.26 Y52.738 E5.9522
G1 X157.26 Y84.062 E7.0773
G1 X124.608 Y114.474 E8.6802
G1 X122.058 Y114.474 E8.7718
G1 X122.058 Y116.849 E8.8571
G1 X89.74000000000001 Y146.95 E10.4435
G1 X89.74000000000001 Y131.428 E11.0011
G1 X72.74 Y131.428 E11.6118
G92 E0.0000
G1 E-0.4 F2100 ; custom retraction
;layer 59, Z = 11.800
;fan59;
G1 Z11.800 F1200
G1 X73.22 Y130.94799999999998 F6000
G1 E0 F2100 ; custom un-retraction/prime
G92 E0.0000
G1 X73.22 Y73.792 E2.0531 F3600 ; custom feedrate - full
G1 X73.645 Y73.792 E2.0684
G1 X73.645 Y71.055 E2.1667
G1 X73.22 Y71.055 E2.1820
G1 X73.22 Y53.218 E2.8227
G1 X135.18099999999998 Y53.218 E5.0484
G1 X135.18099999999998 Y53.614000000000004 E5.0626
G1 X137.014 Y53.614000000000004 E5.1284
G1 X137.014 Y53.218 E5.1426
G1 X156.78 Y53.218 E5.8527
G1 X156.78 Y83.85300000000001 E6.9531
G1 X124.419 Y113.994 E8.5417
G1 X121.578 Y113.994 E8.6437
G1 X121.578 Y116.64 E8.7387
G1 X90.22 Y145.84699999999998 E10.2781
G1 X90.22 Y130.94799999999998 E10.8133
G1 X73.22 Y130.94799999999998 E11.4239
G1 X72.74 Y131.428 F6000
G92 E0.0000
G1 X72.74 Y73.312 E2.0876 F1800 ; custom feedrate - half
G1 X73.16499999999999 Y73.312 E2.1028
G1 X73.16499999999999 Y72.459 E2.1335
G1 X72.74 Y72.459 E2.1488
G1 X72.74 Y72.407 E2.1506
G1 X73.16499999999999 Y72.407 E2.1659
G1 X73.16499999999999 Y71.535 E2.1972
G1 X72.74 Y71.535 E2.2125
G1 X72.74 Y52.738 E2.8877
G1 X135.661 Y52.738 E5.1479
G1 X135.661 Y53.134 E5.1621
G1 X136.534 Y53.134 E5.1934
G1 X136.534 Y52.738 E5.2076
G1 X157.26 Y52.738 E5.9522
G1 X157.26 Y84.062 E7.0773
G1 X124.608 Y114.474 E8.6802
G1 X122.058 Y114.474 E8.7718
G1 X122.058 Y116.849 E8.8571
G1 X89.74000000000001 Y146.95 E10.4435
G1 X89.74000000000001 Y131.428 E11.0011
G1 X72.74 Y131.428 E11.6118
G92 E0.0000
G1 E-0.4 F2100 ; custom retraction
;layer 60, Z = 12.000
;fan60;
G1 Z12.000 F1200
G1 X73.22 Y130.94799999999998 F6000
G1 E0 F2100 ; custom un-retraction/prime
G92 E0.0000
G1 X73.22 Y73.69200000000001 E2.0567 F3600 ; custom feedrate - full
G1 X73.645 Y73.69200000000001 E2.0720
G1 X73.645 Y71.155 E2.1631
G1 X73.22 Y71.155 E2.1784
G1 X73.22 Y53.218 E2.8227
G1 X135.18099999999998 Y53.218 E5.0484
G1 X135.18099999999998 Y53.614000000000004 E5.0626
G1 X137.014 Y53.614000000000004 E5.1284
G1 X137.014 Y53.218 E5.1426
G1 X156.78 Y53.218 E5.8527
G1 X156.78 Y83.85300000000001 E6.9531
G1 X124.419 Y113.994 E8.5417
G1 X121.578 Y113.994 E8.6437
G1 X121.578 Y116.64 E8.7387
G1 X90.22 Y145.84699999999998 E10.2781
G1 X90.22 Y130.94799999999998 E10.8133
G1 X73.22 Y130.94799999999998 E11.4239
G1 X72.74 Y131.428 F6000
G92 E0.0000
G1 X72.74 Y73.212 E2.0912 F1800 ; custom feedrate - half
G1 X73.16499999999999 Y73.212 E2.1065
G1 X73.16499999999999 Y71.635 E2.1631
G1 X72.74 Y71.635 E2.1784
G1 X72.74 Y52.738 E2.8572
G1 X135.661 Y52.738 E5.1173
G1 X135.661 Y53.134 E5.1315
G1 X136.534 Y53.134 E5.1629
G1 X136.534 Y52.738 E5.1771
G1 X157.26 Y52.738 E5.9216
G1 X157.26 Y84.062 E7.0468
G1 X124.608 Y114.474 E8.6497
G1 X122.058 Y114.474 E8.7412
G1 X122.058 Y116.849 E8.8266
G1 X89.74000000000001 Y146.95 E10.4130
G1 X89.74000000000001 Y131.428 E10.9706
G1 X72.74 Y131.428 E11.5812
G92 E0.0000
G1 E-0.4 F2100 ; custom retraction
;layer 61, Z = 12.200
;fan61;
G1 Z12.200 F1200
G1 X73.22 Y130.94799999999998 F6000
G1 E0 F2100 ; custom un-retraction/prime
G92 E0.0000
G1 X73.22 Y73.59100000000001 E2.0603 F3600 ; custom feedrate - full
G1 X73.645 Y73.59100000000001 E2.0756
G1 X73.645 Y71.255 E2.1595
G1 X73.22 Y71.255 E2.1748
G1 X73.22 Y53.218 E2.8227
G1 X135.136 Y53.218 E5.0468
G1 X135.136 Y53.614000000000004 E5.0610
G1 X137.048 Y53.614000000000004 E5.1297
G1 X137.048 Y53.218 E5.1439
G1 X156.78 Y53.218 E5.8527
G1 X156.78 Y83.85300000000001 E6.9531
G1 X124.419 Y113.994 E8.5417
G1 X121.578 Y113.994 E8.6437
G1 X121.578 Y116.64 E8.7387
G1 X90.22 Y145.84699999999998 E10.2781
G1 X90.22 Y130.94799999999998 E10.8133
G1 X73.22 Y130.94799999999998 E11.4239
G1 X72.74 Y131.428 F6000
G92 E0.0000
G1 X72.74 Y73.11099999999999 E2.0948 F1800 ; custom feedrate - half
G1 X73.16499999999999 Y73.11099999999999 E2.1101
G1 X73.16499999999999 Y71.735 E2.1595
G1 X72.74 Y71.735 E2.1748
G1 X72.74 Y52.738 E2.8572
G1 X135.61599999999999 Y52.738 E5.1157
G1 X135.61599999999999 Y53.134 E5.1300
G1 X136.56799999999998 Y53.134 E5.1641
G1 X136.56799999999998 Y52.738 E5.1784
G1 X157.26 Y52.738 E5.9216
G1 X157.26 Y84.062 E7.0468
G1 X124.608 Y114.474 E8.6497
G1 X122.058 Y114.474 E8.7412
G1 X122.058 Y116.849 E8.8266
G1 X89.74000000000001 Y146.95 E10.4130
G1 X89.74000000000001 Y131.428 E10.9706
G1 X72.74 Y131.428 E11.5812
G92 E0.0000
G1 E-0.4 F2100 ; custom retraction
;layer 62, Z = 12.400
;fan62;
G1 Z12.400 F1200
G1 X73.22 Y130.94799999999998 F6000
G1 E0 F2100 ; custom un-retraction/prime
G92 E0.0000
G1 X73.22 Y73.49000000000001 E2.0639 F3600 ; custom feedrate - full
G1 X73.645 Y73.49000000000001 E2.0792
G1 X73.645 Y71.356 E2.1559
G1 X73.22 Y71.356 E2.1711
G1 X73.22 Y53.218 E2.8227
G1 X135.04500000000002 Y53.218 E5.0435
G1 X135.04500000000002 Y53.614000000000004 E5.0577
G1 X137.14100000000002 Y53.614000000000004 E5.1330
G1 X137.14100000000002 Y53.218 E5.1472
G1 X156.78 Y53.218 E5.8527
G1 X156.78 Y83.85300000000001 E6.9531
G1 X124.419 Y113.994 E8.5417
G1 X121.578 Y113.994 E8.6437
G1 X121.578 Y116.64 E8.7387
G1 X90.22 Y145.84699999999998 E10.2781
G1 X90.22 Y130.94799999999998 E10.8133
G1 X73.22 Y130.94799999999998 E11.4239
G1 X72.74 Y131.428 F6000
G92 E0.0000
G1 X72.74 Y73.00999999999999 E2.0984 F1800 ; custom feedrate - half
G1 X73.16499999999999 Y73.00999999999999 E2.1137
G1 X73.16499999999999 Y71.836 E2.1559
G1 X72.74 Y71.836 E2.1711
G1 X72.74 Y52.738 E2.8572
G1 X135.525 Y52.738 E5.1124
G1 X135.525 Y53.134 E5.1267
G1 X136.661 Y53.134 E5.1675
G1 X136.661 Y52.738 E5.1817
G1 X157.26 Y52.738 E5.9216
G1 X157.26 Y84.062 E7.0468
G1 X124.608 Y114.474 E8.6497
G1 X122.058 Y114.474 E8.7412
G1 X122.058 Y116.849 E8.8266
G1 X89.74000000000001 Y146.95 E10.4130
G1 X89.74000000000001 Y131.428 E10.9706
G1 X72.74 Y131.428 E11.5812
G92 E0.0000
G1 E-0.4 F2100 ; custom retraction
;layer 63, Z = 12.600
;fan63;
G1 Z12.600 F1200
G1 X73.22 Y130.94799999999998 F6000
G1 E0 F2100 ; custom un-retraction/prime
G92 E0.0000
G1 X73.22 Y73.38900000000001 E2.0676 F3600 ; custom feedrate - full
G1 X73.645 Y73.38900000000001 E2.0828
G1 X73.645 Y71.456 E2.1523
G1 X73.22 Y71.456 E2.1675
G1 X73.22 Y53.218 E2.8227
G1 X134.953 Y53.218 E5.0402
G1 X134.953 Y53.614000000000004 E5.0544
G1 X137.23399999999998 Y53.614000000000004 E5.1363
G1 X137.23399999999998 Y53.218 E5.1505
G1 X156.78 Y53.218 E5.8527
G1 X156.78 Y83.85300000000001 E6.9531
G1 X124.419 Y113.994 E8.5417
G1 X121.578 Y113.994 E8.6437
G1 X121.578 Y116.64 E8.7387
G1 X90.22 Y145.84699999999998 E10.2781
G1 X90.22 Y130.94799999999998 E10.8133
G1 X73.22 Y130.94799999999998 E11.4239
G1 X72.74 Y131.428 F6000
G92 E0.0000
G1 X72.74 Y72.90899999999999 E2.1020 F1800 ; custom feedrate - half
G1 X73.16499999999999 Y72.90899999999999 E2.1173
G1 X73.16499999999999 Y71.936 E2.1523
G1 X72.74 Y71.936 E2.1675
G1 X72.74 Y52.738 E2.8572
G1 X135.433 Y52.738 E5.1091
G1 X135.433 Y53.134 E5.1234
G1 X136.75400000000002 Y53.134 E5.1708
G1 X136.75400000000002 Y52.738 E5.1850
G1 X157.26 Y52.738 E5.9216
G1 X157.26 Y84.062 E7.0468
G1 X124.608 Y114.474 E8.6497
G1 X122.058 Y114.474 E8.7412
G1 X122.058 Y116.849 E8.8266
G1 X89.74000000000001 Y146.95 E10.4130
G1 X89.74000000000001 Y131.428 E10.9706
G1 X72.74 Y131.428 E11.5812
G92 E0.0000
G1 E-0.4 F2100 ; custom retraction
;layer 64, Z = 12.800
;fan64;
G1 Z12.800 F1200
G1 X73.22 Y130.94799999999998 F6000
G1 E0 F2100 ; custom un-retraction/prime
G92 E0.0000
G1 X73.22 Y73.418 E2.0665 F3600 ; custom feedrate - full
G1 X73.645 Y73.418 E2.0818
G1 X73.645 Y71.443 E2.1528
G1 X73.22 Y71.443 E2.1680
G1 X73.22 Y53.218 E2.8227
G1 X134.861 Y53.218 E5.0369
G1 X134.861 Y53.614000000000004 E5.0511
G1 X137.326 Y53.614000000000004 E5.1396
G1 X137.326 Y53.218 E5.1539
G1 X156.78 Y53.218 E5.8527
G1 X156.78 Y83.85300000000001 E6.9531
G1 X124.419 Y113.994 E8.5417
G1 X121.578 Y113.994 E8.6437
G1 X121.578 Y116.64 E8.7387
G1 X90.22 Y145.84699999999998 E10.2781
G1 X90.22 Y130.94799999999998 E10.8133
G1 X73.22 Y130.94799999999998 E11.4239
G1 X72.74 Y131.428 F6000
G92 E0.0000
G1 X72.74 Y72.938 E2.1010 F1800 ; custom feedrate - half
G1 X73.16499999999999 Y72.938 E2.1163
G1 X73.16499999999999 Y71.923 E2.1528
G1 X72.74 Y71.923 E2.1680
G1 X72.74 Y52.738 E2.8572
G1 X135.341 Y52.738 E5.1059
G1 X135.341 Y53.134 E5.1201
G1 X136.846 Y53.134 E5.1741
G1 X136.846 Y52.738 E5.1883
G1 X157.26 Y52.738 E5.9216
G1 X157.26 Y84.062 E7.0468
G1 X124.608 Y114.474 E8.6497
G1 X122.058 Y114.474 E8.7412
G1 X122.058 Y116.849 E8.8266
G1 X89.74000000000001 Y146.95 E10.4130
G1 X89.74000000000001 Y131.428 E10.9706
G1 X72.74 Y131.428 E11.5812
G92 E0.0000
G1 E-0.4 F2100 ; custom retraction
;layer 65, Z = 13.000
;fan65;
G1 Z13.000 F1200
G1 X73.22 Y130.94799999999998 F6000
G1 E0 F2100 ; custom un-retraction/prime
G92 E0.0000
G1 X73.22 Y73.521 E2.0628 F3600 ; custom feedrate - full
G1 X73.645 Y73.521 E2.0781
G1 X73.645 Y71.339 E2.1565
G1 X73.22 Y71.339 E2.1717
G1 X73.22 Y53.218 E2.8227
G1 X134.76999999999998 Y53.218 E5.0336
G1 X134.76999999999998 Y53.614000000000004 E5.0478
G1 X137.41899999999998 Y53.614000000000004 E5.1430
G1 X137.41899999999998 Y53.218 E5.1572
G1 X156.78 Y53.218 E5.8527
G1 X156.78 Y83.85300000000001 E6.9531
G1 X124.419 Y113.994 E8.5417
G1 X121.578 Y113.994 E8.6437
G1 X121.578 Y116.64 E8.7387
G1 X90.22 Y145.84699999999998 E10.2781
G1 X90.22 Y130.94799999999998 E10.8133
G1 X73.22 Y130.94799999999998 E11.4239
G1 X72.74 Y131.428 F6000
G92 E0.0000
G1 X72.74 Y73.041 E2.0973 F1800 ; custom feedrate - half
G1 X73.16499999999999 Y73.041 E2.1126
G1 X73.16499999999999 Y71.819 E2.1565
G1 X72.74 Y71.819 E2.1717
G1 X72.74 Y52.738 E2.8572
G1 X135.25 Y52.738 E5.1026
G1 X135.25 Y53.134 E5.1168
G1 X136.939 Y53.134 E5.1775
G1 X136.939 Y52.738 E5.1917
G1 X157.26 Y52.738 E5.9216
G1 X157.26 Y84.062 E7.0468
G1 X124.608 Y114.474 E8.6497
G1 X122.058 Y114.474 E8.7412
G1 X122.058 Y116.849 E8.8266
G1 X89.74000000000001 Y146.95 E10.4130
G1 X89.74000000000001 Y131.428 E10.9706
G1 X72.74 Y131.428 E11.5812
G92 E0.0000
G1 E-0.4 F2100 ; custom retraction
;layer 66, Z = 13.200
;fan66;
G1 Z13.200 F1200
G1 X73.22 Y130.94799999999998 F6000
G1 E0 F2100 ; custom un-retraction/prime
G92 E0.0000
G1 X73.22 Y73.624 E2.0591 F3600 ; custom feedrate - full
G1 X73.645 Y73.624 E2.0744
G1 X73.645 Y71.236 E2.1602
G1 X73.22 Y71.236 E2.1755
G1 X73.22 Y53.218 E2.8227
G1 X134.678 Y53.218 E5.0303
G1 X134.678 Y53.614000000000004 E5.0445
G1 X137.512 Y53.614000000000004 E5.1463
G1 X137.512 Y53.218 E5.1605
G1 X156.78 Y53.218 E5.8527
G1 X156.78 Y83.85300000000001 E6.9531
G1 X124.419 Y113.994 E8.5417
G1 X121.578 Y113.994 E8.6437
G1 X121.578 Y116.64 E8.7387
G1 X90.22 Y145.84699999999998 E10.2781
G1 X90.22 Y130.94799999999998 E10.8133
G1 X73.22 Y130.94799999999998 E11.4239
G1 X72.74 Y131.428 F6000
G92 E0.0000
G1 X72.74 Y73.144 E2.0936 F1800 ; custom feedrate - half
G1 X73.16499999999999 Y73.144 E2.1089
G1 X73.16499999999999 Y71.71600000000001 E2.1602
G1 X72.74 Y71.71600000000001 E2.1755
G1 X72.74 Y52.738 E2.8572
G1 X135.15800000000002 Y52.738 E5.0993
G1 X135.15800000000002 Y53.134 E5.1135
G1 X136.05200000000002 Y53.134 E5.1456
G1 X136.05200000000002 Y52.738 E5.1598
G1 X136.14499999999998 Y52.738 E5.1631
G1 X136.14499999999998 Y53.134 E5.1774
G1 X137.03199999999998 Y53.134 E5.2092
G1 X137.03199999999998 Y52.738 E5.2234
G1 X157.26 Y52.738 E5.9501
G1 X157.26 Y84.062 E7.0752
G1 X124.608 Y114.474 E8.6781
G1 X122.058 Y114.474 E8.7697
G1 X122.058 Y116.849 E8.8550
G1 X89.74000000000001 Y146.95 E10.4414
G1 X89.74000000000001 Y131.428 E10.9990
G1 X72.74 Y131.428 E11.6097
G92 E0.0000
G1 E-0.4 F2100 ; custom retraction
;layer 67, Z = 13.400
;fan67;
G1 Z13.400 F1200
G1 X73.22 Y130.94799999999998 F6000
G1 E0 F2100 ; custom un-retraction/prime
G92 E0.0000
G1 X73.22 Y73.727 E2.0555 F3600 ; custom feedrate - full
G1 X73.645 Y73.727 E2.0707
G1 X73.645 Y71.132 E2.1639
G1 X73.22 Y71.132 E2.1792
G1 X73.22 Y53.218 E2.8227
G1 X134.586 Y53.218 E5.0270
G1 X134.586 Y53.614000000000004 E5.0412
G1 X137.60399999999998 Y53.614000000000004 E5.1496
G1 X137.60399999999998 Y53.218 E5.1639
G1 X156.78 Y53.218 E5.8527
G1 X156.78 Y83.85300000000001 E6.9531
G1 X124.419 Y113.994 E8.5417
G1 X121.578 Y113.994 E8.6437
G1 X121.578 Y116.64 E8.7387
G1 X90.22 Y145.84699999999998 E10.2781
G1 X90.22 Y130.94799999999998 E10.8133
G1 X73.22 Y130.94799999999998 E11.4239
G1 X72.74 Y131.428 F6000
G92 E0.0000
G1 X72.74 Y73.24600000000001 E2.0899 F1800 ; custom feedrate - half
G1 X73.16499999999999 Y73.24600000000001 E2.1052
G1 X73.16499999999999 Y71.612 E2.1639
G1 X72.74 Y71.612 E2.1792
G1 X72.74 Y52.738 E2.8572
G1 X135.066 Y52.738 E5.0960
G1 X135.066 Y53.134 E5.1102
G1 X135.962 Y53.134 E5.1424
G1 X135.962 Y52.738 E5.1566
G1 X136.235 Y52.738 E5.1664
G1 X136.235 Y53.134 E5.1806
G1 X137.124 Y53.134 E5.2126
G1 X137.124 Y52.738 E5.2268
G1 X157.26 Y52.738 E5.9501
G1 X157.26 Y84.062 E7.0752
G1 X124.608 Y114.474 E8.6781
G1 X122.058 Y114.474 E8.7697
G1 X122.058 Y116.849 E8.8550
G1 X89.74000000000001 Y146.95 E10.4414
G1 X89.74000000000001 Y131.428 E10.9990
