; G-Code originally generated by Simplify3D(R) Version 4.1.2
;This calibration test gcode modified by the Teaching Tech Calibration website: https://teachingtechyt.github.io/calibration.html
;M80 ; power supply on
G90
M82
M106 S0
M140 S55 ; custom bed temp
M190 S55 ; custom bed temp
M104 S200 T0 ; custom hot end temp
M109 S200 T0 ; custom hot end temp
G28 ; home all axes
;G29 ; probe ABL
;M420 S1 ; restore ABL mesh 
;customstart
G0 Z3; fix for delta printers that home at max
;process Process
;layer 1, Z = 0.200
T0
G92 E0.0000
G1 E-0.4 F2100 ; custom retraction
;fan1;
G1 Z0.200 F1200
G1 X102.136 Y88.814 F6000
G1 E0 F2100 ; custom un-retraction/prime
G92 E0.0000
G1 X103.814 Y87.136 E0.1023 F1800
G1 X126.186 Y87.136 E1.0666
G1 X127.864 Y88.814 E1.1689
G1 X127.864 Y111.186 E2.1333
G1 X126.186 Y112.864 E2.2356
G1 X103.814 Y112.864 E3.1999
G1 X102.136 Y111.186 E3.3022
G1 X102.136 Y88.814 E4.2666
G92 E0.0000
G1 E-0.4 F2100 ; custom retraction
;zhop1
G1 X102.712 Y89.05199999999999 F6000
G1 Z0.200 F1200
G1 E0 F2100 ; custom un-retraction/prime
G92 E0.0000
G1 X104.05199999999999 Y87.712 E0.0817 F1800
G1 X125.948 Y87.712 E1.0255
G1 X127.288 Y89.05199999999999 E1.1072
G1 X127.288 Y110.948 E2.0510
G1 X125.948 Y112.288 E2.1327
G1 X104.05199999999999 Y112.288 E3.0765
G1 X102.712 Y110.948 E3.1582
G1 X102.712 Y89.05199999999999 E4.1020
G92 E0.0000
G1 E-0.4 F2100 ; custom retraction
;zhop1
G1 X105.288 Y90.288 F6000
G1 X105.288 Y90.702
G1 X106.44 Y91.44
G1 Z0.200 F1200
G1 E0 F2100 ; custom un-retraction/prime
G92 E0.0000
G1 X123.56 Y91.44 E0.7380 F1440
G1 X123.56 Y108.56 E1.4759
G1 X106.44 Y108.56 E2.2139
G1 X106.44 Y91.44 E2.9518
G1 X105.864 Y90.864 F6000
G92 E0.0000
G1 X124.136 Y90.864 E0.7876 F1440
G1 X124.136 Y109.136 E1.5752
G1 X105.864 Y109.136 E2.3629
G1 X105.864 Y90.864 E3.1505
G1 X105.288 Y90.288 F6000
G92 E0.0000
G1 X124.712 Y90.288 E0.8373 F1080
G1 X124.712 Y109.712 E1.6745
G1 X105.288 Y109.712 E2.5118
G1 X105.288 Y90.288 E3.3491
G1 X123.077 Y91.786 F6000
G92 E0.0000
G1 X123.214 Y91.923 E0.0084 F1440
G1 X123.214 Y92.737 E0.0435
G1 X122.263 Y91.786 E0.1015
G1 X121.448 Y91.786 E0.1366
G1 X123.214 Y93.55199999999999 E0.2443
G1 X123.214 Y94.366 E0.2794
G1 X120.634 Y91.786 E0.4367
G1 X119.819 Y91.786 E0.4718
G1 X123.214 Y95.181 E0.6788
G1 X123.214 Y95.99600000000001 E0.7139
G1 X119.004 Y91.786 E0.9705
G1 X118.19 Y91.786 E1.0057
G1 X123.214 Y96.81 E1.3120
G1 X123.214 Y97.625 E1.3471
G1 X117.375 Y91.786 E1.7030
G1 X116.561 Y91.786 E1.7381
G1 X123.214 Y98.439 E2.1437
G1 X123.214 Y99.25399999999999 E2.1789
G1 X115.74600000000001 Y91.786 E2.6341
G1 X114.931 Y91.786 E2.6692
G1 X123.214 Y100.069 E3.1742
G1 X123.214 Y100.88300000000001 E3.2093
G1 X114.11699999999999 Y91.786 E3.7639
G1 X113.30199999999999 Y91.786 E3.7990
G1 X123.214 Y101.69800000000001 E4.4032
G1 X123.214 Y102.512 E4.4383
G1 X112.488 Y91.786 E5.0922
G1 X111.673 Y91.786 E5.1273
G1 X123.214 Y103.327 E5.8309
G1 X123.214 Y104.141 E5.8660
G1 X110.85900000000001 Y91.786 E6.6192
G1 X110.044 Y91.786 E6.6543
G1 X123.214 Y104.956 E7.4572
G1 X123.214 Y105.771 E7.4923
G1 X109.229 Y91.786 E8.3448
G1 X108.41499999999999 Y91.786 E8.3799
G1 X123.214 Y106.585 E9.2821
G1 X123.214 Y107.4 E9.3172
G1 X107.6 Y91.786 E10.2691
G1 X106.786 Y91.786 E10.3042
G1 X123.214 Y108.214 E11.3057
G1 X122.4 Y108.214 E11.3408
G1 X106.786 Y92.6 E12.2926
G1 X106.786 Y93.41499999999999 E12.3278
G1 X121.585 Y108.214 E13.2299
G1 X120.771 Y108.214 E13.2651
G1 X106.786 Y94.229 E14.1176
G1 X106.786 Y95.044 E14.1527
G1 X119.956 Y108.214 E14.9556
G1 X119.141 Y108.214 E14.9907
G1 X106.786 Y95.85900000000001 E15.7439
G1 X106.786 Y96.673 E15.7790
G1 X118.327 Y108.214 E16.4826
G1 X117.512 Y108.214 E16.5177
G1 X106.786 Y97.488 E17.1716
G1 X106.786 Y98.30199999999999 E17.2067
G1 X116.69800000000001 Y108.214 E17.8109
G1 X115.88300000000001 Y108.214 E17.8460
G1 X106.786 Y99.11699999999999 E18.4006
G1 X106.786 Y99.931 E18.4357
G1 X115.069 Y108.214 E18.9407
G1 X114.25399999999999 Y108.214 E18.9758
G1 X106.786 Y100.74600000000001 E19.4310
G1 X106.786 Y101.561 E19.4662
G1 X113.439 Y108.214 E19.8718
G1 X112.625 Y108.214 E19.9069
G1 X106.786 Y102.375 E20.2628
G1 X106.786 Y103.19 E20.2980
G1 X111.81 Y108.214 E20.6043
G1 X110.99600000000001 Y108.214 E20.6394
G1 X106.786 Y104.004 E20.8960
G1 X106.786 Y104.819 E20.9311
G1 X110.181 Y108.214 E21.1381
G1 X109.366 Y108.214 E21.1732
G1 X106.786 Y105.634 E21.3305
G1 X106.786 Y106.448 E21.3657
G1 X108.55199999999999 Y108.214 E21.4733
G1 X107.737 Y108.214 E21.5084
G1 X106.786 Y107.263 E21.5665
G1 X106.786 Y108.077 E21.6016
G1 X106.923 Y108.214 E21.6099
G92 E0.0000
G1 E-0.4 F2100 ; custom retraction
;layer 2, Z = 0.400
M106 S255; custom fan 100% from layer 2
G1 Z0.400 F1200
G1 X106.2 Y108.8 F6000
G1 E0 F2100 ; custom un-retraction/prime
G92 E0.0000
G1 X106.2 Y91.2 E0.6322 F2880
G1 X123.8 Y91.2 E1.2644
G1 X123.8 Y108.8 E1.8966
G1 X106.2 Y108.8 E2.5288
G1 X105.72 Y109.28 F6000
G92 E0.0000
G1 X105.72 Y90.72 E0.6667 F2880
G1 X124.28 Y90.72 E1.3334
G1 X124.28 Y109.28 E2.0001
G1 X105.72 Y109.28 E2.6668
G1 X105.24000000000001 Y109.76 F6000
G92 E0.0000
G1 X105.24000000000001 Y90.24000000000001 E0.7012 F2160
G1 X124.76 Y90.24000000000001 E1.4024
G1 X124.76 Y109.76 E2.1035
G1 X105.24000000000001 Y109.76 E2.8047
G1 X106.488 Y91.541 F6000
G92 E0.0000
G1 X106.541 Y91.488 E0.0027 F2880
G1 X107.22 Y91.488 E0.0271
G1 X106.488 Y92.22 E0.0643
G1 X106.488 Y92.899 E0.0887
G1 X107.899 Y91.488 E0.1604
G1 X108.578 Y91.488 E0.1848
G1 X106.488 Y93.578 E0.2909
G1 X106.488 Y94.257 E0.3153
G1 X109.257 Y91.488 E0.4560
G1 X109.936 Y91.488 E0.4803
G1 X106.488 Y94.936 E0.6555
G1 X106.488 Y95.614 E0.6799
G1 X110.614 Y91.488 E0.8895
G1 X111.293 Y91.488 E0.9139
G1 X106.488 Y96.293 E1.1580
G1 X106.488 Y96.97200000000001 E1.1824
G1 X111.97200000000001 Y91.488 E1.4609
G1 X112.65100000000001 Y91.488 E1.4853
G1 X106.488 Y97.65100000000001 E1.7984
G1 X106.488 Y98.33 E1.8228
G1 X113.33 Y91.488 E2.1703
G1 X114.009 Y91.488 E2.1947
G1 X106.488 Y99.009 E2.5768
G1 X106.488 Y99.687 E2.6012
G1 X114.687 Y91.488 E3.0177
G1 X115.366 Y91.488 E3.0421
G1 X106.488 Y100.366 E3.4931
G1 X106.488 Y101.045 E3.5175
G1 X116.045 Y91.488 E4.0030
G1 X116.72399999999999 Y91.488 E4.0273
G1 X106.488 Y101.72399999999999 E4.5473
G1 X106.488 Y102.40299999999999 E4.5717
G1 X117.40299999999999 Y91.488 E5.1262
G1 X118.081 Y91.488 E5.1505
G1 X106.488 Y103.081 E5.7395
G1 X106.488 Y103.75999999999999 E5.7639
G1 X118.75999999999999 Y91.488 E6.3873
G1 X119.439 Y91.488 E6.4117
G1 X106.488 Y104.439 E7.0696
G1 X106.488 Y105.118 E7.0940
G1 X120.118 Y91.488 E7.7864
G1 X120.797 Y91.488 E7.8108
G1 X106.488 Y105.797 E8.5377
G1 X106.488 Y106.476 E8.5620
G1 X121.476 Y91.488 E9.3234
G1 X122.154 Y91.488 E9.3478
G1 X106.488 Y107.154 E10.1436
G1 X106.488 Y107.833 E10.1680
G1 X122.833 Y91.488 E10.9984
G1 X123.512 Y91.488 E11.0227
G1 X106.488 Y108.512 E11.8876
G1 X107.167 Y108.512 E11.9119
G1 X123.512 Y92.167 E12.7423
G1 X123.512 Y92.846 E12.7667
G1 X107.846 Y108.512 E13.5625
G1 X108.525 Y108.512 E13.5869
G1 X123.512 Y93.525 E14.3482
G1 X123.512 Y94.203 E14.3726
G1 X109.203 Y108.512 E15.0995
G1 X109.882 Y108.512 E15.1239
G1 X123.512 Y94.882 E15.8163
G1 X123.512 Y95.561 E15.8407
G1 X110.561 Y108.512 E16.4986
G1 X111.24000000000001 Y108.512 E16.5230
G1 X123.512 Y96.24000000000001 E17.1464
G1 X123.512 Y96.919 E17.1708
G1 X111.919 Y108.512 E17.7597
G1 X112.59700000000001 Y108.512 E17.7841
G1 X123.512 Y97.59700000000001 E18.3386
G1 X123.512 Y98.27600000000001 E18.3629
G1 X113.27600000000001 Y108.512 E18.8829
G1 X113.955 Y108.512 E18.9073
G1 X123.512 Y98.955 E19.3928
G1 X123.512 Y99.634 E19.4172
G1 X114.634 Y108.512 E19.8682
G1 X115.313 Y108.512 E19.8926
G1 X123.512 Y100.313 E20.3091
G1 X123.512 Y100.99199999999999 E20.3335
G1 X115.99199999999999 Y108.512 E20.7155
G1 X116.67 Y108.512 E20.7399
G1 X123.512 Y101.67 E21.0875
G1 X123.512 Y102.34899999999999 E21.1118
G1 X117.34899999999999 Y108.512 E21.4249
G1 X118.02799999999999 Y108.512 E21.4493
G1 X123.512 Y103.02799999999999 E21.7279
G1 X123.512 Y103.707 E21.7523
G1 X118.707 Y108.512 E21.9964
G1 X119.386 Y108.512 E22.0207
G1 X123.512 Y104.386 E22.2304
G1 X123.512 Y105.064 E22.2547
G1 X120.064 Y108.512 E22.4299
G1 X120.743 Y108.512 E22.4543
G1 X123.512 Y105.743 E22.5949
G1 X123.512 Y106.422 E22.6193
G1 X121.422 Y108.512 E22.7255
G1 X122.101 Y108.512 E22.7498
G1 X123.512 Y107.101 E22.8215
G1 X123.512 Y107.78 E22.8459
G1 X122.78 Y108.512 E22.8831
G1 X123.459 Y108.512 E22.9075
G1 X123.512 Y108.459 E22.9102
G92 E0.0000
G1 E-0.4 F2100 ; custom retraction
;layer 3, Z = 0.600
;fan3;
G1 Z0.600 F1200
G1 X123.8 Y108.8 F6000
G1 E0 F2100 ; custom un-retraction/prime
G92 E0.0000
G1 X106.2 Y108.8 E0.6322 F2880
G1 X106.2 Y91.2 E1.2644
G1 X123.8 Y91.2 E1.8966
G1 X123.8 Y108.8 E2.5288
G1 X124.28 Y109.28 F6000
G92 E0.0000
G1 X105.72 Y109.28 E0.6667 F2880
G1 X105.72 Y90.72 E1.3334
G1 X124.28 Y90.72 E2.0001
G1 X124.28 Y109.28 E2.6668
G1 X124.76 Y109.76 F6000
G92 E0.0000
G1 X105.24000000000001 Y109.76 E0.7012 F2160
G1 X105.24000000000001 Y90.24000000000001 E1.4024
G1 X124.76 Y90.24000000000001 E2.1035
G1 X124.76 Y109.76 E2.8047
G1 X106.541 Y108.512 F6000
G92 E0.0000
G1 X106.488 Y108.459 E0.0027 F2880
G1 X106.488 Y107.78 E0.0271
G1 X107.22 Y108.512 E0.0643
G1 X107.899 Y108.512 E0.0887
G1 X106.488 Y107.101 E0.1604
G1 X106.488 Y106.422 E0.1847
G1 X108.578 Y108.512 E0.2909
G1 X109.257 Y108.512 E0.3153
G1 X106.488 Y105.743 E0.4560
G1 X106.488 Y105.064 E0.4803
G1 X109.936 Y108.512 E0.6555
G1 X110.614 Y108.512 E0.6799
G1 X106.488 Y104.386 E0.8895
G1 X106.488 Y103.707 E0.9139
G1 X111.293 Y108.512 E1.1580
G1 X111.97200000000001 Y108.512 E1.1823
G1 X106.488 Y103.02799999999999 E1.4609
G1 X106.488 Y102.34899999999999 E1.4853
G1 X112.65100000000001 Y108.512 E1.7984
G1 X113.33 Y108.512 E1.8228
G1 X106.488 Y101.67 E2.1703
G1 X106.488 Y100.99199999999999 E2.1947
G1 X114.00800000000001 Y108.512 E2.5768
G1 X114.687 Y108.512 E2.6011
G1 X106.488 Y100.313 E3.0177
G1 X106.488 Y99.634 E3.0420
G1 X115.366 Y108.512 E3.4931
G1 X116.045 Y108.512 E3.5174
G1 X106.488 Y98.955 E4.0029
G1 X106.488 Y98.27600000000001 E4.0273
G1 X116.72399999999999 Y108.512 E4.5473
G1 X117.40299999999999 Y108.512 E4.5717
G1 X106.488 Y97.59700000000001 E5.1261
G1 X106.488 Y96.919 E5.1505
G1 X118.081 Y108.512 E5.7395
G1 X118.75999999999999 Y108.512 E5.7639
G1 X106.488 Y96.24000000000001 E6.3873
G1 X106.488 Y95.561 E6.4117
G1 X119.439 Y108.512 E7.0696
G1 X120.118 Y108.512 E7.0940
G1 X106.488 Y94.882 E7.7864
G1 X106.488 Y94.203 E7.8107
G1 X120.797 Y108.512 E8.5376
G1 X121.476 Y108.512 E8.5620
G1 X106.488 Y93.524 E9.3234
G1 X106.488 Y92.846 E9.3478
G1 X122.154 Y108.512 E10.1436
G1 X122.833 Y108.512 E10.1680
G1 X106.488 Y92.167 E10.9983
G1 X106.488 Y91.488 E11.0227
G1 X123.512 Y108.512 E11.8875
G1 X123.512 Y107.833 E11.9119
G1 X107.167 Y91.488 E12.7422
G1 X107.846 Y91.488 E12.7666
G1 X123.512 Y107.154 E13.5625
G1 X123.512 Y106.476 E13.5869
G1 X108.524 Y91.488 E14.3482
G1 X109.203 Y91.488 E14.3726
G1 X123.512 Y105.797 E15.0995
G1 X123.512 Y105.118 E15.1239
G1 X109.882 Y91.488 E15.8163
G1 X110.561 Y91.488 E15.8407
G1 X123.512 Y104.439 E16.4986
G1 X123.512 Y103.75999999999999 E16.5230
G1 X111.24000000000001 Y91.488 E17.1464
G1 X111.919 Y91.488 E17.1708
G1 X123.512 Y103.081 E17.7597
G1 X123.512 Y102.40299999999999 E17.7841
G1 X112.59700000000001 Y91.488 E18.3385
G1 X113.27600000000001 Y91.488 E18.3629
G1 X123.512 Y101.72399999999999 E18.8829
G1 X123.512 Y101.045 E18.9073
G1 X113.955 Y91.488 E19.3928
G1 X114.634 Y91.488 E19.4172
G1 X123.512 Y100.366 E19.8682
G1 X123.512 Y99.687 E19.8926
G1 X115.313 Y91.488 E20.3091
G1 X115.99199999999999 Y91.488 E20.3335
G1 X123.512 Y99.00800000000001 E20.7155
G1 X123.512 Y98.33 E20.7399
G1 X116.67 Y91.488 E21.0874
G1 X117.34899999999999 Y91.488 E21.1118
G1 X123.512 Y97.65100000000001 E21.4249
G1 X123.512 Y96.97200000000001 E21.4493
G1 X118.02799999999999 Y91.488 E21.7279
G1 X118.707 Y91.488 E21.7523
G1 X123.512 Y96.293 E21.9964
G1 X123.512 Y95.614 E22.0207
G1 X119.386 Y91.488 E22.2304
G1 X120.064 Y91.488 E22.2547
G1 X123.512 Y94.936 E22.4299
G1 X123.512 Y94.257 E22.4543
G1 X120.743 Y91.488 E22.5949
G1 X121.422 Y91.488 E22.6193
G1 X123.512 Y93.578 E22.7255
G1 X123.512 Y92.899 E22.7498
G1 X122.101 Y91.488 E22.8215
G1 X122.78 Y91.488 E22.8459
G1 X123.512 Y92.22 E22.8831
G1 X123.512 Y91.541 E22.9075
G1 X123.459 Y91.488 E22.9102
G92 E0.0000
G1 E-0.4 F2100 ; custom retraction
;layer 4, Z = 0.800
;fan4;
G1 Z0.800 F1200
G1 X123.8 Y91.2 F6000
G1 E0 F2100 ; custom un-retraction/prime
G92 E0.0000
G1 X123.8 Y108.8 E0.6322 F2880
G1 X106.2 Y108.8 E1.2644
G1 X106.2 Y91.2 E1.8966
G1 X123.8 Y91.2 E2.5288
G1 X124.28 Y90.72 F6000
G92 E0.0000
G1 X124.28 Y109.28 E0.6667 F2880
G1 X105.72 Y109.28 E1.3334
G1 X105.72 Y90.72 E2.0001
G1 X124.28 Y90.72 E2.6668
G1 X124.76 Y90.24000000000001 F6000
G92 E0.0000
G1 X124.76 Y109.76 E0.7012 F2160
G1 X105.24000000000001 Y109.76 E1.4024
G1 X105.24000000000001 Y90.24000000000001 E2.1035
G1 X124.76 Y90.24000000000001 E2.8047
G1 X123.452 Y104.276 F6000
G92 E0.0000
G1 X119.276 Y108.452 E0.2652 F3600
G1 X115.033 Y108.452 E0.4557
G1 X123.452 Y100.033 E0.9903
G1 X123.452 Y95.791 E1.1808
G1 X110.791 Y108.452 E1.9848
G1 X106.548 Y108.452 E2.1753
G1 X123.452 Y91.548 E3.2487
G1 X119.209 Y91.548 E3.4392
G1 X106.548 Y104.209 E4.2432
G1 X106.548 Y99.967 E4.4337
G1 X114.967 Y91.548 E4.9682
G1 X110.72399999999999 Y91.548 E5.1587
G1 X106.548 Y95.72399999999999 E5.4239
G92 E0.0000
G1 E-0.4 F2100 ; custom retraction
;layer 5, Z = 1.000
;fan5;
;
G1 Z1.000 F1200
G1 X106.2 Y91.2 F6000
G1 E0 F2100 ; custom un-retraction/prime
G92 E0.0000
G1 X123.8 Y91.2 E0.6322 F2880
G1 X123.8 Y108.8 E1.2644
G1 X106.2 Y108.8 E1.8966
G1 X106.2 Y91.2 E2.5288
G1 X105.72 Y90.72 F6000
G92 E0.0000
G1 X124.28 Y90.72 E0.6667 F2880
G1 X124.28 Y109.28 E1.3334
G1 X105.72 Y109.28 E2.0001
G1 X105.72 Y90.72 E2.6668
G1 X105.24000000000001 Y90.24000000000001 F6000
G92 E0.0000
G1 X124.76 Y90.24000000000001 E0.7012 F2160
G1 X124.76 Y109.76 E1.4024
G1 X105.24000000000001 Y109.76 E2.1035
G1 X105.24000000000001 Y90.24000000000001 E2.8047
G1 X119.276 Y91.548 F6000
G92 E0.0000
G1 X123.452 Y95.72399999999999 E0.2652 F3600
G1 X123.452 Y99.967 E0.4557
G1 X115.033 Y91.548 E0.9903
G1 X110.791 Y91.548 E1.1808
G1 X123.452 Y104.209 E1.9848
G1 X123.452 Y108.452 E2.1753
G1 X106.548 Y91.548 E3.2487
G1 X106.548 Y95.791 E3.4392
G1 X119.209 Y108.452 E4.2432
G1 X114.967 Y108.452 E4.4337
G1 X106.548 Y100.033 E4.9682
G1 X106.548 Y104.276 E5.1587
G1 X110.72399999999999 Y108.452 E5.4239
G92 E0.0000
G1 E-0.4 F2100 ; custom retraction
;layer 6, Z = 1.200
;fan6;
G1 Z1.200 F1200
G1 X106.2 Y108.8 F6000
G1 E0 F2100 ; custom un-retraction/prime
G92 E0.0000
G1 X106.2 Y91.2 E0.6322 F2880
G1 X123.8 Y91.2 E1.2644
G1 X123.8 Y108.8 E1.8966
G1 X106.2 Y108.8 E2.5288
G1 X105.72 Y109.28 F6000
G92 E0.0000
G1 X105.72 Y90.72 E0.6667 F2880
G1 X124.28 Y90.72 E1.3334
G1 X124.28 Y109.28 E2.0001
G1 X105.72 Y109.28 E2.6668
G1 X105.24000000000001 Y109.76 F6000
G92 E0.0000
G1 X105.24000000000001 Y90.24000000000001 E0.7012 F2160
G1 X124.76 Y90.24000000000001 E1.4024
G1 X124.76 Y109.76 E2.1035
G1 X105.24000000000001 Y109.76 E2.8047
G1 X106.548 Y95.72399999999999 F6000
G92 E0.0000
G1 X110.72399999999999 Y91.548 E0.2652 F3600
G1 X114.967 Y91.548 E0.4557
G1 X106.548 Y99.967 E0.9903
G1 X106.548 Y104.209 E1.1808
G1 X119.209 Y91.548 E1.9848
G1 X123.452 Y91.548 E2.1753
G1 X106.548 Y108.452 E3.2487
G1 X110.791 Y108.452 E3.4392
G1 X123.452 Y95.791 E4.2432
G1 X123.452 Y100.033 E4.4337
G1 X115.033 Y108.452 E4.9682
G1 X119.276 Y108.452 E5.1587
G1 X123.452 Y104.276 E5.4239
G92 E0.0000
G1 E-0.4 F2100 ; custom retraction
;layer 7, Z = 1.400
;fan7;
G1 Z1.400 F1200
G1 X123.8 Y108.8 F6000
G1 E0 F2100 ; custom un-retraction/prime
G92 E0.0000
G1 X106.2 Y108.8 E0.6322 F2880
G1 X106.2 Y91.2 E1.2644
G1 X123.8 Y91.2 E1.8966
G1 X123.8 Y108.8 E2.5288
G1 X124.28 Y109.28 F6000
G92 E0.0000
G1 X105.72 Y109.28 E0.6667 F2880
G1 X105.72 Y90.72 E1.3334
G1 X124.28 Y90.72 E2.0001
G1 X124.28 Y109.28 E2.6668
G1 X124.76 Y109.76 F6000
G92 E0.0000
G1 X105.24000000000001 Y109.76 E0.7012 F2160
G1 X105.24000000000001 Y90.24000000000001 E1.4024
G1 X124.76 Y90.24000000000001 E2.1035
G1 X124.76 Y109.76 E2.8047
G1 X110.72399999999999 Y108.452 F6000
G92 E0.0000
G1 X106.548 Y104.276 E0.2652 F3600
G1 X106.548 Y100.033 E0.4557
G1 X114.967 Y108.452 E0.9903
G1 X119.209 Y108.452 E1.1808
G1 X106.548 Y95.791 E1.9848
G1 X106.548 Y91.548 E2.1753
G1 X123.452 Y108.452 E3.2487
G1 X123.452 Y104.209 E3.4392
G1 X110.791 Y91.548 E4.2432
G1 X115.033 Y91.548 E4.4337
G1 X123.452 Y99.967 E4.9682
G1 X123.452 Y95.72399999999999 E5.1587
G1 X119.276 Y91.548 E5.4239
G92 E0.0000
G1 E-0.4 F2100 ; custom retraction
;layer 8, Z = 1.600
;fan8;
G1 Z1.600 F1200
G1 X123.8 Y91.2 F6000
G1 E0 F2100 ; custom un-retraction/prime
G92 E0.0000
G1 X123.8 Y108.8 E0.6322 F2880
G1 X106.2 Y108.8 E1.2644
G1 X106.2 Y91.2 E1.8966
G1 X123.8 Y91.2 E2.5288
G1 X124.28 Y90.72 F6000
G92 E0.0000
G1 X124.28 Y109.28 E0.6667 F2880
G1 X105.72 Y109.28 E1.3334
G1 X105.72 Y90.72 E2.0001
G1 X124.28 Y90.72 E2.6668
G1 X124.76 Y90.24000000000001 F6000
G92 E0.0000
G1 X124.76 Y109.76 E0.7012 F2160
G1 X105.24000000000001 Y109.76 E1.4024
G1 X105.24000000000001 Y90.24000000000001 E2.1035
G1 X124.76 Y90.24000000000001 E2.8047
G1 X123.452 Y104.276 F6000
G92 E0.0000
G1 X119.276 Y108.452 E0.2652 F3600
G1 X115.033 Y108.452 E0.4557
G1 X123.452 Y100.033 E0.9903
G1 X123.452 Y95.791 E1.1808
G1 X110.791 Y108.452 E1.9848
G1 X106.548 Y108.452 E2.1753
G1 X123.452 Y91.548 E3.2487
G1 X119.209 Y91.548 E3.4392
G1 X106.548 Y104.209 E4.2432
G1 X106.548 Y99.967 E4.4337
G1 X114.967 Y91.548 E4.9682
G1 X110.72399999999999 Y91.548 E5.1587
G1 X106.548 Y95.72399999999999 E5.4239
G92 E0.0000
G1 E-0.4 F2100 ; custom retraction
;layer 9, Z = 1.800
;fan9;
G1 Z1.800 F1200
G1 X106.2 Y91.2 F6000
G1 E0 F2100 ; custom un-retraction/prime
G92 E0.0000
G1 X123.8 Y91.2 E0.6322 F2880
G1 X123.8 Y108.8 E1.2644
G1 X106.2 Y108.8 E1.8966
G1 X106.2 Y91.2 E2.5288
G1 X105.72 Y90.72 F6000
G92 E0.0000
G1 X124.28 Y90.72 E0.6667 F2880
G1 X124.28 Y109.28 E1.3334
G1 X105.72 Y109.28 E2.0001
G1 X105.72 Y90.72 E2.6668
G1 X105.24000000000001 Y90.24000000000001 F6000
G92 E0.0000
G1 X124.76 Y90.24000000000001 E0.7012 F2160
G1 X124.76 Y109.76 E1.4024
G1 X105.24000000000001 Y109.76 E2.1035
G1 X105.24000000000001 Y90.24000000000001 E2.8047
G1 X119.276 Y91.548 F6000
G92 E0.0000
G1 X123.452 Y95.72399999999999 E0.2652 F3600
G1 X123.452 Y99.967 E0.4557
G1 X115.033 Y91.548 E0.9903
G1 X110.791 Y91.548 E1.1808
G1 X123.452 Y104.209 E1.9848
G1 X123.452 Y108.452 E2.1753
G1 X106.548 Y91.548 E3.2487
G1 X106.548 Y95.791 E3.4392
G1 X119.209 Y108.452 E4.2432
G1 X114.967 Y108.452 E4.4337
G1 X106.548 Y100.033 E4.9682
G1 X106.548 Y104.276 E5.1587
G1 X110.72399999999999 Y108.452 E5.4239
G92 E0.0000
G1 E-0.4 F2100 ; custom retraction
;layer 10, Z = 2.000
;fan10;
G1 Z2.000 F1200
G1 X106.2 Y108.8 F6000
G1 E0 F2100 ; custom un-retraction/prime
G92 E0.0000
G1 X106.2 Y91.2 E0.6322 F2880
G1 X123.8 Y91.2 E1.2644
G1 X123.8 Y108.8 E1.8966
G1 X106.2 Y108.8 E2.5288
G1 X105.72 Y109.28 F6000
G92 E0.0000
G1 X105.72 Y90.72 E0.6667 F2880
G1 X124.28 Y90.72 E1.3334
G1 X124.28 Y109.28 E2.0001
G1 X105.72 Y109.28 E2.6668
G1 X105.24000000000001 Y109.76 F6000
G92 E0.0000
G1 X105.24000000000001 Y90.24000000000001 E0.7012 F2160
G1 X124.76 Y90.24000000000001 E1.4024
G1 X124.76 Y109.76 E2.1035
G1 X105.24000000000001 Y109.76 E2.8047
G1 X106.548 Y95.72399999999999 F6000
G92 E0.0000
G1 X110.72399999999999 Y91.548 E0.2652 F3600
G1 X114.967 Y91.548 E0.4557
G1 X106.548 Y99.967 E0.9903
G1 X106.548 Y104.209 E1.1808
G1 X119.209 Y91.548 E1.9848
G1 X123.452 Y91.548 E2.1753
G1 X106.548 Y108.452 E3.2487
G1 X110.791 Y108.452 E3.4392
G1 X123.452 Y95.791 E4.2432
G1 X123.452 Y100.033 E4.4337
G1 X115.033 Y108.452 E4.9682
G1 X119.276 Y108.452 E5.1587
G1 X123.452 Y104.276 E5.4239
G92 E0.0000
G1 E-0.4 F2100 ; custom retraction
;layer 11, Z = 2.200
;fan11;
G1 Z2.200 F1200
G1 X123.8 Y108.8 F6000
G1 E0 F2100 ; custom un-retraction/prime
G92 E0.0000
G1 X106.2 Y108.8 E0.6322 F2880
G1 X106.2 Y91.2 E1.2644
G1 X123.8 Y91.2 E1.8966
G1 X123.8 Y108.8 E2.5288
G1 X124.28 Y109.28 F6000
G92 E0.0000
G1 X105.72 Y109.28 E0.6667 F2880
G1 X105.72 Y90.72 E1.3334
G1 X124.28 Y90.72 E2.0001
G1 X124.28 Y109.28 E2.6668
G1 X124.76 Y109.76 F6000
G92 E0.0000
G1 X105.24000000000001 Y109.76 E0.7012 F2160
G1 X105.24000000000001 Y90.24000000000001 E1.4024
G1 X124.76 Y90.24000000000001 E2.1035
G1 X124.76 Y109.76 E2.8047
G1 X110.72399999999999 Y108.452 F6000
G92 E0.0000
G1 X106.548 Y104.276 E0.2652 F3600
G1 X106.548 Y100.033 E0.4557
G1 X114.967 Y108.452 E0.9903
G1 X119.209 Y108.452 E1.1808
G1 X106.548 Y95.791 E1.9848
G1 X106.548 Y91.548 E2.1753
G1 X123.452 Y108.452 E3.2487
G1 X123.452 Y104.209 E3.4392
G1 X110.791 Y91.548 E4.2432
G1 X115.033 Y91.548 E4.4337
G1 X123.452 Y99.967 E4.9682
G1 X123.452 Y95.72399999999999 E5.1587
G1 X119.276 Y91.548 E5.4239
G92 E0.0000
G1 E-0.4 F2100 ; custom retraction
;layer 12, Z = 2.400
;fan12;
G1 Z2.400 F1200
G1 X123.8 Y91.2 F6000
G1 E0 F2100 ; custom un-retraction/prime
G92 E0.0000
G1 X123.8 Y108.8 E0.6322 F2880
G1 X106.2 Y108.8 E1.2644
G1 X106.2 Y91.2 E1.8966
G1 X123.8 Y91.2 E2.5288
G1 X124.28 Y90.72 F6000
G92 E0.0000
G1 X124.28 Y109.28 E0.6667 F2880
G1 X105.72 Y109.28 E1.3334
G1 X105.72 Y90.72 E2.0001
G1 X124.28 Y90.72 E2.6668
G1 X124.76 Y90.24000000000001 F6000
G92 E0.0000
G1 X124.76 Y109.76 E0.7012 F2160
G1 X105.24000000000001 Y109.76 E1.4024
G1 X105.24000000000001 Y90.24000000000001 E2.1035
G1 X124.76 Y90.24000000000001 E2.8047
G1 X123.452 Y104.276 F6000
G92 E0.0000
G1 X119.276 Y108.452 E0.2652 F3600
G1 X115.033 Y108.452 E0.4557
G1 X123.452 Y100.033 E0.9903
G1 X123.452 Y95.791 E1.1808
G1 X110.791 Y108.452 E1.9848
G1 X106.548 Y108.452 E2.1753
G1 X123.452 Y91.548 E3.2487
G1 X119.209 Y91.548 E3.4392
G1 X106.548 Y104.209 E4.2432
G1 X106.548 Y99.967 E4.4337
G1 X114.967 Y91.548 E4.9682
G1 X110.72399999999999 Y91.548 E5.1587
G1 X106.548 Y95.72399999999999 E5.4239
G92 E0.0000
G1 E-0.4 F2100 ; custom retraction
;layer 13, Z = 2.600
;fan13;
G1 Z2.600 F1200
G1 X106.2 Y91.2 F6000
G1 E0 F2100 ; custom un-retraction/prime
G92 E0.0000
G1 X123.8 Y91.2 E0.6322 F2880
G1 X123.8 Y108.8 E1.2644
G1 X106.2 Y108.8 E1.8966
G1 X106.2 Y91.2 E2.5288
G1 X105.72 Y90.72 F6000
G92 E0.0000
G1 X124.28 Y90.72 E0.6667 F2880
G1 X124.28 Y109.28 E1.3334
G1 X105.72 Y109.28 E2.0001
G1 X105.72 Y90.72 E2.6668
G1 X105.24000000000001 Y90.24000000000001 F6000
G92 E0.0000
G1 X124.76 Y90.24000000000001 E0.7012 F2160
G1 X124.76 Y109.76 E1.4024
G1 X105.24000000000001 Y109.76 E2.1035
G1 X105.24000000000001 Y90.24000000000001 E2.8047
G1 X119.276 Y91.548 F6000
G92 E0.0000
G1 X123.452 Y95.72399999999999 E0.2652 F3600
G1 X123.452 Y99.967 E0.4557
G1 X115.033 Y91.548 E0.9903
G1 X110.791 Y91.548 E1.1808
G1 X123.452 Y104.209 E1.9848
G1 X123.452 Y108.452 E2.1753
G1 X106.548 Y91.548 E3.2487
G1 X106.548 Y95.791 E3.4392
G1 X119.209 Y108.452 E4.2432
G1 X114.967 Y108.452 E4.4337
G1 X106.548 Y100.033 E4.9682
G1 X106.548 Y104.276 E5.1587
G1 X110.72399999999999 Y108.452 E5.4239
G92 E0.0000
G1 E-0.4 F2100 ; custom retraction
;layer 14, Z = 2.800
;fan14;
G1 Z2.800 F1200
G1 X106.2 Y108.8 F6000
G1 E0 F2100 ; custom un-retraction/prime
G92 E0.0000
G1 X106.2 Y91.2 E0.6322 F2880
G1 X123.8 Y91.2 E1.2644
G1 X123.8 Y108.8 E1.8966
G1 X106.2 Y108.8 E2.5288
G1 X105.72 Y109.28 F6000
G92 E0.0000
G1 X105.72 Y90.72 E0.6667 F2880
G1 X124.28 Y90.72 E1.3334
G1 X124.28 Y109.28 E2.0001
G1 X105.72 Y109.28 E2.6668
G1 X105.24000000000001 Y109.76 F6000
G92 E0.0000
G1 X105.24000000000001 Y90.24000000000001 E0.7012 F2160
G1 X124.76 Y90.24000000000001 E1.4024
G1 X124.76 Y109.76 E2.1035
G1 X105.24000000000001 Y109.76 E2.8047
G1 X106.548 Y95.72399999999999 F6000
G92 E0.0000
G1 X110.72399999999999 Y91.548 E0.2652 F3600
G1 X114.967 Y91.548 E0.4557
G1 X106.548 Y99.967 E0.9903
G1 X106.548 Y104.209 E1.1808
G1 X119.209 Y91.548 E1.9848
G1 X123.452 Y91.548 E2.1753
G1 X106.548 Y108.452 E3.2487
G1 X110.791 Y108.452 E3.4392
G1 X123.452 Y95.791 E4.2432
G1 X123.452 Y100.033 E4.4337
G1 X115.033 Y108.452 E4.9682
G1 X119.276 Y108.452 E5.1587
G1 X123.452 Y104.276 E5.4239
G92 E0.0000
G1 E-0.4 F2100 ; custom retraction
;layer 15, Z = 3.000
;fan15;
G1 Z3.000 F1200
G1 X123.8 Y108.8 F6000
G1 E0 F2100 ; custom un-retraction/prime
G92 E0.0000
G1 X106.2 Y108.8 E0.6322 F2880
G1 X106.2 Y91.2 E1.2644
G1 X123.8 Y91.2 E1.8966
G1 X123.8 Y108.8 E2.5288
G1 X124.28 Y109.28 F6000
G92 E0.0000
G1 X105.72 Y109.28 E0.6667 F2880
G1 X105.72 Y90.72 E1.3334
G1 X124.28 Y90.72 E2.0001
G1 X124.28 Y109.28 E2.6668
G1 X124.76 Y109.76 F6000
G92 E0.0000
G1 X105.24000000000001 Y109.76 E0.7012 F2160
G1 X105.24000000000001 Y90.24000000000001 E1.4024
G1 X124.76 Y90.24000000000001 E2.1035
G1 X124.76 Y109.76 E2.8047
G1 X123.46 Y99.63499999999999 F6000
G92 E0.0000
G1 X123.512 Y99.687 E0.0026 F2880
G1 X123.512 Y99.00800000000001 E0.0270
G1 X123.505 Y99.001 E0.0274
G1 X120.064 Y91.488 F6000
G92 E0.0000
G1 X120.312 Y91.735 E0.0126 F2880
G1 X120.311 Y92.414 E0.0369
G1 X119.386 Y91.488 E0.0840
G1 X118.707 Y91.488 E0.1083
G1 X120.118 Y92.899 E0.1800
G1 X119.439 Y92.899 E0.2044
G1 X118.02799999999999 Y91.488 E0.2761
G1 X117.34899999999999 Y91.488 E0.3005
G1 X118.761 Y92.899 E0.3722
G1 X118.082 Y92.899 E0.3966
G1 X116.67 Y91.488 E0.4683
G1 X116.515 Y91.488 E0.4739
G1 X116.515 Y92.011 E0.4927
G1 X117.40299999999999 Y92.899 E0.5378
G1 X116.72399999999999 Y92.899 E0.5622
G1 X116.51400000000001 Y92.689 E0.5728
G1 X112.59700000000001 Y91.488 F6000
G92 E0.0000
G1 X112.673 Y91.563 E0.0038 F2880
G1 X112.673 Y92.243 E0.0282
G1 X111.919 Y91.488 E0.0666
G1 X111.24000000000001 Y91.488 E0.0910
G1 X112.65100000000001 Y92.899 E0.1626
G1 X111.97200000000001 Y92.899 E0.1870
G1 X110.561 Y91.488 E0.2587
G1 X109.882 Y91.488 E0.2831
G1 X111.293 Y92.899 E0.3548
G1 X110.61500000000001 Y92.899 E0.3792
G1 X109.203 Y91.488 E0.4509
G1 X109.044 Y91.488 E0.4566
G1 X109.044 Y92.007 E0.4753
G1 X109.936 Y92.899 E0.5206
G1 X109.257 Y92.899 E0.5450
G1 X109.044 Y92.687 E0.5558
G1 X120.851 Y93.12299999999999 F6000
G92 E0.0000
G1 X123.452 Y95.72399999999999 E0.1652 F3600
G1 X123.452 Y98.36099999999999 E0.2836
G1 X123.01 Y98.345 E0.3034
G1 X122.932 Y99.447 E0.3530
G1 X116.925 Y93.439 E0.7344
G1 X115.97399999999999 Y93.439 E0.7771
G1 X115.97399999999999 Y92.489 E0.8198
G1 X115.033 Y91.548 E0.8796
G1 X113.213 Y91.548 E0.9613
G1 X113.214 Y93.439 E1.0462
G1 X112.682 Y93.439 E1.0701
G1 X123.452 Y104.209 E1.7540
G1 X123.452 Y108.452 E1.9445
G1 X106.548 Y91.548 E3.0179
G1 X106.548 Y95.791 E3.2084
G1 X119.209 Y108.452 E4.0124
G1 X114.967 Y108.452 E4.2029
G1 X106.548 Y100.033 E4.7375
G1 X106.548 Y104.276 E4.9280
G1 X110.72399999999999 Y108.452 E5.1932
G92 E0.0000
G1 E-0.4 F2100 ; custom retraction
;layer 16, Z = 3.200
;fan16;
G1 Z3.200 F1200
G1 X106.2 Y108.8 F6000
G1 E0 F2100 ; custom un-retraction/prime
G92 E0.0000
G1 X106.2 Y91.2 E0.6322 F2880
G1 X123.8 Y91.2 E1.2644
G1 X123.8 Y108.8 E1.8966
G1 X106.2 Y108.8 E2.5288
G1 X105.72 Y109.28 F6000
G92 E0.0000
G1 X105.72 Y90.72 E0.6667 F2880
G1 X124.28 Y90.72 E1.3334
G1 X124.28 Y109.28 E2.0001
G1 X105.72 Y109.28 E2.6668
G1 X105.24000000000001 Y109.76 F6000
G92 E0.0000
G1 X105.24000000000001 Y90.24000000000001 E0.7012 F2160
G1 X124.76 Y90.24000000000001 E1.4024
G1 X124.76 Y109.76 E2.1035
G1 X105.24000000000001 Y109.76 E2.8047
G1 X112.59700000000001 Y92.9 F6000
G92 E0.0000
G1 X112.792 Y92.705 E0.0099 F2880
G1 X112.792 Y92.02600000000001 E0.0343
G1 X111.918 Y92.9 E0.0786
G1 X111.239 Y92.9 E0.1030
G1 X112.65100000000001 Y91.488 E0.1747
G1 X111.97200000000001 Y91.488 E0.1991
G1 X110.561 Y92.9 E0.2708
G1 X109.882 Y92.9 E0.2952
G1 X111.293 Y91.488 E0.3669
G1 X110.614 Y91.488 E0.3913
G1 X109.203 Y92.9 E0.4630
G1 X109.155 Y92.9 E0.4647
G1 X109.044 Y92.899 E0.4687
G1 X109.044 Y92.38 E0.4874
G1 X109.936 Y91.488 E0.5327
G1 X109.257 Y91.488 E0.5571
G1 X109.044 Y91.701 E0.5679
G1 X116.393 Y91.819 F6000
G92 E0.0000
G1 X116.72399999999999 Y91.488 E0.0168 F2880
G1 X117.40299999999999 Y91.488 E0.0412
G1 X116.392 Y92.49799999999999 E0.0925
G1 X116.392 Y92.9 E0.1069
G1 X116.67 Y92.9 E0.1169
G1 X118.081 Y91.488 E0.1886
G1 X118.75999999999999 Y91.488 E0.2130
G1 X117.34899999999999 Y92.9 E0.2847
G1 X118.02799999999999 Y92.9 E0.3091
G1 X119.439 Y91.488 E0.3808
G1 X120.118 Y91.488 E0.4052
G1 X118.706 Y92.9 E0.4769
G1 X119.385 Y92.9 E0.5013
G1 X120.312 Y91.973 E0.5483
G1 X120.311 Y92.652 E0.5727
G1 X120.064 Y92.9 E0.5853
G1 X122.047 Y98.384 F6000
G92 E0.0000
G1 X122.612 Y97.819 E0.0287 F2880
G1 X123.29 Y97.819 E0.0531
G1 X122.047 Y99.063 E0.1162
G1 X122.046 Y99.74199999999999 E0.1406
G1 X123.512 Y98.27600000000001 E0.2151
G1 X123.512 Y98.955 E0.2395
G1 X122.046 Y100.42099999999999 E0.3139
G1 X122.046 Y101.1 E0.3383
G1 X123.512 Y99.634 E0.4128
G1 X123.512 Y100.313 E0.4372
G1 X122.309 Y101.515 E0.4983
G1 X122.988 Y101.51599999999999 E0.5227
G1 X123.512 Y100.99199999999999 E0.5493
G1 X123.452 Y104.276 F6000
G92 E0.0000
G1 X119.276 Y108.452 E0.2652 F3600
G1 X115.033 Y108.452 E0.4557
G1 X121.505 Y101.97999999999999 E0.8667
G1 X121.507 Y97.735 E1.0572
G1 X110.791 Y108.452 E1.7377
G1 X106.548 Y108.452 E1.9282
G1 X123.452 Y91.548 E3.0016
G1 X120.852 Y91.548 E3.1184
G1 X120.851 Y93.439 E3.2033
G1 X120.725 Y93.439 E3.2090
G1 X117.318 Y93.44 E3.3620
G1 X106.548 Y104.209 E4.0458
G1 X106.548 Y99.967 E4.2363
G1 X113.075 Y93.44 E4.6508
G1 X108.833 Y93.44 E4.8413
G1 X106.548 Y95.72399999999999 E4.9864
G92 E0.0000
G1 E-0.4 F2100 ; custom retraction
;layer 17, Z = 3.400
;fan17;
G1 Z3.400 F1200
G1 X106.2 Y91.2 F6000
G1 E0 F2100 ; custom un-retraction/prime
G92 E0.0000
G1 X123.8 Y91.2 E0.6322 F2880
G1 X123.8 Y108.8 E1.2644
G1 X106.2 Y108.8 E1.8966
G1 X106.2 Y91.2 E2.5288
G1 X105.72 Y90.72 F6000
G92 E0.0000
G1 X124.28 Y90.72 E0.6667 F2880
G1 X124.28 Y109.28 E1.3334
G1 X105.72 Y109.28 E2.0001
G1 X105.72 Y90.72 E2.6668
G1 X105.24000000000001 Y90.24000000000001 F6000
G92 E0.0000
G1 X124.76 Y90.24000000000001 E0.7012 F2160
G1 X124.76 Y109.76 E1.4024
G1 X105.24000000000001 Y109.76 E2.1035
G1 X105.24000000000001 Y90.24000000000001 E2.8047
G1 X109.044 Y92.687 F6000
G92 E0.0000
G1 X109.257 Y92.9 E0.0108 F2880
G1 X109.26599999999999 Y92.9 E0.0112
G1 X109.936 Y92.9 E0.0352
G1 X109.044 Y92.007 E0.0805
G1 X109.044 Y91.488 E0.0992
G1 X109.203 Y91.488 E0.1049
G1 X110.61500000000001 Y92.9 E0.1766
G1 X111.294 Y92.9 E0.2010
G1 X109.882 Y91.488 E0.2727
G1 X110.561 Y91.488 E0.2971
G1 X111.973 Y92.9 E0.3688
G1 X112.65100000000001 Y92.9 E0.3932
G1 X111.24000000000001 Y91.488 E0.4649
G1 X111.919 Y91.488 E0.4893
G1 X112.91 Y92.47999999999999 E0.5397
G1 X112.91 Y91.801 E0.5641
G1 X112.59700000000001 Y91.488 E0.5800
G1 X116.271 Y92.446 F6000
G92 E0.0000
G1 X116.72399999999999 Y92.9 E0.0231 F2880
G1 X117.40299999999999 Y92.9 E0.0474
G1 X116.271 Y91.767 E0.1050
G1 X116.271 Y91.488 E0.1150
G1 X116.67 Y91.488 E0.1293
G1 X118.082 Y92.9 E0.2010
G1 X118.761 Y92.9 E0.2254
G1 X117.34899999999999 Y91.488 E0.2971
G1 X118.02799999999999 Y91.488 E0.3215
G1 X119.44 Y92.9 E0.3932
G1 X120.058 Y92.9 E0.4155
G1 X120.118 Y92.9 E0.4176
G1 X118.707 Y91.488 E0.4893
G1 X119.386 Y91.488 E0.5137
G1 X120.311 Y92.414 E0.5607
G1 X120.312 Y91.735 E0.5851
G1 X120.064 Y91.488 E0.5977
G1 X122.999 Y97.81700000000001 F6000
G92 E0.0000
G1 X123.512 Y98.33 E0.0261 F2880
G1 X123.512 Y99.00800000000001 E0.0504
G1 X122.32 Y97.81700000000001 E0.1110
G1 X122.047 Y97.818 E0.1209
G1 X122.047 Y98.22200000000001 E0.1354
G1 X123.512 Y99.687 E0.2098
G1 X123.512 Y100.366 E0.2342
G1 X122.047 Y98.90100000000001 E0.3086
G1 X122.046 Y99.57900000000001 E0.3330
G1 X123.512 Y101.045 E0.4074
G1 X123.512 Y101.51599999999999 E0.4243
G1 X123.304 Y101.51599999999999 E0.4318
G1 X122.046 Y100.25800000000001 E0.4957
G1 X122.046 Y100.936 E0.5201
G1 X122.625 Y101.51599999999999 E0.5495
G1 X120.851 Y93.12299999999999 F6000
G92 E0.0000
G1 X123.452 Y95.72399999999999 E0.1652 F3600
G1 X123.452 Y97.277 E0.2349
G1 X121.508 Y97.27799999999999 E0.3223
G1 X121.507 Y98.02199999999999 E0.3557
G1 X116.925 Y93.44 E0.6467
G1 X115.72999999999999 Y93.44 E0.7003
G1 X115.731 Y92.245 E0.7539
G1 X115.033 Y91.548 E0.7982
G1 X113.45 Y91.548 E0.8693
G1 X113.451 Y93.44 E0.9542
G1 X112.682 Y93.44 E0.9888
G1 X123.452 Y104.209 E1.6726
G1 X123.452 Y108.452 E1.8631
G1 X106.548 Y91.548 E2.9365
G1 X106.548 Y95.791 E3.1270
G1 X119.209 Y108.452 E3.9310
G1 X114.967 Y108.452 E4.1215
G1 X106.548 Y100.033 E4.6561
G1 X106.548 Y104.276 E4.8466
G1 X110.72399999999999 Y108.452 E5.1118
G92 E0.0000
G1 E-0.4 F2100 ; custom retraction
;layer 18, Z = 3.600
;fan18;
G1 Z3.600 F1200
G1 X106.2 Y108.8 F6000
G1 E0 F2100 ; custom un-retraction/prime
G92 E0.0000
G1 X106.2 Y91.2 E0.6322 F2880
G1 X123.8 Y91.2 E1.2644
G1 X123.8 Y108.8 E1.8966
G1 X106.2 Y108.8 E2.5288
G1 X105.72 Y109.28 F6000
G92 E0.0000
G1 X105.72 Y90.72 E0.6667 F2880
G1 X124.28 Y90.72 E1.3334
G1 X124.28 Y109.28 E2.0001
G1 X105.72 Y109.28 E2.6668
G1 X105.24000000000001 Y109.76 F6000
G92 E0.0000
G1 X105.24000000000001 Y90.24000000000001 E0.7012 F2160
G1 X124.76 Y90.24000000000001 E1.4024
G1 X124.76 Y109.76 E2.1035
G1 X105.24000000000001 Y109.76 E2.8047
G1 X112.59700000000001 Y92.9 F6000
G92 E0.0000
G1 X113.029 Y92.468 E0.0220 F2880
G1 X113.02799999999999 Y91.789 E0.0463
G1 X111.918 Y92.9 E0.1027
G1 X111.239 Y92.9 E0.1271
G1 X112.65100000000001 Y91.488 E0.1989
G1 X111.97200000000001 Y91.488 E0.2232
G1 X110.56 Y92.9 E0.2950
G1 X109.881 Y92.9 E0.3193
G1 X111.293 Y91.488 E0.3911
G1 X110.614 Y91.488 E0.4154
G1 X109.203 Y92.9 E0.4872
G1 X109.155 Y92.9 E0.4889
G1 X109.044 Y92.899 E0.4929
G1 X109.044 Y92.38 E0.5115
G1 X109.936 Y91.488 E0.5568
G1 X109.257 Y91.488 E0.5812
G1 X109.044 Y91.701 E0.5920
G1 X116.149 Y92.063 F6000
G92 E0.0000
G1 X116.72399999999999 Y91.488 E0.0292 F2880
G1 X117.40299999999999 Y91.488 E0.0536
G1 X116.149 Y92.74199999999999 E0.1173
G1 X116.149 Y92.9 E0.1230
G1 X116.67 Y92.9 E0.1417
G1 X118.081 Y91.488 E0.2134
G1 X118.75999999999999 Y91.488 E0.2378
G1 X117.348 Y92.9 E0.3095
G1 X118.027 Y92.9 E0.3339
G1 X119.439 Y91.488 E0.4056
G1 X120.118 Y91.488 E0.4300
G1 X118.706 Y92.9 E0.5017
G1 X119.385 Y92.9 E0.5261
G1 X120.312 Y91.973 E0.5732
G1 X120.311 Y92.652 E0.5976
G1 X120.064 Y92.9 E0.6101
G1 X122.047 Y98.384 F6000
G92 E0.0000
G1 X122.616 Y97.814 E0.0289 F2880
G1 X123.295 Y97.815 E0.0533
G1 X122.047 Y99.063 E0.1167
G1 X122.046 Y99.74199999999999 E0.1411
G1 X123.512 Y98.27600000000001 E0.2155
G1 X123.512 Y98.955 E0.2399
G1 X122.046 Y100.42099999999999 E0.3144
G1 X122.046 Y101.1 E0.3388
G1 X123.512 Y99.634 E0.4133
G1 X123.512 Y100.313 E0.4376
G1 X122.309 Y101.515 E0.4987
G1 X122.988 Y101.51599999999999 E0.5231
G1 X123.512 Y100.99199999999999 E0.5497
G1 X123.452 Y104.276 F6000
G92 E0.0000
G1 X119.276 Y108.452 E0.2652 F3600
G1 X115.033 Y108.452 E0.4557
G1 X121.505 Y101.97999999999999 E0.8667
G1 X121.507 Y97.735 E1.0572
G1 X110.791 Y108.452 E1.7377
G1 X106.548 Y108.452 E1.9282
G1 X123.452 Y91.548 E3.0016
G1 X120.852 Y91.548 E3.1184
G1 X120.851 Y93.439 E3.2033
G1 X120.725 Y93.439 E3.2090
G1 X120.598 Y93.44 E3.2147
G1 X120.472 Y93.44 E3.2204
G1 X117.318 Y93.44 E3.3620
G1 X106.548 Y104.209 E4.0459
G1 X106.548 Y99.967 E4.2364
G1 X113.075 Y93.44 E4.6508
G1 X108.837 Y93.44 E4.8411
G1 X108.832 Y93.44 E4.8413
G1 X106.548 Y95.72399999999999 E4.9864
G92 E0.0000
G1 E-0.4 F2100 ; custom retraction
;layer 19, Z = 3.800
;fan19;
G1 Z3.800 F1200
G1 X108.852 Y93.09100000000001 F6000
G1 E0 F2100 ; custom un-retraction/prime
G92 E0.0000
G1 X112.866 Y93.09100000000001 E0.1442 F2880
G1 X112.86500000000001 Y91.2 E0.2121
G1 X116.32300000000001 Y91.2 E0.3363
G1 X116.322 Y93.09100000000001 E0.4043
G1 X120.503 Y93.09100000000001 E0.5544
G1 X120.504 Y91.2 E0.6224
G1 X123.8 Y91.2 E0.7408
G1 X123.8 Y97.62899999999999 E0.9717
G1 X123.41 Y97.62899999999999 E0.9857
G1 X123.251 Y99.86 E1.0661
G1 X123.8 Y99.938 E1.0860
G1 X123.8 Y108.8 E1.4043
G1 X106.2 Y108.8 E2.0365
G1 X106.2 Y91.2 E2.6687
G1 X108.852 Y91.2 E2.7640
G1 X108.852 Y93.09100000000001 E2.8319
G1 X109.332 Y92.61099999999999 F6000
G92 E0.0000
G1 X112.38499999999999 Y92.61099999999999 E0.1097 F2880
G1 X112.384 Y90.72 E0.1776
G1 X116.803 Y90.72 E0.3363
G1 X116.80199999999999 Y92.61099999999999 E0.4043
G1 X120.023 Y92.61099999999999 E0.5200
G1 X120.024 Y90.72 E0.5879
G1 X124.28 Y90.72 E0.7408
G1 X124.28 Y98.11 E1.0062
G1 X123.857 Y98.10900000000001 E1.0214
G1 X123.762 Y99.44800000000001 E1.0696
G1 X124.28 Y99.52199999999999 E1.0884
G1 X124.28 Y109.28 E1.4389
G1 X105.72 Y109.28 E2.1056
G1 X105.72 Y90.72 E2.7723
G1 X109.331 Y90.72 E2.9020
G1 X109.332 Y92.61099999999999 E2.9700
G1 X109.812 Y92.131 F6000
G92 E0.0000
G1 X111.905 Y92.131 E0.0752 F2160
G1 X111.904 Y90.24000000000001 E0.1431
G1 X117.283 Y90.24000000000001 E0.3364
G1 X117.282 Y92.131 E0.4043
G1 X119.544 Y92.131 E0.4855
G1 X119.545 Y90.24000000000001 E0.5535
G1 X124.76 Y90.24000000000001 E0.7408
G1 X124.76 Y98.59 E1.0407
G1 X124.304 Y98.59 E1.0571
G1 X124.273 Y99.036 E1.0732
G1 X124.76 Y99.10499999999999 E1.0909
G1 X124.76 Y109.76 E1.4736
G1 X105.24000000000001 Y109.76 E2.1748
G1 X105.24000000000001 Y90.24000000000001 E2.8759
G1 X109.811 Y90.24000000000001 E3.0401
G1 X109.812 Y92.131 E3.1081
G1 X111.905 Y92.131 F6000
G1 X111.905 Y91.92699999999999
G1 X116.027 Y91.524
G92 E0.0000
G1 X116.035 Y91.531 E0.0004 F2880
G1 X116.03399999999999 Y92.21000000000001 E0.0247
G1 X116.027 Y92.202 E0.0251
G1 X116.027 Y92.881 E0.0495
G1 X116.03399999999999 Y92.888 E0.0499
G1 X122.995 Y97.812 F6000
G92 E0.0000
G1 X123.101 Y97.919 E0.0054 F2880
G1 X123.056 Y98.55199999999999 E0.0282
G1 X122.316 Y97.812 E0.0658
G1 X122.048 Y97.814 E0.0755
G1 X122.047 Y97.818 E0.0757
G1 X122.047 Y98.22200000000001 E0.0902
G1 X123.011 Y99.186 E0.1391
G1 X122.966 Y99.82 E0.1620
G1 X122.047 Y98.90100000000001 E0.2086
G1 X122.046 Y99.57900000000001 E0.2330
G1 X123.512 Y101.045 E0.3075
G1 X123.512 Y101.51599999999999 E0.3244
G1 X123.304 Y101.51599999999999 E0.3318
G1 X122.046 Y100.25800000000001 E0.3957
G1 X122.046 Y100.936 E0.4201
G1 X122.625 Y101.51599999999999 E0.4495
G1 X123.512 Y100.366 F6000
G92 E0.0000
G1 X123.304 Y100.158 E0.0106 F2880
G1 X120.851 Y93.12299999999999 F6000
G92 E0.0000
G1 X123.452 Y95.72399999999999 E0.1652 F3600
G1 X123.452 Y97.273 E0.2347
G1 X121.508 Y97.274 E0.3221
G1 X121.508 Y97.27799999999999 E0.3223
G1 X121.507 Y98.02199999999999 E0.3557
G1 X116.925 Y93.439 E0.6467
G1 X116.574 Y93.44 E0.6625
G1 X115.48599999999999 Y93.44 E0.7113
G1 X115.487 Y92.00200000000001 E0.7759
G1 X115.033 Y91.548 E0.8047
G1 X113.213 Y91.548 E0.8864
G1 X113.214 Y93.439 E0.9713
G1 X112.682 Y93.439 E0.9952
G1 X123.452 Y104.209 E1.6791
G1 X123.452 Y108.452 E1.8696
G1 X106.548 Y91.548 E2.9430
G1 X106.548 Y95.791 E3.1335
G1 X119.209 Y108.452 E3.9375
G1 X114.967 Y108.452 E4.1280
G1 X106.548 Y100.033 E4.6626
G1 X106.548 Y104.276 E4.8531
G1 X110.72399999999999 Y108.452 E5.1183
G92 E0.0000
G1 E-0.4 F2100 ; custom retraction
;layer 20, Z = 4.000
;fan20;
G1 Z4.000 F1200
G1 X106.2 Y108.8 F6000
G1 E0 F2100 ; custom un-retraction/prime
G92 E0.0000
G1 X106.2 Y91.2 E0.6322 F2880
G1 X108.963 Y91.2 E0.7314
G1 X108.963 Y93.092 E0.7994
G1 X112.98400000000001 Y93.092 E0.9438
G1 X112.983 Y91.2 E1.0118
G1 X116.201 Y91.2 E1.1274
G1 X116.2 Y93.092 E1.1953
G1 X120.377 Y93.092 E1.3453
G1 X120.378 Y91.2 E1.4133
G1 X123.8 Y91.2 E1.5362
G1 X123.8 Y97.62700000000001 E1.7671
G1 X121.855 Y97.626 E1.8369
G1 X121.854 Y101.707 E1.9835
G1 X123.8 Y101.708 E2.0534
G1 X123.8 Y108.8 E2.3082
G1 X106.2 Y108.8 E2.9404
G1 X105.72 Y109.28 F6000
G92 E0.0000
G1 X105.72 Y90.72 E0.6667 F2880
G1 X109.44200000000001 Y90.72 E0.8004
G1 X109.443 Y92.612 E0.8683
G1 X112.50399999999999 Y92.612 E0.9783
G1 X112.503 Y90.72 E1.0462
G1 X116.681 Y90.72 E1.1963
G1 X116.68 Y92.612 E1.2643
G1 X119.897 Y92.612 E1.3798
G1 X119.898 Y90.72 E1.4478
G1 X124.28 Y90.72 E1.6052
G1 X124.28 Y98.108 E1.8705
G1 X122.335 Y98.107 E1.9404
G1 X122.334 Y101.227 E2.0525
G1 X124.28 Y101.22800000000001 E2.1224
G1 X124.28 Y109.28 E2.4116
G1 X105.72 Y109.28 E3.0783
G1 X105.24000000000001 Y109.76 F6000
G92 E0.0000
G1 X105.24000000000001 Y90.24000000000001 E0.7012 F2160
G1 X109.922 Y90.24000000000001 E0.8694
G1 X109.923 Y92.132 E0.9373
G1 X112.024 Y92.132 E1.0128
G1 X112.023 Y90.24000000000001 E1.0807
G1 X117.162 Y90.24000000000001 E1.2653
G1 X117.161 Y92.132 E1.3332
G1 X119.417 Y92.132 E1.4143
G1 X119.418 Y90.24000000000001 E1.4822
G1 X124.76 Y90.24000000000001 E1.6741
G1 X124.76 Y98.588 E1.9740
G1 X122.815 Y98.587 E2.0439
G1 X122.814 Y100.74799999999999 E2.1215
G1 X124.76 Y100.749 E2.1914
G1 X124.76 Y109.76 E2.5151
G1 X105.24000000000001 Y109.76 E3.2163
G1 X115.905 Y92.307 F6000
G92 E0.0000
G1 X115.913 Y92.299 E0.0004 F2880
G1 X115.913 Y91.62 E0.0248
G1 X115.906 Y91.62700000000001 E0.0251
G1 X106.548 Y95.72399999999999 F6000
G92 E0.0000
G1 X108.833 Y93.44 E0.1451 F3600
G1 X113.075 Y93.44 E0.3356
G1 X106.548 Y99.967 E0.7500
G1 X106.548 Y104.209 E0.9405
G1 X117.318 Y93.44 E1.6244
G1 X120.724 Y93.44 E1.7774
G1 X120.725 Y91.548 E1.8623
G1 X123.452 Y91.548 E1.9848
G1 X106.548 Y108.452 E3.0582
G1 X110.791 Y108.452 E3.2487
G1 X121.507 Y97.735 E3.9292
G1 X121.505 Y101.97999999999999 E4.1197
G1 X115.033 Y108.452 E4.5307
G1 X119.276 Y108.452 E4.7212
G1 X123.452 Y104.276 E4.9864
G92 E0.0000
G1 E-0.4 F2100 ; custom retraction
;layer 21, Z = 4.200
;fan21;
G1 Z4.200 F1200
G1 X123.8 Y101.706 F6000
G1 E0 F2100 ; custom un-retraction/prime
G92 E0.0000
G1 X123.8 Y108.8 E0.2548 F2880
G1 X106.2 Y108.8 E0.8870
G1 X106.2 Y91.2 E1.5192
G1 X109.074 Y91.2 E1.6225
G1 X109.074 Y93.092 E1.6904
G1 X113.10300000000001 Y93.092 E1.8351
G1 X113.102 Y91.2 E1.9031
G1 X116.07900000000001 Y91.2 E2.0100
G1 X116.078 Y93.092 E2.0780
G1 X120.25 Y93.092 E2.2278
G1 X120.251 Y91.2 E2.2958
G1 X123.8 Y91.2 E2.4233
G1 X123.8 Y97.625 E2.6541
G1 X121.856 Y97.624 E2.7239
G1 X121.854 Y101.705 E2.8705
G1 X123.8 Y101.706 E2.9404
G1 X124.28 Y101.226 F6000
G92 E0.0000
G1 X124.28 Y109.28 E0.2893 F2880
G1 X105.72 Y109.28 E0.9560
G1 X105.72 Y90.72 E1.6227
G1 X109.553 Y90.72 E1.7604
G1 X109.554 Y92.612 E1.8283
G1 X112.622 Y92.612 E1.9385
G1 X112.62100000000001 Y90.72 E2.0065
G1 X116.56 Y90.72 E2.1480
G1 X116.559 Y92.612 E2.2159
G1 X119.77 Y92.612 E2.3313
G1 X119.771 Y90.72 E2.3992
G1 X124.28 Y90.72 E2.5612
G1 X124.28 Y98.10499999999999 E2.8265
G1 X122.335 Y98.10499999999999 E2.8963
G1 X122.334 Y101.225 E3.0084
G1 X124.28 Y101.226 E3.0783
G1 X124.76 Y100.74600000000001 F6000
G92 E0.0000
G1 X124.76 Y109.76 E0.3238 F2160
G1 X105.24000000000001 Y109.76 E1.0250
G1 X105.24000000000001 Y90.24000000000001 E1.7261
G1 X110.033 Y90.24000000000001 E1.8983
G1 X110.03399999999999 Y92.132 E1.9663
G1 X112.142 Y92.132 E2.0420
G1 X112.14099999999999 Y90.24000000000001 E2.1099
G1 X117.03999999999999 Y90.24000000000001 E2.2859
G1 X117.039 Y92.132 E2.3538
G1 X119.291 Y92.132 E2.4347
G1 X119.292 Y90.24000000000001 E2.5027
G1 X124.76 Y90.24000000000001 E2.6991
G1 X124.76 Y98.586 E2.9989
G1 X122.815 Y98.58500000000001 E3.0688
G1 X122.814 Y100.74600000000001 E3.1464
G1 X124.76 Y100.74600000000001 E3.2163
G92 E0.0000
G1 E-0.4 F2100 ; custom retraction
;zhop1
G1 X122.814 Y100.74600000000001 F6000
G1 X122.815 Y98.989
G1 X115.783 Y92.637
G1 Z4.200 F1200
G1 E0 F2100 ; custom un-retraction/prime
G92 E0.0000
G1 X115.791 Y92.64500000000001 E0.0004 F2880
G1 X115.791 Y91.96600000000001 E0.0247
G1 X115.78399999999999 Y91.959 E0.0251
G1 X120.598 Y92.87 F6000
G92 E0.0000
G1 X123.452 Y95.72399999999999 E0.1812 F3600
G1 X123.452 Y97.277 E0.2509
G1 X121.508 Y97.27600000000001 E0.3382
G1 X121.507 Y98.02199999999999 E0.3717
G1 X116.925 Y93.44 E0.6627
G1 X116.33 Y93.44 E0.6895
G1 X115.243 Y93.44 E0.7383
G1 X115.244 Y91.75800000000001 E0.8138
G1 X115.033 Y91.548 E0.8272
G1 X113.45 Y91.548 E0.8983
G1 X113.451 Y93.44 E0.9832
G1 X112.682 Y93.44 E1.0177
G1 X123.452 Y104.209 E1.7016
G1 X123.452 Y108.452 E1.8921
G1 X106.548 Y91.548 E2.9655
G1 X106.548 Y95.791 E3.1560
G1 X119.209 Y108.452 E3.9600
G1 X114.967 Y108.452 E4.1505
G1 X106.548 Y100.033 E4.6851
G1 X106.548 Y104.276 E4.8756
G1 X110.72399999999999 Y108.452 E5.1407
G92 E0.0000
G1 E-0.4 F2100 ; custom retraction
;layer 22, Z = 4.400
;fan22;
G1 Z4.400 F1200
G1 X106.2 Y108.8 F6000
G1 E0 F2100 ; custom un-retraction/prime
G92 E0.0000
G1 X106.2 Y91.2 E0.6322 F2880
G1 X109.185 Y91.2 E0.7394
G1 X109.185 Y93.092 E0.8074
G1 X113.221 Y93.092 E0.9523
G1 X113.22 Y91.2 E1.0203
G1 X115.957 Y91.2 E1.1186
G1 X115.956 Y93.092 E1.1866
G1 X120.124 Y93.092 E1.3363
G1 X120.125 Y91.2 E1.4042
G1 X123.8 Y91.2 E1.5362
G1 X123.8 Y97.62299999999999 E1.7670
G1 X121.856 Y97.622 E1.8368
G1 X121.854 Y101.703 E1.9834
G1 X123.8 Y101.70400000000001 E2.0533
G1 X123.8 Y108.8 E2.3082
G1 X106.2 Y108.8 E2.9404
G1 X105.72 Y109.28 F6000
G92 E0.0000
G1 X105.72 Y90.72 E0.6667 F2880
G1 X109.664 Y90.72 E0.8084
G1 X109.66499999999999 Y92.612 E0.8763
G1 X112.741 Y92.612 E0.9868
G1 X112.74000000000001 Y90.72 E1.0548
G1 X116.438 Y90.72 E1.1876
G1 X116.437 Y92.612 E1.2556
G1 X119.644 Y92.612 E1.3708
G1 X119.645 Y90.72 E1.4387
G1 X124.28 Y90.72 E1.6052
G1 X124.28 Y98.10300000000001 E1.8704
G1 X122.336 Y98.102 E1.9403
G1 X122.334 Y101.223 E2.0524
G1 X124.28 Y101.22399999999999 E2.1223
G1 X124.28 Y109.28 E2.4116
G1 X105.72 Y109.28 E3.0783
G1 X105.24000000000001 Y109.76 F6000
G92 E0.0000
G1 X105.24000000000001 Y90.24000000000001 E0.7012 F2160
G1 X110.144 Y90.24000000000001 E0.8773
G1 X110.14500000000001 Y92.132 E0.9453
G1 X112.261 Y92.132 E1.0213
G1 X112.25999999999999 Y90.24000000000001 E1.0892
G1 X116.918 Y90.24000000000001 E1.2566
G1 X116.917 Y92.132 E1.3245
G1 X119.164 Y92.132 E1.4053
G1 X119.165 Y90.24000000000001 E1.4732
G1 X124.76 Y90.24000000000001 E1.6742
G1 X124.76 Y98.583 E1.9739
G1 X122.816 Y98.583 E2.0437
G1 X122.815 Y100.743 E2.1214
G1 X124.76 Y100.744 E2.1912
G1 X124.76 Y109.76 E2.5151
G1 X105.24000000000001 Y109.76 E3.2163
G1 X115.661 Y92.55 F6000
G92 E0.0000
G1 X115.669 Y92.543 E0.0004 F2880
G1 X115.669 Y91.864 E0.0248
G1 X115.662 Y91.87100000000001 E0.0251
G1 X106.548 Y95.72399999999999 F6000
G92 E0.0000
G1 X108.838 Y93.435 E0.1454 F3600
G1 X108.838 Y93.44 E0.1456
G1 X113.075 Y93.44 E0.3359
G1 X106.548 Y99.967 E0.7503
G1 X106.548 Y104.209 E0.9408
G1 X117.318 Y93.44 E1.6247
G1 X120.471 Y93.44 E1.7663
G1 X120.472 Y91.548 E1.8513
G1 X123.452 Y91.548 E1.9851
G1 X106.548 Y108.452 E3.0585
G1 X110.791 Y108.452 E3.2490
G1 X121.508 Y97.735 E3.9295
G1 X121.506 Y101.979 E4.1201
G1 X115.033 Y108.452 E4.5311
G1 X119.276 Y108.452 E4.7216
G1 X123.452 Y104.276 E4.9868
G92 E0.0000
G1 E-0.4 F2100 ; custom retraction
;layer 23, Z = 4.600
;fan23;
G1 Z4.600 F1200
G1 X123.8 Y101.702 F6000
G1 E0 F2100 ; custom un-retraction/prime
G92 E0.0000
G1 X123.8 Y108.8 E0.2550 F2880
G1 X106.2 Y108.8 E0.8872
G1 X106.2 Y91.2 E1.5194
G1 X109.29599999999999 Y91.2 E1.6306
G1 X109.29599999999999 Y93.092 E1.6986
G1 X113.34 Y93.092 E1.8438
G1 X113.339 Y91.2 E1.9118
G1 X115.836 Y91.2 E2.0014
G1 X115.83500000000001 Y93.092 E2.0694
G1 X119.997 Y93.092 E2.2189
G1 X119.998 Y91.2 E2.2869
G1 X123.8 Y91.2 E2.4235
G1 X123.8 Y97.62100000000001 E2.6541
G1 X121.856 Y97.62 E2.7239
G1 X121.854 Y101.701 E2.8705
G1 X123.8 Y101.702 E2.9404
G1 X124.28 Y101.22200000000001 F6000
G92 E0.0000
G1 X124.28 Y109.28 E0.2895 F2880
G1 X105.72 Y109.28 E0.9562
G1 X105.72 Y90.72 E1.6228
G1 X109.775 Y90.72 E1.7685
G1 X109.77600000000001 Y92.612 E1.8365
G1 X112.85900000000001 Y92.612 E1.9472
G1 X112.858 Y90.72 E2.0152
G1 X116.316 Y90.72 E2.1394
G1 X116.315 Y92.612 E2.2073
G1 X119.517 Y92.612 E2.3224
G1 X119.518 Y90.72 E2.3904
G1 X124.28 Y90.72 E2.5614
G1 X124.28 Y98.101 E2.8265
G1 X122.336 Y98.1 E2.8964
G1 X122.335 Y101.221 E3.0085
G1 X124.28 Y101.22200000000001 E3.0783
G1 X124.76 Y100.74199999999999 F6000
G92 E0.0000
G1 X124.76 Y109.76 E0.3239 F2160
G1 X105.24000000000001 Y109.76 E1.0251
G1 X105.24000000000001 Y90.24000000000001 E1.7263
G1 X110.255 Y90.24000000000001 E1.9064
G1 X110.256 Y92.132 E1.9744
G1 X112.37899999999999 Y92.132 E2.0507
G1 X112.378 Y90.24000000000001 E2.1186
G1 X116.79599999999999 Y90.24000000000001 E2.2773
G1 X116.795 Y92.132 E2.3453
G1 X119.038 Y92.132 E2.4258
G1 X119.039 Y90.24000000000001 E2.4938
G1 X124.76 Y90.24000000000001 E2.6993
G1 X124.76 Y98.581 E2.9989
G1 X122.816 Y98.58 E3.0688
G1 X122.815 Y100.741 E3.1464
G1 X124.76 Y100.74199999999999 E3.2163
G92 E0.0000
G1 E-0.4 F2100 ; custom retraction
;zhop1
G1 X122.815 Y100.741 F6000
G1 X122.816 Y98.982
G1 X115.53999999999999 Y92.394
G1 Z4.600 F1200
G1 E0 F2100 ; custom un-retraction/prime
G92 E0.0000
G1 X115.547 Y92.40100000000001 E0.0004 F2880
G1 X115.547 Y91.723 E0.0247
G1 X115.53999999999999 Y91.715 E0.0251
G1 X116.795 Y91.951 F6000
G1 X116.795 Y92.132
G1 X117.75999999999999 Y92.132
G1 X120.345 Y92.618
G92 E0.0000
G1 X123.452 Y95.72399999999999 E0.1973 F3600
G1 X123.452 Y97.273 E0.2668
G1 X121.508 Y97.27199999999999 E0.3541
G1 X121.508 Y98.023 E0.3878
G1 X116.925 Y93.44 E0.6788
G1 X116.087 Y93.441 E0.7165
G1 X114.999 Y93.441 E0.7653
G1 X115 Y91.548 E0.8503
G1 X113.687 Y91.548 E0.9093
G1 X113.688 Y93.44 E0.9942
G1 X112.68299999999999 Y93.44 E1.0393
G1 X123.452 Y104.209 E1.7232
G1 X123.452 Y108.452 E1.9137
G1 X106.548 Y91.548 E2.9871
G1 X106.548 Y95.791 E3.1776
G1 X119.209 Y108.452 E3.9816
G1 X114.967 Y108.452 E4.1721
G1 X106.548 Y100.033 E4.7067
G1 X106.548 Y104.276 E4.8972
G1 X110.72399999999999 Y108.452 E5.1624
G92 E0.0000
G1 E-0.4 F2100 ; custom retraction
;layer 24, Z = 4.800
;fan24;
G1 Z4.800 F1200
G1 X106.2 Y108.8 F6000
G1 E0 F2100 ; custom un-retraction/prime
G92 E0.0000
G1 X106.2 Y91.2 E0.6322 F2880
G1 X109.407 Y91.2 E0.7474
G1 X109.407 Y93.092 E0.8154
G1 X113.458 Y93.092 E0.9609
G1 X113.457 Y91.2 E1.0288
G1 X115.714 Y91.2 E1.1099
G1 X115.713 Y93.092 E1.1779
G1 X119.871 Y93.092 E1.3272
G1 X119.872 Y91.2 E1.3952
G1 X123.8 Y91.2 E1.5363
G1 X123.8 Y97.619 E1.7669
G1 X121.857 Y97.618 E1.8367
G1 X121.855 Y101.699 E1.9833
G1 X123.8 Y101.699 E2.0531
G1 X123.8 Y108.8 E2.3082
G1 X106.2 Y108.8 E2.9404
G1 X105.72 Y109.28 F6000
G92 E0.0000
G1 X105.72 Y90.72 E0.6667 F2880
G1 X109.886 Y90.72 E0.8164
G1 X109.887 Y92.612 E0.8843
G1 X112.97800000000001 Y92.612 E0.9953
G1 X112.977 Y90.72 E1.0633
G1 X116.194 Y90.72 E1.1789
G1 X116.193 Y92.612 E1.2468
G1 X119.391 Y92.612 E1.3617
G1 X119.392 Y90.72 E1.4297
G1 X124.28 Y90.72 E1.6053
G1 X124.28 Y98.09899999999999 E1.8703
G1 X122.336 Y98.098 E1.9401
G1 X122.335 Y101.219 E2.0522
G1 X124.28 Y101.22 E2.1221
G1 X124.28 Y109.28 E2.4116
G1 X105.72 Y109.28 E3.0783
G1 X105.24000000000001 Y109.76 F6000
G92 E0.0000
G1 X105.24000000000001 Y90.24000000000001 E0.7012 F2160
G1 X110.366 Y90.24000000000001 E0.8853
G1 X110.36699999999999 Y92.132 E0.9533
G1 X112.49799999999999 Y92.132 E1.0298
G1 X112.497 Y90.24000000000001 E1.0978
G1 X116.674 Y90.24000000000001 E1.2478
G1 X116.673 Y92.132 E1.3158
G1 X118.911 Y92.132 E1.3962
G1 X118.912 Y90.24000000000001 E1.4642
G1 X124.76 Y90.24000000000001 E1.6742
G1 X124.76 Y98.57900000000001 E1.9738
G1 X122.816 Y98.578 E2.0436
G1 X122.815 Y100.739 E2.1212
G1 X124.76 Y100.74000000000001 E2.1911
G1 X124.76 Y109.76 E2.5151
G1 X105.24000000000001 Y109.76 E3.2163
G1 X115.418 Y92.794 F6000
G92 E0.0000
G1 X115.425 Y92.787 E0.0004 F2880
G1 X115.425 Y92.108 E0.0248
G1 X115.418 Y92.11500000000001 E0.0251
G1 X106.548 Y95.72399999999999 F6000
G92 E0.0000
G1 X109.06 Y93.213 E0.1595 F3600
G1 X109.06 Y93.44 E0.1697
G1 X113.075 Y93.44 E0.3500
G1 X106.548 Y99.967 E0.7644
G1 X106.548 Y104.209 E0.9549
G1 X117.31700000000001 Y93.44 E1.6388
G1 X120.219 Y93.44 E1.7690
G1 X120.22 Y91.548 E1.8540
G1 X123.452 Y91.548 E1.9991
G1 X106.548 Y108.452 E3.0725
G1 X110.791 Y108.452 E3.2630
G1 X121.509 Y97.73400000000001 E3.9436
G1 X121.507 Y101.979 E4.1342
G1 X115.033 Y108.452 E4.5453
G1 X119.276 Y108.452 E4.7358
G1 X123.452 Y104.276 E5.0009
G92 E0.0000
G1 E-0.4 F2100 ; custom retraction
;layer 25, Z = 5.000
;fan25;
G1 Z5.000 F1200
G1 X123.8 Y101.697 F6000
G1 E0 F2100 ; custom un-retraction/prime
G92 E0.0000
G1 X123.8 Y108.8 E0.2551 F2880
G1 X106.2 Y108.8 E0.8873
G1 X106.2 Y91.2 E1.5196
G1 X109.518 Y91.2 E1.6387
G1 X109.519 Y93.092 E1.7067
G1 X113.577 Y93.092 E1.8525
G1 X113.576 Y91.2 E1.9204
G1 X115.592 Y91.2 E1.9929
G1 X115.59100000000001 Y93.092 E2.0608
G1 X119.744 Y93.092 E2.2100
G1 X119.745 Y91.2 E2.2780
G1 X123.8 Y91.2 E2.4237
G1 X123.8 Y97.616 E2.6542
G1 X121.857 Y97.616 E2.7239
G1 X121.855 Y101.696 E2.8705
G1 X123.8 Y101.697 E2.9404
G1 X124.28 Y101.217 F6000
G92 E0.0000
G1 X124.28 Y109.28 E0.2896 F2880
G1 X105.72 Y109.28 E0.9563
G1 X105.72 Y90.72 E1.6230
G1 X109.997 Y90.72 E1.7766
G1 X109.99799999999999 Y92.612 E1.8446
G1 X113.096 Y92.612 E1.9559
G1 X113.095 Y90.72 E2.0239
G1 X116.072 Y90.72 E2.1308
G1 X116.071 Y92.612 E2.1988
G1 X119.265 Y92.612 E2.3135
G1 X119.266 Y90.72 E2.3815
G1 X124.28 Y90.72 E2.5616
G1 X124.28 Y98.09700000000001 E2.8266
G1 X122.337 Y98.096 E2.8964
G1 X122.335 Y101.217 E3.0085
G1 X124.28 Y101.217 E3.0783
G1 X124.76 Y100.738 F6000
G92 E0.0000
G1 X124.76 Y109.76 E0.3241 F2160
G1 X105.24000000000001 Y109.76 E1.0253
G1 X105.24000000000001 Y90.24000000000001 E1.7264
G1 X110.477 Y90.24000000000001 E1.9146
G1 X110.47800000000001 Y92.132 E1.9825
G1 X112.616 Y92.132 E2.0593
G1 X112.61500000000001 Y90.24000000000001 E2.1273
G1 X116.55199999999999 Y90.24000000000001 E2.2687
G1 X116.551 Y92.132 E2.3367
G1 X118.785 Y92.132 E2.4169
G1 X118.786 Y90.24000000000001 E2.4849
G1 X124.76 Y90.24000000000001 E2.6995
G1 X124.76 Y98.577 E2.9990
G1 X122.816 Y98.576 E3.0688
G1 X122.816 Y100.737 E3.1464
G1 X124.76 Y100.738 E3.2163
G92 E0.0000
G1 E-0.4 F2100 ; custom retraction
;zhop1
G1 X122.816 Y100.737 F6000
G1 X122.816 Y99.113
G1 X115.29599999999999 Y92.82900000000001
G1 Z5.000 F1200
G1 E0 F2100 ; custom un-retraction/prime
G92 E0.0000
G1 X115.303 Y92.836 E0.0004 F2880
G1 X115.303 Y92.158 E0.0247
G1 X115.29599999999999 Y92.15 E0.0251
G1 X120.093 Y92.36500000000001 F6000
G92 E0.0000
G1 X123.452 Y95.72399999999999 E0.2133 F3600
G1 X123.452 Y97.268 E0.2827
G1 X121.509 Y97.268 E0.3699
G1 X121.509 Y98.023 E0.4038
G1 X116.926 Y93.44 E0.6949
G1 X115.843 Y93.441 E0.7435
G1 X114.755 Y93.441 E0.7923
G1 X114.756 Y91.548 E0.8773
G1 X113.924 Y91.548 E0.9147
G1 X113.925 Y93.44 E0.9997
G1 X112.68299999999999 Y93.44 E1.0554
G1 X123.452 Y104.209 E1.7393
G1 X123.452 Y108.452 E1.9298
G1 X106.548 Y91.548 E3.0032
G1 X106.548 Y95.791 E3.1937
G1 X119.209 Y108.452 E3.9977
G1 X114.967 Y108.452 E4.1882
G1 X106.548 Y100.033 E4.7228
G1 X106.548 Y104.276 E4.9133
G1 X110.72399999999999 Y108.452 E5.1784
G92 E0.0000
G1 E-0.4 F2100 ; custom retraction
;layer 26, Z = 5.200
;fan26;
G1 Z5.200 F1200
G1 X106.2 Y108.8 F6000
G1 E0 F2100 ; custom un-retraction/prime
G92 E0.0000
G1 X106.2 Y91.2 E0.6322 F2880
G1 X109.62899999999999 Y91.2 E0.7554
G1 X109.63 Y93.093 E0.8234
G1 X113.695 Y93.093 E0.9694
G1 X113.694 Y91.2 E1.0374
G1 X115.47 Y91.2 E1.1012
G1 X115.469 Y93.093 E1.1691
G1 X119.618 Y93.093 E1.3182
G1 X119.619 Y91.2 E1.3862
G1 X123.8 Y91.2 E1.5363
G1 X123.8 Y97.614 E1.7668
G1 X121.857 Y97.613 E1.8365
G1 X121.855 Y101.694 E1.9831
G1 X123.8 Y101.695 E2.0530
G1 X123.8 Y108.8 E2.3082
G1 X106.2 Y108.8 E2.9404
G1 X105.72 Y109.28 F6000
G92 E0.0000
G1 X105.72 Y90.72 E0.6667 F2880
G1 X110.108 Y90.72 E0.8243
G1 X110.10900000000001 Y92.613 E0.8923
G1 X113.215 Y92.613 E1.0039
G1 X113.214 Y90.72 E1.0718
G1 X115.95 Y90.72 E1.1701
G1 X115.949 Y92.613 E1.2381
G1 X119.138 Y92.613 E1.3527
G1 X119.139 Y90.72 E1.4206
G1 X124.28 Y90.72 E1.6053
G1 X124.28 Y98.095 E1.8702
G1 X122.337 Y98.094 E1.9400
G1 X122.336 Y101.214 E2.0521
G1 X124.28 Y101.215 E2.1220
G1 X124.28 Y109.28 E2.4116
G1 X105.72 Y109.28 E3.0783
G1 X105.24000000000001 Y109.76 F6000
G92 E0.0000
G1 X105.24000000000001 Y90.24000000000001 E0.7012 F2160
G1 X110.588 Y90.24000000000001 E0.8933
G1 X110.589 Y92.13300000000001 E0.9613
G1 X112.735 Y92.13300000000001 E1.0383
G1 X112.73400000000001 Y90.24000000000001 E1.1063
G1 X116.431 Y90.24000000000001 E1.2391
G1 X116.43 Y92.13300000000001 E1.3071
G1 X118.658 Y92.13300000000001 E1.3872
G1 X118.65899999999999 Y90.24000000000001 E1.4551
G1 X124.76 Y90.24000000000001 E1.6743
G1 X124.76 Y98.575 E1.9737
G1 X122.817 Y98.574 E2.0435
G1 X122.816 Y100.735 E2.1211
G1 X124.76 Y100.73599999999999 E2.1909
G1 X124.76 Y109.76 E2.5151
G1 X105.24000000000001 Y109.76 E3.2163
G1 X115.174 Y92.35900000000001 F6000
G92 E0.0000
G1 X115.182 Y92.351 E0.0004 F2880
G1 X115.182 Y91.672 E0.0248
G1 X115.175 Y91.68 E0.0251
G1 X106.548 Y95.72399999999999 F6000
G92 E0.0000
G1 X109.282 Y92.991 E0.1736 F3600
G1 X109.282 Y93.441 E0.1938
G1 X113.074 Y93.441 E0.3641
G1 X106.548 Y99.967 E0.7785
G1 X106.548 Y104.209 E0.9690
G1 X117.31700000000001 Y93.441 E1.6528
G1 X119.966 Y93.441 E1.7717
G1 X119.967 Y91.548 E1.8567
G1 X123.452 Y91.548 E2.0132
G1 X106.548 Y108.452 E3.0866
G1 X110.791 Y108.452 E3.2771
G1 X121.509 Y97.73400000000001 E3.9577
G1 X121.507 Y101.97800000000001 E4.1483
G1 X115.033 Y108.452 E4.5594
G1 X119.276 Y108.452 E4.7499
G1 X123.452 Y104.276 E5.0151
G92 E0.0000
G1 E-0.4 F2100 ; custom retraction
;layer 27, Z = 5.400
;fan27;
G1 Z5.400 F1200
G1 X123.8 Y101.693 F6000
G1 E0 F2100 ; custom un-retraction/prime
G92 E0.0000
G1 X123.8 Y108.8 E0.2553 F2880
G1 X106.2 Y108.8 E0.8875
G1 X106.2 Y91.2 E1.5197
G1 X109.74000000000001 Y91.2 E1.6469
G1 X109.741 Y93.093 E1.7148
G1 X113.814 Y93.093 E1.8612
G1 X113.813 Y91.2 E1.9291
G1 X115.348 Y91.2 E1.9843
G1 X115.34700000000001 Y93.093 E2.0523
G1 X119.491 Y93.093 E2.2011
G1 X119.492 Y91.2 E2.2691
G1 X123.8 Y91.2 E2.4239
G1 X123.8 Y97.612 E2.6542
G1 X121.858 Y97.61099999999999 E2.7240
G1 X121.856 Y101.69200000000001 E2.8706
G1 X123.8 Y101.693 E2.9404
G1 X124.28 Y101.213 F6000
G92 E0.0000
G1 X124.28 Y109.28 E0.2898 F2880
G1 X105.72 Y109.28 E0.9565
G1 X105.72 Y90.72 E1.6232
G1 X110.219 Y90.72 E1.7848
G1 X110.22 Y92.613 E1.8528
G1 X113.333 Y92.613 E1.9646
G1 X113.332 Y90.72 E2.0326
G1 X115.82900000000001 Y90.72 E2.1222
G1 X115.828 Y92.613 E2.1902
G1 X119.012 Y92.613 E2.3046
G1 X119.013 Y90.72 E2.3726
G1 X124.28 Y90.72 E2.5618
G1 X124.28 Y98.092 E2.8266
G1 X122.337 Y98.092 E2.8964
G1 X122.336 Y101.212 E3.0085
G1 X124.28 Y101.213 E3.0783
G1 X124.76 Y100.733 F6000
G92 E0.0000
G1 X124.76 Y109.76 E0.3242 F2160
G1 X105.24000000000001 Y109.76 E1.0254
G1 X105.24000000000001 Y90.24000000000001 E1.7266
G1 X110.699 Y90.24000000000001 E1.9227
G1 X110.7 Y92.13300000000001 E1.9907
G1 X112.85300000000001 Y92.13300000000001 E2.0680
G1 X112.852 Y90.24000000000001 E2.1360
G1 X116.309 Y90.24000000000001 E2.2602
G1 X116.30799999999999 Y92.13300000000001 E2.3282
G1 X118.532 Y92.13300000000001 E2.4081
G1 X118.533 Y90.24000000000001 E2.4760
G1 X124.76 Y90.24000000000001 E2.6997
G1 X124.76 Y98.57300000000001 E2.9990
G1 X122.817 Y98.572 E3.0688
G1 X122.816 Y100.733 E3.1464
G1 X124.76 Y100.733 E3.2163
G92 E0.0000
G1 E-0.4 F2100 ; custom retraction
;zhop1
G1 X122.816 Y100.733 F6000
G1 X122.817 Y99.102
G1 X115.05199999999999 Y92.58500000000001
G1 Z5.400 F1200
G1 E0 F2100 ; custom un-retraction/prime
G92 E0.0000
G1 X115.06 Y92.592 E0.0004 F2880
G1 X115.06 Y91.914 E0.0247
G1 X115.053 Y91.907 E0.0251
G1 X116.30799999999999 Y91.961 F6000
G1 X116.30799999999999 Y92.13300000000001
G1 X118.532 Y92.13300000000001
G1 X118.532 Y92.056
G1 X119.84 Y92.112
G92 E0.0000
G1 X123.452 Y95.72399999999999 E0.2294 F3600
G1 X123.452 Y97.26400000000001 E0.2985
G1 X121.51 Y97.263 E0.3857
G1 X121.509 Y98.024 E0.4199
G1 X116.926 Y93.441 E0.7109
G1 X115.59899999999999 Y93.441 E0.7705
G1 X114.512 Y93.441 E0.8194
G1 X114.513 Y91.548 E0.9044
G1 X114.161 Y91.548 E0.9202
G1 X114.162 Y93.441 E1.0052
G1 X112.68299999999999 Y93.441 E1.0715
G1 X123.452 Y104.209 E1.7554
G1 X123.452 Y108.452 E1.9459
G1 X106.548 Y91.548 E3.0193
G1 X106.548 Y95.791 E3.2098
G1 X119.209 Y108.452 E4.0137
G1 X114.967 Y108.452 E4.2042
G1 X106.548 Y100.033 E4.7388
G1 X106.548 Y104.276 E4.9293
G1 X110.72399999999999 Y108.452 E5.1945
G92 E0.0000
G1 E-0.4 F2100 ; custom retraction
;layer 28, Z = 5.600
;fan28;
G1 Z5.600 F1200
G1 X106.2 Y108.8 F6000
G1 E0 F2100 ; custom un-retraction/prime
G92 E0.0000
G1 X106.2 Y91.2 E0.6322 F2880
G1 X109.851 Y91.2 E0.7633
G1 X109.852 Y93.093 E0.8313
G1 X113.932 Y93.093 E0.9779
G1 X113.931 Y91.2 E1.0459
G1 X115.226 Y91.2 E1.0924
G1 X115.225 Y93.093 E1.1604
G1 X119.365 Y93.093 E1.3091
G1 X119.366 Y91.2 E1.3771
G1 X123.8 Y91.2 E1.5364
G1 X123.8 Y97.61 E1.7666
G1 X121.858 Y97.60900000000001 E1.8364
G1 X121.856 Y101.69 E1.9830
G1 X123.8 Y101.691 E2.0528
G1 X123.8 Y108.8 E2.3082
G1 X106.2 Y108.8 E2.9404
G1 X105.72 Y109.28 F6000
G92 E0.0000
G1 X105.72 Y90.72 E0.6667 F2880
G1 X110.33 Y90.72 E0.8323
G1 X110.331 Y92.613 E0.9003
G1 X113.452 Y92.613 E1.0124
G1 X113.451 Y90.72 E1.0804
G1 X115.707 Y90.72 E1.1614
G1 X115.706 Y92.613 E1.2294
G1 X118.88499999999999 Y92.613 E1.3436
G1 X118.886 Y90.72 E1.4116
G1 X124.28 Y90.72 E1.6054
G1 X124.28 Y98.09 E1.8701
G1 X122.338 Y98.089 E1.9399
G1 X122.336 Y101.21000000000001 E2.0520
G1 X124.28 Y101.211 E2.1218
G1 X124.28 Y109.28 E2.4116
G1 X105.72 Y109.28 E3.0783
G1 X105.24000000000001 Y109.76 F6000
G92 E0.0000
G1 X105.24000000000001 Y90.24000000000001 E0.7012 F2160
G1 X110.81 Y90.24000000000001 E0.9013
G1 X110.811 Y92.13300000000001 E0.9693
G1 X112.97200000000001 Y92.13300000000001 E1.0469
G1 X112.971 Y90.24000000000001 E1.1149
G1 X116.187 Y90.24000000000001 E1.2304
G1 X116.186 Y92.13300000000001 E1.2984
G1 X118.405 Y92.13300000000001 E1.3781
G1 X118.406 Y90.24000000000001 E1.4461
G1 X124.76 Y90.24000000000001 E1.6743
G1 X124.76 Y98.57 E1.9736
G1 X122.817 Y98.57 E2.0433
G1 X122.816 Y100.72999999999999 E2.1210
G1 X124.76 Y100.731 E2.1908
G1 X124.76 Y109.76 E2.5151
G1 X105.24000000000001 Y109.76 E3.2163
G1 X114.93 Y92.60300000000001 F6000
G92 E0.0000
G1 X114.938 Y92.595 E0.0004 F2880
G1 X114.938 Y91.916 E0.0248
G1 X114.931 Y91.923 E0.0251
G1 X106.548 Y95.72399999999999 F6000
G92 E0.0000
G1 X109.503 Y92.769 E0.1877 F3600
G1 X109.50399999999999 Y93.441 E0.2179
G1 X113.074 Y93.441 E0.3782
G1 X106.548 Y99.967 E0.7925
G1 X106.548 Y104.209 E0.9830
G1 X117.31700000000001 Y93.441 E1.6668
G1 X119.713 Y93.441 E1.7744
G1 X119.714 Y91.548 E1.8594
G1 X123.452 Y91.548 E2.0273
G1 X106.548 Y108.452 E3.1007
G1 X110.791 Y108.452 E3.2912
G1 X121.51 Y97.733 E3.9718
G1 X121.508 Y101.977 E4.1624
G1 X115.033 Y108.452 E4.5736
G1 X119.276 Y108.452 E4.7641
G1 X123.452 Y104.276 E5.0292
G92 E0.0000
G1 E-0.4 F2100 ; custom retraction
;layer 29, Z = 5.800
;fan29;
G1 Z5.800 F1200
G1 X123.8 Y101.689 F6000
G1 E0 F2100 ; custom un-retraction/prime
G92 E0.0000
G1 X123.8 Y108.8 E0.2554 F2880
G1 X106.2 Y108.8 E0.8877
G1 X106.2 Y91.2 E1.5199
G1 X109.962 Y91.2 E1.6550
G1 X109.963 Y93.093 E1.7230
G1 X114.051 Y93.093 E1.8698
G1 X114.05 Y91.2 E1.9378
G1 X115.10499999999999 Y91.2 E1.9757
G1 X115.104 Y93.093 E2.0437
G1 X119.238 Y93.093 E2.1923
G1 X119.239 Y91.2 E2.2603
G1 X123.8 Y91.2 E2.4241
G1 X123.8 Y97.608 E2.6542
G1 X121.858 Y97.607 E2.7240
G1 X121.856 Y101.688 E2.8706
G1 X123.8 Y101.689 E2.9404
G1 X124.28 Y101.209 F6000
G92 E0.0000
G1 X124.28 Y109.28 E0.2899 F2880
G1 X105.72 Y109.28 E0.9566
G1 X105.72 Y90.72 E1.6233
G1 X110.44200000000001 Y90.72 E1.7929
G1 X110.44200000000001 Y92.613 E1.8609
G1 X113.57 Y92.613 E1.9733
G1 X113.569 Y90.72 E2.0413
G1 X115.58500000000001 Y90.72 E2.1137
G1 X115.584 Y92.613 E2.1817
G1 X118.759 Y92.613 E2.2957
G1 X118.75999999999999 Y90.72 E2.3637
G1 X124.28 Y90.72 E2.5620
G1 X124.28 Y98.088 E2.8267
G1 X122.338 Y98.087 E2.8964
G1 X122.337 Y101.208 E3.0085
G1 X124.28 Y101.209 E3.0783
G1 X124.76 Y100.729 F6000
G92 E0.0000
G1 X124.76 Y109.76 E0.3244 F2160
G1 X105.24000000000001 Y109.76 E1.0256
G1 X105.24000000000001 Y90.24000000000001 E1.7268
G1 X110.92099999999999 Y90.24000000000001 E1.9308
G1 X110.922 Y92.13300000000001 E1.9988
G1 X113.09 Y92.13300000000001 E2.0767
G1 X113.089 Y90.24000000000001 E2.1447
G1 X116.065 Y90.24000000000001 E2.2516
G1 X116.064 Y92.13300000000001 E2.3196
G1 X118.279 Y92.13300000000001 E2.3992
G1 X118.28 Y90.24000000000001 E2.4672
G1 X124.76 Y90.24000000000001 E2.6999
G1 X124.76 Y98.568 E2.9991
G1 X122.818 Y98.56700000000001 E3.0689
G1 X122.817 Y100.72800000000001 E3.1465
G1 X124.76 Y100.729 E3.2163
G92 E0.0000
G1 E-0.4 F2100 ; custom retraction
;zhop1
G1 X122.817 Y100.72800000000001 F6000
G1 X122.817 Y99.219
G1 X114.69 Y92.902
G1 Z5.800 F1200
G1 E0 F2100 ; custom un-retraction/prime
G92 E0.0000
G1 X114.338 Y92.55 E0.0179 F2880
G1 X114.338 Y91.87100000000001 E0.0423
G1 X114.816 Y92.34899999999999 E0.0665
G1 X114.816 Y91.67 E0.0909
G1 X114.634 Y91.488 E0.1002
G1 X116.064 Y91.595 F6000
G1 X116.064 Y92.13300000000001
G1 X118.279 Y92.13300000000001
G1 X118.279 Y91.761
G1 X119.587 Y91.85900000000001
G92 E0.0000
G1 X123.452 Y95.72399999999999 E0.2454 F3600
G1 X123.452 Y97.25999999999999 E0.3144
G1 X121.51 Y97.259 E0.4016
G1 X121.51 Y98.025 E0.4359
G1 X116.926 Y93.441 E0.7270
G1 X115.356 Y93.44200000000001 E0.7976
G1 X113.799 Y93.441 E0.8675
G1 X112.684 Y93.441 E0.9176
G1 X123.452 Y104.209 E1.6013
G1 X123.452 Y108.452 E1.7918
G1 X106.548 Y91.548 E2.8652
G1 X106.548 Y95.791 E3.0557
G1 X119.209 Y108.452 E3.8597
G1 X114.967 Y108.452 E4.0502
G1 X106.548 Y100.033 E4.5848
G1 X106.548 Y104.276 E4.7753
G1 X110.72399999999999 Y108.452 E5.0405
G92 E0.0000
G1 E-0.4 F2100 ; custom retraction
;layer 30, Z = 6.000
;fan30;
G1 Z6.000 F1200
G1 X106.2 Y108.8 F6000
G1 E0 F2100 ; custom un-retraction/prime
G92 E0.0000
G1 X106.2 Y91.2 E0.6322 F2880
G1 X110.07300000000001 Y91.2 E0.7713
G1 X110.074 Y93.093 E0.8393
G1 X114.169 Y93.093 E0.9864
G1 X114.168 Y91.2 E1.0544
G1 X114.983 Y91.2 E1.0837
G1 X114.982 Y93.093 E1.1517
G1 X119.112 Y93.093 E1.3001
G1 X119.113 Y91.2 E1.3681
G1 X123.8 Y91.2 E1.5364
G1 X123.8 Y97.606 E1.7665
G1 X121.858 Y97.60499999999999 E1.8363
G1 X121.857 Y101.686 E1.9829
G1 X123.8 Y101.686 E2.0527
G1 X123.8 Y108.8 E2.3082
G1 X106.2 Y108.8 E2.9404
G1 X105.72 Y109.28 F6000
G92 E0.0000
G1 X105.72 Y90.72 E0.6667 F2880
G1 X110.553 Y90.72 E0.8403
G1 X110.553 Y92.613 E0.9083
G1 X113.689 Y92.613 E1.0209
G1 X113.688 Y90.72 E1.0889
G1 X115.463 Y90.72 E1.1527
G1 X115.462 Y92.613 E1.2207
G1 X118.632 Y92.613 E1.3346
G1 X118.63300000000001 Y90.72 E1.4026
G1 X124.28 Y90.72 E1.6054
G1 X124.28 Y98.086 E1.8700
G1 X122.338 Y98.08500000000001 E1.9397
G1 X122.337 Y101.206 E2.0518
G1 X124.28 Y101.207 E2.1216
G1 X124.28 Y109.28 E2.4117
G1 X105.72 Y109.28 E3.0783
G1 X105.24000000000001 Y109.76 F6000
G92 E0.0000
G1 X105.24000000000001 Y90.24000000000001 E0.7012 F2160
G1 X111.032 Y90.24000000000001 E0.9092
G1 X111.033 Y92.13300000000001 E0.9772
G1 X113.209 Y92.13300000000001 E1.0554
G1 X113.208 Y90.24000000000001 E1.1234
G1 X115.943 Y90.24000000000001 E1.2217
G1 X115.94200000000001 Y92.13300000000001 E1.2897
G1 X118.15299999999999 Y92.13300000000001 E1.3691
G1 X118.154 Y90.24000000000001 E1.4371
G1 X124.76 Y90.24000000000001 E1.6744
G1 X124.76 Y98.566 E1.9735
G1 X122.818 Y98.565 E2.0432
G1 X122.817 Y100.726 E2.1208
G1 X124.76 Y100.727 E2.1906
G1 X124.76 Y109.76 E2.5151
G1 X105.24000000000001 Y109.76 E3.2163
G1 X114.694 Y92.839 F6000
G92 E0.0000
G1 X114.631 Y92.902 E0.0032 F2880
G1 X114.457 Y92.902 E0.0094
G1 X114.457 Y92.39699999999999 E0.0276
G1 X114.694 Y92.16 E0.0396
G1 X114.695 Y91.488 E0.0638
G1 X114.687 Y91.488 E0.0640
G1 X114.456 Y91.719 E0.0758
G1 X106.548 Y95.72399999999999 F6000
G92 E0.0000
G1 X109.725 Y92.547 E0.2018 F3600
G1 X109.726 Y93.441 E0.2419
G1 X113.074 Y93.441 E0.3922
G1 X106.548 Y99.967 E0.8066
G1 X106.548 Y104.209 E0.9971
G1 X117.316 Y93.441 E1.6809
G1 X119.46 Y93.441 E1.7771
G1 X119.461 Y91.548 E1.8622
G1 X123.452 Y91.548 E2.0414
G1 X106.548 Y108.452 E3.1148
G1 X110.791 Y108.452 E3.3053
G1 X121.51 Y97.732 E3.9860
G1 X121.508 Y101.977 E4.1765
G1 X115.033 Y108.452 E4.5877
G1 X119.276 Y108.452 E4.7782
G1 X123.452 Y104.276 E5.0434
G92 E0.0000
G1 E-0.4 F2100 ; custom retraction
;layer 31, Z = 6.200
;fan31;
G1 Z6.200 F1200
G1 X123.8 Y101.684 F6000
G1 E0 F2100 ; custom un-retraction/prime
G92 E0.0000
G1 X123.8 Y108.8 E0.2556 F2880
G1 X106.2 Y108.8 E0.8878
G1 X106.2 Y91.2 E1.5200
G1 X110.184 Y91.2 E1.6631
G1 X110.185 Y93.093 E1.7311
G1 X114.288 Y93.093 E1.8785
G1 X114.287 Y91.2 E1.9465
G1 X114.86099999999999 Y91.2 E1.9672
G1 X114.86 Y93.093 E2.0352
G1 X118.98599999999999 Y93.093 E2.1834
G1 X118.987 Y91.2 E2.2514
G1 X123.8 Y91.2 E2.4243
G1 X123.8 Y97.60300000000001 E2.6543
G1 X121.859 Y97.60300000000001 E2.7240
G1 X121.857 Y101.68299999999999 E2.8706
G1 X123.8 Y101.684 E2.9404
G1 X124.28 Y101.20400000000001 F6000
G92 E0.0000
G1 X124.28 Y109.28 E0.2901 F2880
G1 X105.72 Y109.28 E0.9568
G1 X105.72 Y90.72 E1.6235
G1 X110.664 Y90.72 E1.8010
G1 X110.664 Y92.613 E1.8691
G1 X113.807 Y92.613 E1.9819
G1 X113.806 Y90.72 E2.0500
G1 X115.34100000000001 Y90.72 E2.1051
G1 X115.34 Y92.613 E2.1731
G1 X118.506 Y92.613 E2.2868
G1 X118.507 Y90.72 E2.3548
G1 X124.28 Y90.72 E2.5622
G1 X124.28 Y98.084 E2.8267
G1 X122.339 Y98.083 E2.8965
G1 X122.337 Y101.20400000000001 E3.0086
G1 X124.28 Y101.20400000000001 E3.0783
G1 X124.76 Y100.725 F6000
G92 E0.0000
G1 X124.76 Y109.76 E0.3246 F2160
G1 X105.24000000000001 Y109.76 E1.0257
G1 X105.24000000000001 Y90.24000000000001 E1.7269
G1 X111.143 Y90.24000000000001 E1.9390
G1 X111.144 Y92.13300000000001 E2.0070
G1 X113.327 Y92.13300000000001 E2.0854
G1 X113.326 Y90.24000000000001 E2.1534
G1 X115.821 Y90.24000000000001 E2.2430
G1 X115.82 Y92.13300000000001 E2.3110
G1 X118.02600000000001 Y92.13300000000001 E2.3903
G1 X118.027 Y90.24000000000001 E2.4583
G1 X124.76 Y90.24000000000001 E2.7001
G1 X124.76 Y98.564 E2.9991
G1 X122.818 Y98.563 E3.0689
G1 X122.817 Y100.72399999999999 E3.1465
G1 X124.76 Y100.725 E3.2163
G92 E0.0000
G1 E-0.4 F2100 ; custom retraction
;zhop1
G1 X122.817 Y100.72399999999999 F6000
G1 X122.818 Y98.563
G1 X123.474 Y98.563
G1 X119.334 Y91.606
G1 Z6.200 F1200
G1 E0 F2100 ; custom un-retraction/prime
G92 E0.0000
G1 X123.452 Y95.72399999999999 E0.2615 F3600
G1 X123.452 Y97.255 E0.3302
G1 X121.511 Y97.255 E0.4174
G1 X121.511 Y98.025 E0.4520
G1 X116.92699999999999 Y93.441 E0.7431
G1 X112.684 Y93.441 E0.9336
G1 X123.452 Y104.209 E1.6173
G1 X123.452 Y108.452 E1.8078
G1 X106.548 Y91.548 E2.8812
G1 X106.548 Y95.791 E3.0717
G1 X119.209 Y108.452 E3.8757
G1 X114.967 Y108.452 E4.0662
G1 X106.548 Y100.033 E4.6008
G1 X106.548 Y104.276 E4.7913
G1 X110.72399999999999 Y108.452 E5.0565
G92 E0.0000
G1 E-0.4 F2100 ; custom retraction
;layer 32, Z = 6.400
;fan32;
G1 Z6.400 F1200
G1 X106.2 Y108.8 F6000
G1 E0 F2100 ; custom un-retraction/prime
G92 E0.0000
G1 X106.2 Y91.2 E0.6322 F2880
G1 X110.295 Y91.2 E0.7793
G1 X110.29599999999999 Y93.094 E0.8473
G1 X118.85900000000001 Y93.094 E1.1549
G1 X118.86 Y91.2 E1.2229
G1 X123.8 Y91.2 E1.4004
G1 X123.8 Y97.601 E1.6303
G1 X121.859 Y97.6 E1.7000
G1 X121.857 Y101.681 E1.8466
G1 X123.8 Y101.682 E1.9164
G1 X123.8 Y108.8 E2.1721
G1 X106.2 Y108.8 E2.8043
G1 X105.72 Y109.28 F6000
G92 E0.0000
G1 X105.72 Y90.72 E0.6667 F2880
G1 X110.775 Y90.72 E0.8483
G1 X110.775 Y92.614 E0.9163
G1 X113.926 Y92.614 E1.0294
G1 X113.925 Y90.72 E1.0975
G1 X115.219 Y90.72 E1.1440
G1 X115.218 Y92.614 E1.2120
G1 X118.37899999999999 Y92.614 E1.3255
G1 X118.38 Y90.72 E1.3935
G1 X124.28 Y90.72 E1.6055
G1 X124.28 Y98.082 E1.8699
G1 X122.339 Y98.081 E1.9396
G1 X122.337 Y101.201 E2.0517
G1 X124.28 Y101.202 E2.1215
G1 X124.28 Y109.28 E2.4117
G1 X105.72 Y109.28 E3.0783
G1 X105.24000000000001 Y109.76 F6000
G92 E0.0000
G1 X105.24000000000001 Y90.24000000000001 E0.7012 F2160
G1 X111.25399999999999 Y90.24000000000001 E0.9172
G1 X111.255 Y92.134 E0.9852
G1 X113.446 Y92.134 E1.0639
G1 X113.445 Y90.24000000000001 E1.1319
G1 X115.7 Y90.24000000000001 E1.2129
G1 X115.699 Y92.134 E1.2809
G1 X117.9 Y92.134 E1.3600
G1 X117.90100000000001 Y90.24000000000001 E1.4280
G1 X124.76 Y90.24000000000001 E1.6744
G1 X124.76 Y98.562 E1.9733
G1 X122.819 Y98.561 E2.0431
G1 X122.818 Y100.72200000000001 E2.1207
G1 X124.76 Y100.723 E2.1905
G1 X124.76 Y109.76 E2.5151
G1 X105.24000000000001 Y109.76 E3.2163
G1 X114.732 Y92.801 F6000
G92 E0.0000
G1 X114.93 Y92.60300000000001 E0.0101 F3600
G1 X114.931 Y91.923 E0.0345
G1 X114.214 Y92.64 E0.0709
G1 X114.213 Y91.962 E0.0953
G1 X114.931 Y91.244 E0.1317
G1 X114.931 Y91.00800000000001 E0.1402
G1 X114.489 Y91.00800000000001 E0.1561
G1 X114.213 Y91.283 E0.1701
G1 X113.445 Y91.72800000000001 F6000
G1 X113.446 Y92.134
G1 X112.74600000000001 Y92.134
G1 X106.548 Y95.72399999999999
G92 E0.0000
G1 X109.947 Y92.325 E0.2159 F3600
G1 X109.94800000000001 Y93.44200000000001 E0.2660
G1 X113.07300000000001 Y93.44200000000001 E0.4063
G1 X106.548 Y99.967 E0.8207
G1 X106.548 Y104.209 E1.0112
G1 X117.316 Y93.44200000000001 E1.6949
G1 X119.207 Y93.44200000000001 E1.7799
G1 X119.209 Y91.548 E1.8649
G1 X123.452 Y91.548 E2.0554
G1 X106.548 Y108.452 E3.1288
G1 X110.791 Y108.452 E3.3193
G1 X121.511 Y97.732 E4.0000
G1 X121.509 Y101.976 E4.1906
G1 X115.033 Y108.452 E4.6018
G1 X119.276 Y108.452 E4.7923
G1 X123.452 Y104.276 E5.0575
G92 E0.0000
G1 E-0.4 F2100 ; custom retraction
;layer 33, Z = 6.600
;fan33;
G1 Z6.600 F1200
G1 X123.8 Y101.68 F6000
G1 E0 F2100 ; custom un-retraction/prime
G92 E0.0000
G1 X123.8 Y108.8 E0.2558 F2880
G1 X106.2 Y108.8 E0.8880
G1 X106.2 Y91.2 E1.5202
G1 X110.406 Y91.2 E1.6713
G1 X110.407 Y93.094 E1.7393
G1 X118.733 Y93.094 E2.0384
G1 X118.73400000000001 Y91.2 E2.1064
G1 X123.8 Y91.2 E2.2884
G1 X123.8 Y97.59899999999999 E2.5182
G1 X121.859 Y97.598 E2.5879
G1 X121.858 Y101.679 E2.7345
G1 X123.8 Y101.68 E2.8043
G1 X124.28 Y101.2 F6000
G92 E0.0000
G1 X124.28 Y109.28 E0.2902 F2880
G1 X105.72 Y109.28 E0.9569
G1 X105.72 Y90.72 E1.6236
G1 X110.886 Y90.72 E1.8092
G1 X110.886 Y92.614 E1.8772
G1 X114.044 Y92.614 E1.9906
G1 X114.043 Y90.72 E2.0587
G1 X115.098 Y90.72 E2.0965
G1 X115.09700000000001 Y92.614 E2.1645
G1 X118.253 Y92.614 E2.2779
G1 X118.25399999999999 Y90.72 E2.3459
G1 X124.28 Y90.72 E2.5624
G1 X124.28 Y98.07900000000001 E2.8268
G1 X122.339 Y98.07900000000001 E2.8965
G1 X122.338 Y101.199 E3.0086
G1 X124.28 Y101.2 E3.0783
G1 X124.76 Y100.72 F6000
G92 E0.0000
G1 X124.76 Y109.76 E0.3247 F2160
G1 X105.24000000000001 Y109.76 E1.0259
G1 X105.24000000000001 Y90.24000000000001 E1.7271
G1 X111.36500000000001 Y90.24000000000001 E1.9471
G1 X111.366 Y92.134 E2.0151
G1 X113.564 Y92.134 E2.0941
G1 X113.563 Y90.24000000000001 E2.1621
G1 X115.578 Y90.24000000000001 E2.2345
G1 X115.577 Y92.134 E2.3025
G1 X117.773 Y92.134 E2.3814
G1 X117.774 Y90.24000000000001 E2.4494
G1 X124.76 Y90.24000000000001 E2.7003
G1 X124.76 Y98.56 E2.9992
G1 X122.819 Y98.559 E3.0689
G1 X122.818 Y100.72 E3.1465
G1 X124.76 Y100.72 E3.2163
G92 E0.0000
G1 E-0.4 F2100 ; custom retraction
;zhop1
G1 X122.818 Y100.72 F6000
G1 X122.819 Y99.209
G1 X114.589 Y92.801
G1 Z6.600 F1200
G1 E0 F2100 ; custom un-retraction/prime
G92 E0.0000
G1 X114.332 Y92.544 E0.0130 F3600
G1 X114.332 Y91.86500000000001 E0.0374
G1 X114.809 Y92.342 E0.0617
G1 X114.809 Y91.663 E0.0860
G1 X114.332 Y91.186 E0.1103
G1 X115.577 Y91.277 F6000
G1 X115.577 Y92.134
G1 X117.773 Y92.134
G1 X117.774 Y91.438
G1 X119.276 Y91.548
G92 E0.0000
G1 X123.452 Y95.72399999999999 E0.2652 F3600
G1 X123.452 Y97.251 E0.3337
G1 X121.512 Y97.25 E0.4209
G1 X121.511 Y98.02600000000001 E0.4557
G1 X116.92699999999999 Y93.44200000000001 E0.7468
G1 X112.684 Y93.44200000000001 E0.9373
G1 X123.452 Y104.209 E1.6210
G1 X123.452 Y108.452 E1.8115
G1 X106.548 Y91.548 E2.8849
G1 X106.548 Y95.791 E3.0754
G1 X119.209 Y108.452 E3.8794
G1 X114.967 Y108.452 E4.0699
G1 X106.548 Y100.033 E4.6045
G1 X106.548 Y104.276 E4.7950
G1 X110.72399999999999 Y108.452 E5.0602
G92 E0.0000
G1 E-0.4 F2100 ; custom retraction
;layer 34, Z = 6.800
;fan34;
G1 Z6.800 F1200
G1 X106.2 Y108.8 F6000
G1 E0 F2100 ; custom un-retraction/prime
G92 E0.0000
G1 X106.2 Y91.2 E0.6322 F2880
G1 X110.517 Y91.2 E0.7873
G1 X110.518 Y93.094 E0.8553
G1 X118.606 Y93.094 E1.1458
G1 X118.607 Y91.2 E1.2139
G1 X123.8 Y91.2 E1.4004
G1 X123.8 Y97.59700000000001 E1.6302
G1 X121.86 Y97.596 E1.6999
G1 X121.858 Y101.67699999999999 E1.8465
G1 X123.8 Y101.678 E1.9162
G1 X123.8 Y108.8 E2.1721
G1 X106.2 Y108.8 E2.8043
G1 X105.72 Y109.28 F6000
G92 E0.0000
G1 X105.72 Y90.72 E0.6667 F2880
G1 X110.997 Y90.72 E0.8562
G1 X110.997 Y92.614 E0.9243
G1 X114.163 Y92.614 E1.0380
G1 X114.162 Y90.72 E1.1060
G1 X114.976 Y90.72 E1.1352
G1 X114.975 Y92.614 E1.2033
G1 X118.126 Y92.614 E1.3165
G1 X118.12700000000001 Y90.72 E1.3845
G1 X124.28 Y90.72 E1.6055
G1 X124.28 Y98.077 E1.8698
G1 X122.339 Y98.076 E1.9395
G1 X122.338 Y101.197 E2.0516
G1 X124.28 Y101.19800000000001 E2.1213
G1 X124.28 Y109.28 E2.4117
G1 X105.72 Y109.28 E3.0784
G1 X105.24000000000001 Y109.76 F6000
G92 E0.0000
G1 X105.24000000000001 Y90.24000000000001 E0.7012 F2160
G1 X111.476 Y90.24000000000001 E0.9252
G1 X111.477 Y92.134 E0.9932
G1 X113.68299999999999 Y92.134 E1.0724
G1 X113.682 Y90.24000000000001 E1.1405
G1 X115.456 Y90.24000000000001 E1.2042
G1 X115.455 Y92.134 E1.2722
G1 X117.64699999999999 Y92.134 E1.3510
G1 X117.648 Y90.24000000000001 E1.4190
G1 X124.76 Y90.24000000000001 E1.6745
G1 X124.76 Y98.557 E1.9732
G1 X122.819 Y98.557 E2.0430
G1 X122.818 Y100.717 E2.1206
G1 X124.76 Y100.718 E2.1903
G1 X124.76 Y109.76 E2.5151
G1 X105.24000000000001 Y109.76 E3.2163
G1 X114.687 Y92.167 F6000
G92 E0.0000
G1 X114.451 Y92.40299999999999 E0.0120 F3600
G1 X114.45 Y91.725 E0.0364
G1 X114.687 Y91.488 E0.0484
G1 X114.688 Y91.00800000000001 E0.0657
G1 X114.489 Y91.00800000000001 E0.0728
G1 X114.45 Y91.04599999999999 E0.0748
G1 X113.682 Y91.501 F6000
G1 X113.68299999999999 Y92.134
G1 X112.613 Y92.134
G1 X106.548 Y95.72399999999999
G92 E0.0000
G1 X110.169 Y92.10300000000001 E0.2299 F3600
G1 X110.17 Y93.44200000000001 E0.2901
G1 X113.07300000000001 Y93.44200000000001 E0.4204
G1 X106.548 Y99.967 E0.8348
G1 X106.548 Y104.209 E1.0253
G1 X117.316 Y93.44200000000001 E1.7090
G1 X118.95400000000001 Y93.44200000000001 E1.7826
G1 X118.955 Y91.803 E1.8562
G1 X119.209 Y91.548 E1.8723
G1 X123.452 Y91.548 E2.0628
G1 X106.548 Y108.452 E3.1362
G1 X110.791 Y108.452 E3.3267
G1 X121.512 Y97.731 E4.0075
G1 X121.51 Y101.976 E4.1981
G1 X115.033 Y108.452 E4.6093
G1 X119.276 Y108.452 E4.7998
G1 X123.452 Y104.276 E5.0650
G92 E0.0000
G1 E-0.4 F2100 ; custom retraction
;layer 35, Z = 7.000
;fan35;
G1 Z7.000 F1200
G1 X123.8 Y101.676 F6000
G1 E0 F2100 ; custom un-retraction/prime
G92 E0.0000
G1 X123.8 Y108.8 E0.2559 F2880
G1 X106.2 Y108.8 E0.8881
G1 X106.2 Y91.2 E1.5203
G1 X110.628 Y91.2 E1.6794
G1 X110.62899999999999 Y93.094 E1.7474
G1 X118.47999999999999 Y93.094 E2.0294
G1 X118.481 Y91.2 E2.0975
G1 X123.8 Y91.2 E2.2885
G1 X123.8 Y97.595 E2.5183
G1 X121.86 Y97.594 E2.5879
G1 X121.858 Y101.675 E2.7345
G1 X123.8 Y101.676 E2.8043
G1 X124.28 Y101.196 F6000
G92 E0.0000
G1 X124.28 Y109.28 E0.2904 F2880
G1 X105.72 Y109.28 E0.9571
G1 X105.72 Y90.72 E1.6238
G1 X111.108 Y90.72 E1.8173
G1 X111.10900000000001 Y92.614 E1.8853
G1 X114.281 Y92.614 E1.9993
G1 X114.28 Y90.72 E2.0673
G1 X114.854 Y90.72 E2.0879
G1 X114.85300000000001 Y92.614 E2.1560
G1 X118 Y92.614 E2.2690
G1 X118.001 Y90.72 E2.3371
G1 X124.28 Y90.72 E2.5626
G1 X124.28 Y98.075 E2.8268
G1 X122.34 Y98.074 E2.8965
G1 X122.338 Y101.195 E3.0086
G1 X124.28 Y101.196 E3.0784
G1 X124.76 Y100.71600000000001 F6000
G92 E0.0000
G1 X124.76 Y109.76 E0.3249 F2160
G1 X105.24000000000001 Y109.76 E1.0260
G1 X105.24000000000001 Y90.24000000000001 E1.7272
G1 X111.587 Y90.24000000000001 E1.9552
G1 X111.588 Y92.134 E2.0233
G1 X113.801 Y92.134 E2.1027
G1 X113.8 Y90.24000000000001 E2.1708
G1 X115.334 Y90.24000000000001 E2.2259
G1 X115.333 Y92.134 E2.2939
G1 X117.52000000000001 Y92.134 E2.3725
G1 X117.521 Y90.24000000000001 E2.4405
G1 X124.76 Y90.24000000000001 E2.7005
G1 X124.76 Y98.555 E2.9992
G1 X122.82 Y98.554 E3.0689
G1 X122.819 Y100.715 E3.1465
G1 X124.76 Y100.71600000000001 E3.2163
G92 E0.0000
G1 E-0.4 F2100 ; custom retraction
;zhop1
G1 X122.819 Y100.715 F6000
G1 X122.82 Y98.554
G1 X123.467 Y98.555
G1 X119.276 Y91.548
G1 Z7.000 F1200
G1 E0 F2100 ; custom un-retraction/prime
G92 E0.0000
G1 X123.452 Y95.72399999999999 E0.2652 F3600
G1 X123.452 Y97.247 E0.3335
G1 X121.512 Y97.24600000000001 E0.4206
G1 X121.512 Y98.02600000000001 E0.4557
G1 X116.92699999999999 Y93.44200000000001 E0.7468
G1 X112.685 Y93.44200000000001 E0.9373
G1 X123.452 Y104.209 E1.6210
G1 X123.452 Y108.452 E1.8115
G1 X106.548 Y91.548 E2.8849
G1 X106.548 Y95.791 E3.0754
G1 X119.209 Y108.452 E3.8794
G1 X114.967 Y108.452 E4.0699
G1 X106.548 Y100.033 E4.6045
G1 X106.548 Y104.276 E4.7950
G1 X110.72399999999999 Y108.452 E5.0602
G92 E0.0000
G1 E-0.4 F2100 ; custom retraction
;layer 36, Z = 7.200
;fan36;
G1 Z7.200 F1200
G1 X106.2 Y108.8 F6000
G1 E0 F2100 ; custom un-retraction/prime
G92 E0.0000
G1 X106.2 Y91.2 E0.6322 F2880
G1 X110.739 Y91.2 E0.7952
G1 X110.74000000000001 Y93.094 E0.8633
G1 X118.35300000000001 Y93.094 E1.1368
G1 X118.354 Y91.2 E1.2048
G1 X123.8 Y91.2 E1.4004
G1 X123.8 Y97.593 E1.6301
G1 X121.86 Y97.592 E1.6997
G1 X121.858 Y101.673 E1.8463
G1 X123.8 Y101.673 E1.9161
G1 X123.8 Y108.8 E2.1721
G1 X106.2 Y108.8 E2.8043
G1 X105.72 Y109.28 F6000
G92 E0.0000
G1 X105.72 Y90.72 E0.6667 F2880
G1 X111.219 Y90.72 E0.8642
G1 X111.22 Y92.614 E0.9323
G1 X117.874 Y92.614 E1.1713
G1 X117.875 Y90.72 E1.2393
G1 X124.28 Y90.72 E1.4694
G1 X124.28 Y98.07300000000001 E1.7335
G1 X122.34 Y98.072 E1.8032
G1 X122.339 Y101.193 E1.9153
G1 X124.28 Y101.194 E1.9850
G1 X124.28 Y109.28 E2.2755
G1 X105.72 Y109.28 E2.9422
G1 X105.24000000000001 Y109.76 F6000
G92 E0.0000
G1 X105.24000000000001 Y90.24000000000001 E0.7012 F2160
G1 X111.69800000000001 Y90.24000000000001 E0.9332
G1 X111.699 Y92.134 E1.0012
G1 X113.92 Y92.134 E1.0810
G1 X113.919 Y90.24000000000001 E1.1490
G1 X115.212 Y90.24000000000001 E1.1955
G1 X115.211 Y92.134 E1.2635
G1 X117.394 Y92.134 E1.3419
G1 X117.39500000000001 Y90.24000000000001 E1.4100
G1 X124.76 Y90.24000000000001 E1.6745
G1 X124.76 Y98.553 E1.9731
G1 X122.82 Y98.55199999999999 E2.0428
G1 X122.819 Y100.713 E2.1204
G1 X124.76 Y100.714 E2.1902
G1 X124.76 Y109.76 E2.5151
G1 X105.24000000000001 Y109.76 E3.2163
G1 X114.533 Y92.321 F6000
G92 E0.0000
G1 X114.923 Y91.931 E0.0198 F3600
G1 X114.924 Y91.25200000000001 E0.0442
G1 X114.207 Y91.968 E0.0806
G1 X114.207 Y91.289 E0.1050
G1 X114.924 Y90.572 E0.1414
G1 X114.924 Y90.52799999999999 E0.1430
G1 X114.28999999999999 Y90.52799999999999 E0.1658
G1 X114.207 Y90.61099999999999 E0.1700
G1 X113.919 Y90.803 F6000
G1 X113.92 Y92.134
G1 X111.925 Y92.134
G1 X106.548 Y95.72399999999999
G92 E0.0000
G1 X110.39099999999999 Y91.881 E0.2440 F3600
G1 X110.392 Y93.44200000000001 E0.3141
G1 X113.07300000000001 Y93.44200000000001 E0.4345
G1 X106.548 Y99.967 E0.8488
G1 X106.548 Y104.209 E1.0393
G1 X117.315 Y93.44200000000001 E1.7230
G1 X118.701 Y93.44200000000001 E1.7853
G1 X118.702 Y92.056 E1.8475
G1 X119.209 Y91.548 E1.8798
G1 X123.452 Y91.548 E2.0703
G1 X106.548 Y108.452 E3.1437
G1 X110.791 Y108.452 E3.3342
G1 X121.512 Y97.72999999999999 E4.0150
G1 X121.51 Y101.975 E4.2056
G1 X115.033 Y108.452 E4.6168
G1 X119.276 Y108.452 E4.8073
G1 X123.452 Y104.276 E5.0725
G92 E0.0000
G1 E-0.4 F2100 ; custom retraction
;layer 37, Z = 7.400
;fan37;
G1 Z7.400 F1200
G1 X123.8 Y101.67099999999999 F6000
G1 E0 F2100 ; custom un-retraction/prime
G92 E0.0000
G1 X123.8 Y108.8 E0.2561 F2880
G1 X106.2 Y108.8 E0.8883
G1 X106.2 Y91.2 E1.5205
G1 X110.85 Y91.2 E1.6875
G1 X110.851 Y93.094 E1.7556
G1 X118.227 Y93.094 E2.0205
G1 X118.22800000000001 Y91.2 E2.0886
G1 X123.8 Y91.2 E2.2887
G1 X123.8 Y97.59100000000001 E2.5183
G1 X121.861 Y97.59 E2.5879
G1 X121.859 Y101.67 E2.7345
G1 X123.8 Y101.67099999999999 E2.8043
G1 X124.28 Y101.191 F6000
G92 E0.0000
G1 X124.28 Y109.28 E0.2905 F2880
G1 X105.72 Y109.28 E0.9572
G1 X105.72 Y90.72 E1.6239
G1 X111.33 Y90.72 E1.8254
G1 X111.331 Y92.614 E1.8935
G1 X117.747 Y92.614 E2.1240
G1 X117.74799999999999 Y90.72 E2.1920
G1 X124.28 Y90.72 E2.4267
G1 X124.28 Y98.071 E2.6907
G1 X122.34 Y98.07 E2.7604
G1 X122.339 Y101.191 E2.8725
G1 X124.28 Y101.191 E2.9422
G1 X124.76 Y100.712 F6000
G92 E0.0000
G1 X124.76 Y109.76 E0.3250 F2160
G1 X105.24000000000001 Y109.76 E1.0262
G1 X105.24000000000001 Y90.24000000000001 E1.7274
G1 X111.809 Y90.24000000000001 E1.9634
G1 X111.81 Y92.134 E2.0314
G1 X114.038 Y92.134 E2.1114
G1 X114.037 Y90.24000000000001 E2.1795
G1 X115.09 Y90.24000000000001 E2.2173
G1 X115.089 Y92.134 E2.2854
G1 X117.267 Y92.134 E2.3636
G1 X117.268 Y90.24000000000001 E2.4316
G1 X124.76 Y90.24000000000001 E2.7007
G1 X124.76 Y98.551 E2.9993
G1 X122.82 Y98.55 E3.0690
G1 X122.819 Y100.711 E3.1466
G1 X124.76 Y100.712 E3.2163
G92 E0.0000
G1 E-0.4 F2100 ; custom retraction
;zhop1
G1 X122.819 Y100.711 F6000
G1 X122.82 Y99.07900000000001
G1 X114.789 Y92.322
G1 Z7.400 F1200
G1 E0 F2100 ; custom un-retraction/prime
G92 E0.0000
G1 X114.326 Y91.85900000000001 E0.0235 F3600
G1 X114.326 Y91.18 E0.0479
G1 X114.80199999999999 Y91.656 E0.0721
G1 X114.80199999999999 Y90.977 E0.0965
G1 X114.35300000000001 Y90.52799999999999 E0.1193
G1 X115.09 Y90.681 F6000
G1 X115.089 Y92.134
G1 X117.267 Y92.134
G1 X117.268 Y91.132
G1 X119.276 Y91.548
G92 E0.0000
G1 X123.452 Y95.72399999999999 E0.2652 F3600
G1 X123.452 Y97.24199999999999 E0.3334
G1 X121.513 Y97.24199999999999 E0.4204
G1 X121.512 Y98.027 E0.4557
G1 X116.928 Y93.44200000000001 E0.7468
G1 X112.685 Y93.44200000000001 E0.9373
G1 X123.452 Y104.209 E1.6210
G1 X123.452 Y108.452 E1.8115
G1 X106.548 Y91.548 E2.8849
G1 X106.548 Y95.791 E3.0754
G1 X119.209 Y108.452 E3.8794
G1 X114.967 Y108.452 E4.0699
G1 X106.548 Y100.033 E4.6045
G1 X106.548 Y104.276 E4.7950
G1 X110.72399999999999 Y108.452 E5.0602
G92 E0.0000
G1 E-0.4 F2100 ; custom retraction
;layer 38, Z = 7.600
;fan38;
G1 Z7.600 F1200
G1 X106.2 Y108.8 F6000
G1 E0 F2100 ; custom un-retraction/prime
G92 E0.0000
G1 X106.2 Y91.2 E0.6322 F2880
G1 X110.961 Y91.2 E0.8032
G1 X110.962 Y93.095 E0.8713
G1 X118.1 Y93.095 E1.1277
G1 X118.101 Y91.2 E1.1958
G1 X123.8 Y91.2 E1.4005
G1 X123.8 Y97.588 E1.6299
G1 X121.861 Y97.587 E1.6996
G1 X121.859 Y101.668 E1.8462
G1 X123.8 Y101.669 E1.9159
G1 X123.8 Y108.8 E2.1720
G1 X106.2 Y108.8 E2.8042
G1 X105.72 Y109.28 F6000
G92 E0.0000
G1 X105.72 Y90.72 E0.6667 F2880
G1 X111.441 Y90.72 E0.8722
G1 X111.44200000000001 Y92.61500000000001 E0.9402
G1 X117.62100000000001 Y92.61500000000001 E1.1622
G1 X117.622 Y90.72 E1.2302
G1 X124.28 Y90.72 E1.4694
G1 X124.28 Y98.069 E1.7334
G1 X122.341 Y98.068 E1.8031
G1 X122.339 Y101.188 E1.9152
G1 X124.28 Y101.189 E1.9849
G1 X124.28 Y109.28 E2.2755
G1 X105.72 Y109.28 E2.9422
G1 X105.24000000000001 Y109.76 F6000
G92 E0.0000
G1 X105.24000000000001 Y90.24000000000001 E0.7012 F2160
G1 X111.92 Y90.24000000000001 E0.9411
G1 X111.92099999999999 Y92.13499999999999 E1.0092
G1 X114.157 Y92.13499999999999 E1.0895
G1 X114.156 Y90.24000000000001 E1.1575
G1 X114.969 Y90.24000000000001 E1.1867
G1 X114.968 Y92.13499999999999 E1.2548
G1 X117.14099999999999 Y92.13499999999999 E1.3329
G1 X117.142 Y90.24000000000001 E1.4009
G1 X124.76 Y90.24000000000001 E1.6746
G1 X124.76 Y98.549 E1.9730
G1 X122.82 Y98.548 E2.0427
G1 X122.82 Y100.709 E2.1203
G1 X124.76 Y100.71000000000001 E2.1900
G1 X124.76 Y109.76 E2.5151
G1 X105.24000000000001 Y109.76 E3.2163
G1 X114.68 Y92.175 F6000
G92 E0.0000
G1 X114.532 Y92.322 E0.0075 F3600
G1 X114.445 Y92.322 E0.0106
G1 X114.444 Y91.731 E0.0318
G1 X114.68 Y91.495 E0.0438
G1 X114.68 Y90.816 E0.0682
G1 X114.444 Y91.053 E0.0802
G1 X114.156 Y91.223 F6000
G1 X114.157 Y92.13499999999999
G1 X112.61500000000001 Y92.13499999999999
G1 X106.548 Y95.72399999999999
G92 E0.0000
G1 X110.613 Y91.65899999999999 E0.2581 F3600
G1 X110.614 Y93.443 E0.3382
G1 X113.072 Y93.443 E0.4486
G1 X106.548 Y99.967 E0.8629
G1 X106.548 Y104.209 E1.0534
G1 X117.315 Y93.443 E1.7371
G1 X118.44800000000001 Y93.443 E1.7880
G1 X118.449 Y92.309 E1.8389
G1 X119.209 Y91.548 E1.8872
G1 X123.452 Y91.548 E2.0777
G1 X106.548 Y108.452 E3.1511
G1 X110.791 Y108.452 E3.3416
G1 X121.513 Y97.72999999999999 E4.0224
G1 X121.511 Y101.97399999999999 E4.2130
G1 X115.033 Y108.452 E4.6243
G1 X119.276 Y108.452 E4.8148
G1 X123.452 Y104.276 E5.0800
G92 E0.0000
G1 E-0.4 F2100 ; custom retraction
;layer 39, Z = 7.800
;fan39;
G1 Z7.800 F1200
G1 X123.8 Y101.667 F6000
G1 E0 F2100 ; custom un-retraction/prime
G92 E0.0000
G1 X123.8 Y108.8 E0.2562 F2880
G1 X106.2 Y108.8 E0.8884
G1 X106.2 Y91.2 E1.5206
G1 X111.072 Y91.2 E1.6956
G1 X111.07300000000001 Y93.095 E1.7637
G1 X117.97399999999999 Y93.095 E2.0116
G1 X117.975 Y91.2 E2.0797
G1 X123.8 Y91.2 E2.2889
G1 X123.8 Y97.586 E2.5183
G1 X121.861 Y97.58500000000001 E2.5879
G1 X121.859 Y101.666 E2.7345
G1 X123.8 Y101.667 E2.8042
G1 X124.28 Y101.187 F6000
G92 E0.0000
G1 X124.28 Y109.28 E0.2907 F2880
G1 X105.72 Y109.28 E0.9574
G1 X105.72 Y90.72 E1.6241
G1 X111.55199999999999 Y90.72 E1.8336
G1 X111.553 Y92.61500000000001 E1.9016
G1 X117.494 Y92.61500000000001 E2.1151
G1 X117.495 Y90.72 E2.1831
G1 X124.28 Y90.72 E2.4268
G1 X124.28 Y98.066 E2.6907
G1 X122.341 Y98.066 E2.7604
G1 X122.34 Y101.186 E2.8725
G1 X124.28 Y101.187 E2.9422
G1 X124.76 Y100.707 F6000
G92 E0.0000
G1 X124.76 Y109.76 E0.3252 F2160
G1 X105.24000000000001 Y109.76 E1.0264
G1 X105.24000000000001 Y90.24000000000001 E1.7275
G1 X112.032 Y90.24000000000001 E1.9715
G1 X112.032 Y92.13499999999999 E2.0395
G1 X114.275 Y92.13499999999999 E2.1201
G1 X114.274 Y90.24000000000001 E2.1882
G1 X114.84700000000001 Y90.24000000000001 E2.2087
G1 X114.846 Y92.13499999999999 E2.2768
G1 X117.01400000000001 Y92.13499999999999 E2.3547
G1 X117.015 Y90.24000000000001 E2.4228
G1 X124.76 Y90.24000000000001 E2.7009
G1 X124.76 Y98.547 E2.9993
G1 X122.821 Y98.54599999999999 E3.0690
G1 X122.82 Y100.707 E3.1466
G1 X124.76 Y100.707 E3.2163
G92 E0.0000
G1 E-0.4 F2100 ; custom retraction
;zhop1
G1 X122.82 Y100.707 F6000
G1 X122.821 Y98.54599999999999
G1 X123.466 Y98.54599999999999
G1 X119.276 Y91.548
G1 Z7.800 F1200
G1 E0 F2100 ; custom un-retraction/prime
G92 E0.0000
G1 X123.452 Y95.72399999999999 E0.2652 F3600
G1 X123.452 Y97.238 E0.3332
G1 X121.513 Y97.237 E0.4202
G1 X121.513 Y98.02799999999999 E0.4557
G1 X116.928 Y93.443 E0.7468
G1 X112.685 Y93.443 E0.9373
G1 X123.452 Y104.209 E1.6210
G1 X123.452 Y108.452 E1.8115
G1 X106.548 Y91.548 E2.8849
G1 X106.548 Y95.791 E3.0754
G1 X119.209 Y108.452 E3.8794
G1 X114.967 Y108.452 E4.0699
G1 X106.548 Y100.033 E4.6045
G1 X106.548 Y104.276 E4.7950
G1 X110.72399999999999 Y108.452 E5.0602
G92 E0.0000
G1 E-0.4 F2100 ; custom retraction
;layer 40, Z = 8.000
;fan40;
G1 Z8.000 F1200
G1 X106.2 Y108.8 F6000
G1 E0 F2100 ; custom un-retraction/prime
G92 E0.0000
G1 X106.2 Y91.2 E0.6322 F2880
G1 X111.18299999999999 Y91.2 E0.8112
G1 X111.184 Y93.095 E0.8793
G1 X117.84700000000001 Y93.095 E1.1186
G1 X117.848 Y91.2 E1.1867
G1 X123.8 Y91.2 E1.4005
G1 X123.8 Y97.584 E1.6298
G1 X121.862 Y97.583 E1.6994
G1 X121.86 Y101.664 E1.8460
G1 X123.8 Y101.66499999999999 E1.9157
G1 X123.8 Y108.8 E2.1720
G1 X106.2 Y108.8 E2.8042
G1 X105.72 Y109.28 F6000
G92 E0.0000
G1 X105.72 Y90.72 E0.6667 F2880
G1 X111.663 Y90.72 E0.8802
G1 X111.664 Y92.61500000000001 E0.9482
G1 X117.368 Y92.61500000000001 E1.1531
G1 X117.369 Y90.72 E1.2212
G1 X124.28 Y90.72 E1.4694
G1 X124.28 Y98.064 E1.7333
G1 X122.341 Y98.063 E1.8029
G1 X122.34 Y101.184 E1.9150
G1 X124.28 Y101.185 E1.9847
G1 X124.28 Y109.28 E2.2755
G1 X105.72 Y109.28 E2.9422
G1 X105.24000000000001 Y109.76 F6000
G92 E0.0000
G1 X105.24000000000001 Y90.24000000000001 E0.7012 F2160
G1 X112.143 Y90.24000000000001 E0.9491
G1 X112.143 Y92.13499999999999 E1.0172
G1 X114.394 Y92.13499999999999 E1.0980
G1 X114.393 Y90.24000000000001 E1.1661
G1 X114.725 Y90.24000000000001 E1.1780
G1 X114.72399999999999 Y92.13499999999999 E1.2461
G1 X116.888 Y92.13499999999999 E1.3238
G1 X116.88900000000001 Y90.24000000000001 E1.3919
G1 X124.76 Y90.24000000000001 E1.6746
G1 X124.76 Y98.544 E1.9729
G1 X122.821 Y98.544 E2.0426
G1 X122.82 Y100.70400000000001 E2.1202
G1 X124.76 Y100.705 E2.1899
G1 X124.76 Y109.76 E2.5151
G1 X105.24000000000001 Y109.76 E3.2163
G1 X106.548 Y95.72399999999999 F6000
G92 E0.0000
G1 X110.72399999999999 Y91.548 E0.2652 F3600
G1 X110.83500000000001 Y91.548 E0.2702
G1 X110.836 Y93.443 E0.3552
G1 X113.072 Y93.443 E0.4556
G1 X106.548 Y99.967 E0.8699
G1 X106.548 Y104.209 E1.0604
G1 X117.315 Y93.443 E1.7441
G1 X118.195 Y93.443 E1.7836
G1 X118.196 Y92.562 E1.8232
G1 X119.209 Y91.548 E1.8876
G1 X123.452 Y91.548 E2.0781
G1 X106.548 Y108.452 E3.1515
G1 X110.791 Y108.452 E3.3420
G1 X121.513 Y97.729 E4.0229
G1 X121.512 Y101.97399999999999 E4.2134
G1 X115.033 Y108.452 E4.6248
G1 X119.276 Y108.452 E4.8153
G1 X123.452 Y104.276 E5.0805
G92 E0.0000
G1 E-0.4 F2100 ; custom retraction
;layer 41, Z = 8.200
;fan41;
G1 Z8.200 F1200
G1 X123.8 Y101.663 F6000
G1 E0 F2100 ; custom un-retraction/prime
G92 E0.0000
G1 X123.8 Y108.8 E0.2564 F2880
G1 X106.2 Y108.8 E0.8886
G1 X106.2 Y91.2 E1.5208
G1 X111.294 Y91.2 E1.7038
G1 X111.295 Y93.095 E1.7718
G1 X117.721 Y93.095 E2.0027
G1 X117.72200000000001 Y91.2 E2.0708
G1 X123.8 Y91.2 E2.2891
G1 X123.8 Y97.582 E2.5183
G1 X121.862 Y97.581 E2.5879
G1 X121.86 Y101.662 E2.7345
G1 X123.8 Y101.663 E2.8042
G1 X124.28 Y101.18299999999999 F6000
G92 E0.0000
G1 X124.28 Y109.28 E0.2909 F2880
G1 X105.72 Y109.28 E0.9576
G1 X105.72 Y90.72 E1.6242
G1 X111.774 Y90.72 E1.8417
G1 X111.775 Y92.61500000000001 E1.9098
G1 X117.241 Y92.61500000000001 E2.1061
G1 X117.24199999999999 Y90.72 E2.1742
G1 X124.28 Y90.72 E2.4270
G1 X124.28 Y98.062 E2.6907
G1 X122.342 Y98.061 E2.7604
G1 X122.34 Y101.182 E2.8725
G1 X124.28 Y101.18299999999999 E2.9422
G1 X124.76 Y100.703 F6000
G92 E0.0000
G1 X124.76 Y109.76 E0.3253 F2160
G1 X105.24000000000001 Y109.76 E1.0265
G1 X105.24000000000001 Y90.24000000000001 E1.7277
G1 X112.25399999999999 Y90.24000000000001 E1.9796
G1 X112.25399999999999 Y92.13499999999999 E2.0477
G1 X114.512 Y92.13499999999999 E2.1288
G1 X114.511 Y90.24000000000001 E2.1969
G1 X114.60300000000001 Y90.24000000000001 E2.2002
G1 X114.602 Y92.13499999999999 E2.2682
G1 X116.762 Y92.13499999999999 E2.3458
G1 X116.763 Y90.24000000000001 E2.4139
G1 X124.76 Y90.24000000000001 E2.7011
G1 X124.76 Y98.542 E2.9994
G1 X122.821 Y98.541 E3.0690
G1 X122.82 Y100.702 E3.1466
G1 X124.76 Y100.703 E3.2163
G92 E0.0000
G1 E-0.4 F2100 ; custom retraction
;zhop1
G1 X122.82 Y100.702 F6000
G1 X122.821 Y98.541
G1 X123.465 Y98.542
G1 X119.276 Y91.548
G1 Z8.200 F1200
G1 E0 F2100 ; custom un-retraction/prime
G92 E0.0000
G1 X123.452 Y95.72399999999999 E0.2652 F3600
G1 X123.452 Y97.23400000000001 E0.3330
G1 X121.514 Y97.233 E0.4200
G1 X121.514 Y98.02799999999999 E0.4557
G1 X116.928 Y93.443 E0.7469
G1 X112.686 Y93.443 E0.9374
G1 X123.452 Y104.209 E1.6210
G1 X123.452 Y108.452 E1.8115
G1 X106.548 Y91.548 E2.8849
G1 X110.791 Y91.548 E3.0754
G1 X110.946 Y91.70400000000001 E3.0853
G1 X106.548 Y95.791 F6000
G92 E0.0000
G1 X119.209 Y108.452 E0.8040 F3600
G1 X114.967 Y108.452 E0.9945
G1 X106.548 Y100.033 E1.5291
G1 X106.548 Y104.276 E1.7196
G1 X110.72399999999999 Y108.452 E1.9848
G92 E0.0000
G1 E-0.4 F2100 ; custom retraction
;layer 42, Z = 8.400
;fan42;
G1 Z8.400 F1200
G1 X106.2 Y108.8 F6000
G1 E0 F2100 ; custom un-retraction/prime
G92 E0.0000
G1 X106.2 Y91.2 E0.6322 F2880
G1 X111.405 Y91.2 E0.8192
G1 X111.406 Y93.095 E0.8873
G1 X117.595 Y93.095 E1.1096
G1 X117.596 Y91.2 E1.1776
G1 X123.8 Y91.2 E1.4005
G1 X123.8 Y97.58 E1.6297
G1 X121.862 Y97.57900000000001 E1.6993
G1 X121.86 Y101.66 E1.8459
G1 X123.8 Y101.66 E1.9155
G1 X123.8 Y108.8 E2.1720
G1 X106.2 Y108.8 E2.8042
G1 X105.72 Y109.28 F6000
G92 E0.0000
G1 X105.72 Y90.72 E0.6667 F2880
G1 X111.88499999999999 Y90.72 E0.8881
G1 X111.886 Y92.61500000000001 E0.9562
G1 X117.11500000000001 Y92.61500000000001 E1.1441
G1 X117.116 Y90.72 E1.2121
G1 X124.28 Y90.72 E1.4695
G1 X124.28 Y98.06 E1.7331
G1 X122.342 Y98.059 E1.8027
G1 X122.341 Y101.18 E1.9148
G1 X124.28 Y101.181 E1.9845
G1 X124.28 Y109.28 E2.2754
G1 X105.72 Y109.28 E2.9421
G1 X105.24000000000001 Y109.76 F6000
G92 E0.0000
G1 X105.24000000000001 Y90.24000000000001 E0.7012 F2160
G1 X112.36500000000001 Y90.24000000000001 E0.9571
G1 X112.36500000000001 Y92.13499999999999 E1.0252
G1 X116.63499999999999 Y92.13499999999999 E1.1785
G1 X116.636 Y90.24000000000001 E1.2466
G1 X124.76 Y90.24000000000001 E1.5384
G1 X124.76 Y98.53999999999999 E1.8366
G1 X122.822 Y98.539 E1.9062
G1 X122.821 Y100.7 E1.9838
G1 X124.76 Y100.701 E2.0535
G1 X124.76 Y109.76 E2.3789
G1 X105.24000000000001 Y109.76 E3.0801
G1 X106.548 Y95.72399999999999 F6000
G92 E0.0000
G1 X110.72399999999999 Y91.548 E0.2652 F3600
G1 X111.057 Y91.548 E0.2801
G1 X111.05799999999999 Y93.443 E0.3652
G1 X113.072 Y93.443 E0.4556
G1 X106.548 Y99.967 E0.8699
G1 X106.548 Y104.209 E1.0604
G1 X117.314 Y93.443 E1.7440
G1 X117.94200000000001 Y93.443 E1.7722
G1 X117.943 Y92.815 E1.8005
G1 X119.209 Y91.548 E1.8809
G1 X123.452 Y91.548 E2.0714
G1 X106.548 Y108.452 E3.1448
G1 X110.791 Y108.452 E3.3353
G1 X121.514 Y97.729 E4.0162
G1 X121.512 Y101.973 E4.2068
G1 X115.033 Y108.452 E4.6182
G1 X119.276 Y108.452 E4.8087
G1 X123.452 Y104.276 E5.0739
G92 E0.0000
G1 E-0.4 F2100 ; custom retraction
;layer 43, Z = 8.600
;fan43;
G1 Z8.600 F1200
G1 X123.8 Y101.658 F6000
G1 E0 F2100 ; custom un-retraction/prime
G92 E0.0000
G1 X123.8 Y108.8 E0.2565 F2880
G1 X106.2 Y108.8 E0.8887
G1 X106.2 Y91.2 E1.5210
G1 X111.51599999999999 Y91.2 E1.7119
G1 X111.517 Y93.095 E1.7800
G1 X114.142 Y93.095 E1.8743
G1 X114.965 Y93.095 E1.9039
G1 X117.468 Y93.095 E1.9938
G1 X117.469 Y91.2 E2.0618
G1 X123.8 Y91.2 E2.2893
G1 X123.8 Y97.578 E2.5183
G1 X121.862 Y97.577 E2.5879
G1 X121.861 Y101.657 E2.7345
G1 X123.8 Y101.658 E2.8042
G1 X124.28 Y101.178 F6000
G92 E0.0000
G1 X124.28 Y109.28 E0.2910 F2880
G1 X105.72 Y109.28 E0.9577
G1 X105.72 Y90.72 E1.6244
G1 X111.99600000000001 Y90.72 E1.8498
G1 X111.997 Y92.61500000000001 E1.9179
G1 X114.142 Y92.61500000000001 E1.9950
G1 X114.965 Y92.61500000000001 E2.0245
G1 X116.988 Y92.61500000000001 E2.0972
G1 X116.989 Y90.72 E2.1653
G1 X124.28 Y90.72 E2.4272
G1 X124.28 Y98.05799999999999 E2.6908
G1 X122.342 Y98.057 E2.7604
G1 X122.341 Y101.178 E2.8725
G1 X124.28 Y101.178 E2.9421
G1 X124.76 Y100.699 F6000
G92 E0.0000
G1 X124.76 Y109.76 E0.3255 F2160
G1 X105.24000000000001 Y109.76 E1.0267
G1 X105.24000000000001 Y90.24000000000001 E1.7278
G1 X112.476 Y90.24000000000001 E1.9878
G1 X112.476 Y92.13499999999999 E2.0558
G1 X114.358 Y92.13499999999999 E2.1234
G1 X114.749 Y92.13499999999999 E2.1375
G1 X116.509 Y92.13499999999999 E2.2007
G1 X116.50999999999999 Y90.24000000000001 E2.2688
G1 X124.76 Y90.24000000000001 E2.5651
G1 X124.76 Y98.538 E2.8632
G1 X122.822 Y98.537 E2.9328
G1 X122.821 Y100.69800000000001 E3.0104
G1 X124.76 Y100.699 E3.0801
G92 E0.0000
G1 E-0.4 F2100 ; custom retraction
;zhop1
G1 X122.821 Y100.69800000000001 F6000
G1 X122.822 Y98.537
G1 X123.465 Y98.537
G1 X119.276 Y91.548
G1 Z8.600 F1200
G1 E0 F2100 ; custom un-retraction/prime
G92 E0.0000
G1 X123.452 Y95.72399999999999 E0.2652 F3600
G1 X123.452 Y97.229 E0.3328
G1 X121.515 Y97.229 E0.4198
G1 X121.514 Y98.029 E0.4557
G1 X116.929 Y93.443 E0.7469
G1 X116.057 Y93.443 E0.7860
G1 X114.536 Y93.443 E0.8543
G1 X113.05 Y93.443 E0.9210
G1 X112.686 Y93.443 E0.9374
G1 X123.452 Y104.209 E1.6210
G1 X123.452 Y108.452 E1.8115
G1 X106.548 Y91.548 E2.8849
G1 X110.791 Y91.548 E3.0754
G1 X111.168 Y91.926 E3.0994
G1 X106.548 Y95.791 F6000
G92 E0.0000
G1 X119.209 Y108.452 E0.8040 F3600
G1 X114.967 Y108.452 E0.9945
G1 X106.548 Y100.033 E1.5291
G1 X106.548 Y104.276 E1.7196
G1 X110.72399999999999 Y108.452 E1.9848
G92 E0.0000
G1 E-0.4 F2100 ; custom retraction
;layer 44, Z = 8.800
;fan44;
G1 Z8.800 F1200
G1 X106.2 Y108.8 F6000
G1 E0 F2100 ; custom un-retraction/prime
G92 E0.0000
G1 X106.2 Y91.2 E0.6322 F2880
G1 X111.62700000000001 Y91.2 E0.8272
G1 X111.628 Y93.096 E0.8952
G1 X117.342 Y93.096 E1.1005
G1 X117.343 Y91.2 E1.1686
G1 X123.8 Y91.2 E1.4005
G1 X123.8 Y97.575 E1.6295
G1 X121.863 Y97.575 E1.6991
G1 X121.861 Y101.655 E1.8457
G1 X123.8 Y101.656 E1.9154
G1 X123.8 Y108.8 E2.1720
G1 X106.2 Y108.8 E2.8042
G1 X105.72 Y109.28 F6000
G92 E0.0000
G1 X105.72 Y90.72 E0.6667 F2880
G1 X112.107 Y90.72 E0.8961
G1 X112.108 Y92.616 E0.9642
G1 X116.862 Y92.616 E1.1350
G1 X116.863 Y90.72 E1.2031
G1 X124.28 Y90.72 E1.4695
G1 X124.28 Y98.056 E1.7330
G1 X122.343 Y98.055 E1.8026
G1 X122.341 Y101.175 E1.9147
G1 X124.28 Y101.176 E1.9843
G1 X124.28 Y109.28 E2.2754
G1 X105.72 Y109.28 E2.9421
G1 X105.24000000000001 Y109.76 F6000
G92 E0.0000
G1 X105.24000000000001 Y90.24000000000001 E0.7012 F2160
G1 X112.587 Y90.24000000000001 E0.9651
G1 X112.587 Y92.136 E1.0332
G1 X116.382 Y92.136 E1.1695
G1 X116.38300000000001 Y90.24000000000001 E1.2376
G1 X124.76 Y90.24000000000001 E1.5385
G1 X124.76 Y98.536 E1.8365
G1 X122.822 Y98.535 E1.9061
G1 X122.821 Y100.696 E1.9837
G1 X124.76 Y100.697 E2.0533
G1 X124.76 Y109.76 E2.3789
G1 X105.24000000000001 Y109.76 E3.0801
G1 X106.548 Y95.72399999999999 F6000
G92 E0.0000
G1 X110.72399999999999 Y91.548 E0.2652 F3600
G1 X111.279 Y91.548 E0.2901
G1 X111.28 Y93.444 E0.3752
G1 X113.071 Y93.444 E0.4556
G1 X106.548 Y99.967 E0.8699
