; G-Code originally generated by Simplify3D(R) Version 4.1.2
;This calibration test gcode modified by the Teaching Tech Calibration website: https://teachingtechyt.github.io/calibration.html
;M80 ; power supply on
G90
M82
M106 S0
M140 S55 ; custom bed temp
M190 S55 ; custom bed temp
M104 S200 T0 ; custom hot end temp
M109 S200 T0 ; custom hot end temp
G28 ; home all axes
;G29 ; probe ABL
;M420 S1 ; restore ABL mesh 
;customstart
G0 Z3; fix for delta printers that home at maxundefined; squarez 1

;process Process
;layer 1, Z = 0.200
T0
G92 E0.0000
;retract1
;fan1;
G1 Z0.200 F1200
G1 X14.636000000000003 Y16.314 F6000
;unretract1
G92 E0.0000
G1 X16.314 Y14.636000000000003 E0.1023 F1800
G1 X43.68600000000001 Y14.636000000000003 E1.2822
G1 X45.364000000000004 Y16.314 E1.3844
G1 X45.364000000000004 Y43.68600000000001 E2.5643
G1 X43.68600000000001 Y45.364000000000004 E2.6666
G1 X16.314 Y45.364000000000004 E3.8465
G1 X14.636000000000003 Y43.68600000000001 E3.9487
G1 X14.636000000000003 Y16.314 E5.1286
G92 E0.0000
;retract1
G1 Z0.300 F1200
G1 X15.212000000000003 Y16.552 F6000
G1 Z0.200 F1200
;unretract1
G92 E0.0000
G1 X16.552 Y15.212000000000003 E0.0817 F1800
G1 X43.44799999999999 Y15.212000000000003 E1.2410
G1 X44.788 Y16.552 E1.3227
G1 X44.788 Y43.44799999999999 E2.4820
G1 X43.44799999999999 Y44.788 E2.5637
G1 X16.552 Y44.788 E3.7231
G1 X15.212000000000003 Y43.44799999999999 E3.8048
G1 X15.212000000000003 Y16.552 E4.9641
G92 E0.0000
;retract1
G1 Z0.300 F1200
G1 X17.787999999999997 Y17.787999999999997 F6000
G1 X17.787999999999997 Y18.201999999999998
G1 X18.939999999999998 Y18.939999999999998
G1 Z0.200 F1200
;unretract1
G92 E0.0000
G1 X41.06 Y18.939999999999998 E0.9535 F1440
G1 X41.06 Y41.06 E1.9069
G1 X18.939999999999998 Y41.06 E2.8604
G1 X18.939999999999998 Y18.939999999999998 E3.8139
G1 X18.363999999999997 Y18.363999999999997 F6000
G92 E0.0000
G1 X41.635999999999996 Y18.363999999999997 E1.0031 F1440
G1 X41.635999999999996 Y41.635999999999996 E2.0063
G1 X18.363999999999997 Y41.635999999999996 E3.0094
G1 X18.363999999999997 Y18.363999999999997 E4.0125
G1 X17.787999999999997 Y17.787999999999997 F6000
G92 E0.0000
G1 X42.212 Y17.787999999999997 E1.0528 F1080
G1 X42.212 Y42.212 E2.1056
G1 X17.787999999999997 Y42.212 E3.1584
G1 X17.787999999999997 Y17.787999999999997 E4.2111
G1 X40.465 Y19.286 F6000
G92 E0.0000
G1 X40.714 Y19.534999999999997 E0.0152 F1440
G1 X40.714 Y20.35 E0.0503
G1 X39.650000000000006 Y19.286 E0.1152
G1 X38.836 Y19.286 E0.1503
G1 X40.714 Y21.164 E0.2648
G1 X40.714 Y21.979 E0.2999
G1 X38.021 Y19.286 E0.4640
G1 X37.206999999999994 Y19.286 E0.4992
G1 X40.714 Y22.793 E0.7130
G1 X40.714 Y23.607999999999997 E0.7481
G1 X36.391999999999996 Y19.286 E1.0116
G1 X35.578 Y19.286 E1.0467
G1 X40.714 Y24.421999999999997 E1.3598
G1 X40.714 Y25.237000000000002 E1.3949
G1 X34.763000000000005 Y19.286 E1.7577
G1 X33.948 Y19.286 E1.7928
G1 X40.714 Y26.052 E2.2053
G1 X40.714 Y26.866 E2.2404
G1 X33.134 Y19.286 E2.7025
G1 X32.319 Y19.286 E2.7376
G1 X40.714 Y27.680999999999997 E3.2494
G1 X40.714 Y28.494999999999997 E3.2845
G1 X31.505000000000003 Y19.286 E3.8459
G1 X30.689999999999998 Y19.286 E3.8810
G1 X40.714 Y29.310000000000002 E4.4921
G1 X40.714 Y30.125 E4.5272
G1 X29.875 Y19.286 E5.1879
G1 X29.061 Y19.286 E5.2231
G1 X40.714 Y30.939 E5.9334
G1 X40.714 Y31.753999999999998 E5.9686
G1 X28.246000000000002 Y19.286 E6.7286
G1 X27.432000000000002 Y19.286 E6.7637
G1 X40.714 Y32.568 E7.5734
G1 X40.714 Y33.383 E7.6085
G1 X26.616999999999997 Y19.286 E8.4679
G1 X25.802 Y19.286 E8.5030
G1 X40.714 Y34.19799999999999 E9.4120
G1 X40.714 Y35.012 E9.4471
G1 X24.988 Y19.286 E10.4058
G1 X24.173000000000002 Y19.286 E10.4409
G1 X40.714 Y35.827 E11.4493
G1 X40.714 Y36.641000000000005 E11.4844
G1 X23.359 Y19.286 E12.5424
G1 X22.543999999999997 Y19.286 E12.5775
G1 X40.714 Y37.456 E13.6851
G1 X40.714 Y38.269999999999996 E13.7202
G1 X21.729999999999997 Y19.286 E14.8775
G1 X20.915 Y19.286 E14.9127
G1 X40.714 Y39.084999999999994 E16.1196
G1 X40.714 Y39.900000000000006 E16.1547
G1 X20.1 Y19.286 E17.4113
G1 X19.286 Y19.286 E17.4465
G1 X40.714 Y40.714 E18.7527
G1 X39.900000000000006 Y40.714 E18.7879
G1 X19.286 Y20.1 E20.0445
G1 X19.286 Y20.915 E20.0796
G1 X39.084999999999994 Y40.714 E21.2865
G1 X38.269999999999996 Y40.714 E21.3217
G1 X19.286 Y21.729999999999997 E22.4790
G1 X19.286 Y22.543999999999997 E22.5141
G1 X37.456 Y40.714 E23.6217
G1 X36.641000000000005 Y40.714 E23.6568
G1 X19.286 Y23.359 E24.7148
G1 X19.286 Y24.173000000000002 E24.7499
G1 X35.827 Y40.714 E25.7583
G1 X35.012 Y40.714 E25.7934
G1 X19.286 Y24.988 E26.7521
G1 X19.286 Y25.802 E26.7872
G1 X34.19799999999999 Y40.714 E27.6962
G1 X33.383 Y40.714 E27.7313
G1 X19.286 Y26.616999999999997 E28.5907
G1 X19.286 Y27.432000000000002 E28.6258
G1 X32.568 Y40.714 E29.4355
G1 X31.753999999999998 Y40.714 E29.4706
G1 X19.286 Y28.246000000000002 E30.2307
G1 X19.286 Y29.061 E30.2658
G1 X30.939 Y40.714 E30.9762
G1 X30.125 Y40.714 E31.0113
G1 X19.286 Y29.875 E31.6720
G1 X19.286 Y30.689999999999998 E31.7071
G1 X29.310000000000002 Y40.714 E32.3182
G1 X28.494999999999997 Y40.714 E32.3533
G1 X19.286 Y31.505000000000003 E32.9147
G1 X19.286 Y32.319 E32.9499
G1 X27.680999999999997 Y40.714 E33.4616
G1 X26.866 Y40.714 E33.4967
G1 X19.286 Y33.134 E33.9588
G1 X19.286 Y33.948 E33.9939
G1 X26.052 Y40.714 E34.4064
G1 X25.237000000000002 Y40.714 E34.4415
G1 X19.286 Y34.763000000000005 E34.8043
G1 X19.286 Y35.577 E34.8394
G1 X24.423000000000002 Y40.714 E35.1525
G1 X23.607999999999997 Y40.714 E35.1877
G1 X19.286 Y36.391999999999996 E35.4511
G1 X19.286 Y37.206999999999994 E35.4863
G1 X22.793 Y40.714 E35.7001
G1 X21.979 Y40.714 E35.7352
G1 X19.286 Y38.021 E35.8994
G1 X19.286 Y38.836 E35.9345
G1 X21.164 Y40.714 E36.0490
G1 X20.35 Y40.714 E36.0841
G1 X19.286 Y39.650000000000006 E36.1489
G1 X19.286 Y40.465 E36.1840
G1 X19.534999999999997 Y40.714 E36.1992
G92 E0.0000
;retract1
; squarez 2

;process Process
;layer 1, Z = 0.200
T0
G92 E0.0000
;retract1
;fan1;
G1 Z0.200 F1200
G1 X14.636000000000003 Y156.314 F6000
;unretract1
G92 E0.0000
G1 X16.314 Y154.636 E0.1023 F1800
G1 X43.68600000000001 Y154.636 E1.2822
G1 X45.364000000000004 Y156.314 E1.3844
G1 X45.364000000000004 Y183.686 E2.5643
G1 X43.68600000000001 Y185.364 E2.6666
G1 X16.314 Y185.364 E3.8465
G1 X14.636000000000003 Y183.686 E3.9487
G1 X14.636000000000003 Y156.314 E5.1286
G92 E0.0000
;retract1
G1 Z0.300 F1200
G1 X15.212000000000003 Y156.552 F6000
G1 Z0.200 F1200
;unretract1
G92 E0.0000
G1 X16.552 Y155.212 E0.0817 F1800
G1 X43.44799999999999 Y155.212 E1.2410
G1 X44.788 Y156.552 E1.3227
G1 X44.788 Y183.44799999999998 E2.4820
G1 X43.44799999999999 Y184.788 E2.5637
G1 X16.552 Y184.788 E3.7231
G1 X15.212000000000003 Y183.44799999999998 E3.8048
G1 X15.212000000000003 Y156.552 E4.9641
G92 E0.0000
;retract1
G1 Z0.300 F1200
G1 X17.787999999999997 Y157.788 F6000
G1 X17.787999999999997 Y158.202
G1 X18.939999999999998 Y158.94
G1 Z0.200 F1200
;unretract1
G92 E0.0000
G1 X41.06 Y158.94 E0.9535 F1440
G1 X41.06 Y181.06 E1.9069
G1 X18.939999999999998 Y181.06 E2.8604
G1 X18.939999999999998 Y158.94 E3.8139
G1 X18.363999999999997 Y158.364 F6000
G92 E0.0000
G1 X41.635999999999996 Y158.364 E1.0031 F1440
G1 X41.635999999999996 Y181.636 E2.0063
G1 X18.363999999999997 Y181.636 E3.0094
G1 X18.363999999999997 Y158.364 E4.0125
G1 X17.787999999999997 Y157.788 F6000
G92 E0.0000
G1 X42.212 Y157.788 E1.0528 F1080
G1 X42.212 Y182.212 E2.1056
G1 X17.787999999999997 Y182.212 E3.1584
G1 X17.787999999999997 Y157.788 E4.2111
G1 X40.465 Y159.286 F6000
G92 E0.0000
G1 X40.714 Y159.535 E0.0152 F1440
G1 X40.714 Y160.35 E0.0503
G1 X39.650000000000006 Y159.286 E0.1152
G1 X38.836 Y159.286 E0.1503
G1 X40.714 Y161.164 E0.2648
G1 X40.714 Y161.97899999999998 E0.2999
G1 X38.021 Y159.286 E0.4640
G1 X37.206999999999994 Y159.286 E0.4992
G1 X40.714 Y162.793 E0.7130
G1 X40.714 Y163.608 E0.7481
G1 X36.391999999999996 Y159.286 E1.0116
G1 X35.578 Y159.286 E1.0467
G1 X40.714 Y164.422 E1.3598
G1 X40.714 Y165.237 E1.3949
G1 X34.763000000000005 Y159.286 E1.7577
G1 X33.948 Y159.286 E1.7928
G1 X40.714 Y166.052 E2.2053
G1 X40.714 Y166.86599999999999 E2.2404
G1 X33.134 Y159.286 E2.7025
G1 X32.319 Y159.286 E2.7376
G1 X40.714 Y167.68099999999998 E3.2494
G1 X40.714 Y168.495 E3.2845
G1 X31.505000000000003 Y159.286 E3.8459
G1 X30.689999999999998 Y159.286 E3.8810
G1 X40.714 Y169.31 E4.4921
G1 X40.714 Y170.125 E4.5272
G1 X29.875 Y159.286 E5.1879
G1 X29.061 Y159.286 E5.2231
G1 X40.714 Y170.939 E5.9334
G1 X40.714 Y171.754 E5.9686
G1 X28.246000000000002 Y159.286 E6.7286
G1 X27.432000000000002 Y159.286 E6.7637
G1 X40.714 Y172.56799999999998 E7.5734
G1 X40.714 Y173.383 E7.6085
G1 X26.616999999999997 Y159.286 E8.4679
G1 X25.802 Y159.286 E8.5030
G1 X40.714 Y174.19799999999998 E9.4120
G1 X40.714 Y175.012 E9.4471
G1 X24.988 Y159.286 E10.4058
G1 X24.173000000000002 Y159.286 E10.4409
G1 X40.714 Y175.827 E11.4493
G1 X40.714 Y176.64100000000002 E11.4844
G1 X23.359 Y159.286 E12.5424
G1 X22.543999999999997 Y159.286 E12.5775
G1 X40.714 Y177.45600000000002 E13.6851
G1 X40.714 Y178.26999999999998 E13.7202
G1 X21.729999999999997 Y159.286 E14.8775
G1 X20.915 Y159.286 E14.9127
G1 X40.714 Y179.08499999999998 E16.1196
G1 X40.714 Y179.9 E16.1547
G1 X20.1 Y159.286 E17.4113
G1 X19.286 Y159.286 E17.4465
G1 X40.714 Y180.714 E18.7527
G1 X39.900000000000006 Y180.714 E18.7879
G1 X19.286 Y160.1 E20.0445
G1 X19.286 Y160.915 E20.0796
G1 X39.084999999999994 Y180.714 E21.2865
G1 X38.269999999999996 Y180.714 E21.3217
G1 X19.286 Y161.73 E22.4790
G1 X19.286 Y162.54399999999998 E22.5141
G1 X37.456 Y180.714 E23.6217
G1 X36.641000000000005 Y180.714 E23.6568
G1 X19.286 Y163.359 E24.7148
G1 X19.286 Y164.173 E24.7499
G1 X35.827 Y180.714 E25.7583
G1 X35.012 Y180.714 E25.7934
G1 X19.286 Y164.988 E26.7521
G1 X19.286 Y165.802 E26.7872
G1 X34.19799999999999 Y180.714 E27.6962
G1 X33.383 Y180.714 E27.7313
G1 X19.286 Y166.617 E28.5907
G1 X19.286 Y167.43200000000002 E28.6258
G1 X32.568 Y180.714 E29.4355
G1 X31.753999999999998 Y180.714 E29.4706
G1 X19.286 Y168.246 E30.2307
G1 X19.286 Y169.061 E30.2658
G1 X30.939 Y180.714 E30.9762
G1 X30.125 Y180.714 E31.0113
G1 X19.286 Y169.875 E31.6720
G1 X19.286 Y170.69 E31.7071
G1 X29.310000000000002 Y180.714 E32.3182
G1 X28.494999999999997 Y180.714 E32.3533
G1 X19.286 Y171.505 E32.9147
G1 X19.286 Y172.31900000000002 E32.9499
G1 X27.680999999999997 Y180.714 E33.4616
G1 X26.866 Y180.714 E33.4967
G1 X19.286 Y173.13400000000001 E33.9588
G1 X19.286 Y173.948 E33.9939
G1 X26.052 Y180.714 E34.4064
G1 X25.237000000000002 Y180.714 E34.4415
G1 X19.286 Y174.763 E34.8043
G1 X19.286 Y175.577 E34.8394
G1 X24.423000000000002 Y180.714 E35.1525
G1 X23.607999999999997 Y180.714 E35.1877
G1 X19.286 Y176.392 E35.4511
G1 X19.286 Y177.207 E35.4863
G1 X22.793 Y180.714 E35.7001
G1 X21.979 Y180.714 E35.7352
G1 X19.286 Y178.02100000000002 E35.8994
G1 X19.286 Y178.836 E35.9345
G1 X21.164 Y180.714 E36.0490
G1 X20.35 Y180.714 E36.0841
G1 X19.286 Y179.65 E36.1489
G1 X19.286 Y180.465 E36.1840
G1 X19.534999999999997 Y180.714 E36.1992
G92 E0.0000
;retract1
; squarez 3

;process Process
;layer 1, Z = 0.200
T0
G92 E0.0000
;retract1
;fan1;
G1 Z0.200 F1200
G1 X99.636 Y86.314 F6000
;unretract1
G92 E0.0000
G1 X101.314 Y84.636 E0.1023 F1800
G1 X128.686 Y84.636 E1.2822
G1 X130.364 Y86.314 E1.3844
G1 X130.364 Y113.686 E2.5643
G1 X128.686 Y115.364 E2.6666
G1 X101.314 Y115.364 E3.8465
G1 X99.636 Y113.686 E3.9487
G1 X99.636 Y86.314 E5.1286
G92 E0.0000
;retract1
G1 Z0.300 F1200
G1 X100.212 Y86.55199999999999 F6000
G1 Z0.200 F1200
;unretract1
G92 E0.0000
G1 X101.55199999999999 Y85.212 E0.0817 F1800
G1 X128.44799999999998 Y85.212 E1.2410
G1 X129.788 Y86.55199999999999 E1.3227
G1 X129.788 Y113.448 E2.4820
G1 X128.44799999999998 Y114.788 E2.5637
G1 X101.55199999999999 Y114.788 E3.7231
G1 X100.212 Y113.448 E3.8048
G1 X100.212 Y86.55199999999999 E4.9641
G92 E0.0000
;retract1
G1 Z0.300 F1200
G1 X102.788 Y87.788 F6000
G1 X102.788 Y88.202
G1 X103.94 Y88.94
G1 Z0.200 F1200
;unretract1
G92 E0.0000
G1 X126.06 Y88.94 E0.9535 F1440
G1 X126.06 Y111.06 E1.9069
G1 X103.94 Y111.06 E2.8604
G1 X103.94 Y88.94 E3.8139
G1 X103.364 Y88.364 F6000
G92 E0.0000
G1 X126.636 Y88.364 E1.0031 F1440
G1 X126.636 Y111.636 E2.0063
G1 X103.364 Y111.636 E3.0094
G1 X103.364 Y88.364 E4.0125
G1 X102.788 Y87.788 F6000
G92 E0.0000
G1 X127.212 Y87.788 E1.0528 F1080
G1 X127.212 Y112.212 E2.1056
G1 X102.788 Y112.212 E3.1584
G1 X102.788 Y87.788 E4.2111
G1 X125.465 Y89.286 F6000
G92 E0.0000
G1 X125.714 Y89.535 E0.0152 F1440
G1 X125.714 Y90.35 E0.0503
G1 X124.65 Y89.286 E0.1152
G1 X123.836 Y89.286 E0.1503
G1 X125.714 Y91.164 E0.2648
G1 X125.714 Y91.979 E0.2999
G1 X123.021 Y89.286 E0.4640
G1 X122.207 Y89.286 E0.4992
G1 X125.714 Y92.793 E0.7130
G1 X125.714 Y93.608 E0.7481
G1 X121.392 Y89.286 E1.0116
G1 X120.578 Y89.286 E1.0467
G1 X125.714 Y94.422 E1.3598
G1 X125.714 Y95.237 E1.3949
G1 X119.763 Y89.286 E1.7577
G1 X118.94800000000001 Y89.286 E1.7928
G1 X125.714 Y96.05199999999999 E2.2053
G1 X125.714 Y96.866 E2.2404
G1 X118.134 Y89.286 E2.7025
G1 X117.319 Y89.286 E2.7376
G1 X125.714 Y97.681 E3.2494
G1 X125.714 Y98.495 E3.2845
G1 X116.505 Y89.286 E3.8459
G1 X115.69 Y89.286 E3.8810
G1 X125.714 Y99.31 E4.4921
G1 X125.714 Y100.125 E4.5272
G1 X114.875 Y89.286 E5.1879
G1 X114.061 Y89.286 E5.2231
G1 X125.714 Y100.939 E5.9334
G1 X125.714 Y101.75399999999999 E5.9686
G1 X113.24600000000001 Y89.286 E6.7286
G1 X112.432 Y89.286 E6.7637
G1 X125.714 Y102.568 E7.5734
G1 X125.714 Y103.38300000000001 E7.6085
G1 X111.61699999999999 Y89.286 E8.4679
G1 X110.80199999999999 Y89.286 E8.5030
G1 X125.714 Y104.198 E9.4120
G1 X125.714 Y105.012 E9.4471
G1 X109.988 Y89.286 E10.4058
G1 X109.173 Y89.286 E10.4409
G1 X125.714 Y105.827 E11.4493
G1 X125.714 Y106.641 E11.4844
G1 X108.35900000000001 Y89.286 E12.5424
G1 X107.544 Y89.286 E12.5775
G1 X125.714 Y107.456 E13.6851
G1 X125.714 Y108.27 E13.7202
G1 X106.72999999999999 Y89.286 E14.8775
G1 X105.91499999999999 Y89.286 E14.9127
G1 X125.714 Y109.085 E16.1196
G1 X125.714 Y109.9 E16.1547
G1 X105.1 Y89.286 E17.4113
G1 X104.286 Y89.286 E17.4465
G1 X125.714 Y110.714 E18.7527
G1 X124.9 Y110.714 E18.7879
G1 X104.286 Y90.1 E20.0445
G1 X104.286 Y90.91499999999999 E20.0796
G1 X124.085 Y110.714 E21.2865
G1 X123.27 Y110.714 E21.3217
G1 X104.286 Y91.72999999999999 E22.4790
G1 X104.286 Y92.544 E22.5141
G1 X122.456 Y110.714 E23.6217
G1 X121.641 Y110.714 E23.6568
G1 X104.286 Y93.35900000000001 E24.7148
G1 X104.286 Y94.173 E24.7499
G1 X120.827 Y110.714 E25.7583
G1 X120.012 Y110.714 E25.7934
G1 X104.286 Y94.988 E26.7521
G1 X104.286 Y95.80199999999999 E26.7872
G1 X119.198 Y110.714 E27.6962
G1 X118.38300000000001 Y110.714 E27.7313
G1 X104.286 Y96.61699999999999 E28.5907
G1 X104.286 Y97.432 E28.6258
G1 X117.568 Y110.714 E29.4355
G1 X116.75399999999999 Y110.714 E29.4706
G1 X104.286 Y98.24600000000001 E30.2307
G1 X104.286 Y99.061 E30.2658
G1 X115.939 Y110.714 E30.9762
G1 X115.125 Y110.714 E31.0113
G1 X104.286 Y99.875 E31.6720
G1 X104.286 Y100.69 E31.7071
G1 X114.31 Y110.714 E32.3182
G1 X113.495 Y110.714 E32.3533
G1 X104.286 Y101.505 E32.9147
G1 X104.286 Y102.319 E32.9499
G1 X112.681 Y110.714 E33.4616
G1 X111.866 Y110.714 E33.4967
G1 X104.286 Y103.134 E33.9588
G1 X104.286 Y103.94800000000001 E33.9939
G1 X111.05199999999999 Y110.714 E34.4064
G1 X110.237 Y110.714 E34.4415
G1 X104.286 Y104.763 E34.8043
G1 X104.286 Y105.577 E34.8394
G1 X109.423 Y110.714 E35.1525
G1 X108.608 Y110.714 E35.1877
G1 X104.286 Y106.392 E35.4511
G1 X104.286 Y107.207 E35.4863
G1 X107.793 Y110.714 E35.7001
G1 X106.979 Y110.714 E35.7352
G1 X104.286 Y108.021 E35.8994
G1 X104.286 Y108.836 E35.9345
G1 X106.164 Y110.714 E36.0490
G1 X105.35 Y110.714 E36.0841
G1 X104.286 Y109.65 E36.1489
G1 X104.286 Y110.465 E36.1840
G1 X104.535 Y110.714 E36.1992
G92 E0.0000
;retract1
; squarez 4

;process Process
;layer 1, Z = 0.200
T0
G92 E0.0000
;retract1
;fan1;
G1 Z0.200 F1200
G1 X184.636 Y16.314 F6000
;unretract1
G92 E0.0000
G1 X186.314 Y14.636000000000003 E0.1023 F1800
G1 X213.686 Y14.636000000000003 E1.2822
G1 X215.364 Y16.314 E1.3844
G1 X215.364 Y43.68600000000001 E2.5643
G1 X213.686 Y45.364000000000004 E2.6666
G1 X186.314 Y45.364000000000004 E3.8465
G1 X184.636 Y43.68600000000001 E3.9487
G1 X184.636 Y16.314 E5.1286
G92 E0.0000
;retract1
G1 Z0.300 F1200
G1 X185.212 Y16.552 F6000
G1 Z0.200 F1200
;unretract1
G92 E0.0000
G1 X186.552 Y15.212000000000003 E0.0817 F1800
G1 X213.44799999999998 Y15.212000000000003 E1.2410
G1 X214.788 Y16.552 E1.3227
G1 X214.788 Y43.44799999999999 E2.4820
G1 X213.44799999999998 Y44.788 E2.5637
G1 X186.552 Y44.788 E3.7231
G1 X185.212 Y43.44799999999999 E3.8048
G1 X185.212 Y16.552 E4.9641
G92 E0.0000
;retract1
G1 Z0.300 F1200
G1 X187.788 Y17.787999999999997 F6000
G1 X187.788 Y18.201999999999998
G1 X188.94 Y18.939999999999998
G1 Z0.200 F1200
;unretract1
G92 E0.0000
G1 X211.06 Y18.939999999999998 E0.9535 F1440
G1 X211.06 Y41.06 E1.9069
G1 X188.94 Y41.06 E2.8604
G1 X188.94 Y18.939999999999998 E3.8139
G1 X188.364 Y18.363999999999997 F6000
G92 E0.0000
G1 X211.636 Y18.363999999999997 E1.0031 F1440
G1 X211.636 Y41.635999999999996 E2.0063
G1 X188.364 Y41.635999999999996 E3.0094
G1 X188.364 Y18.363999999999997 E4.0125
G1 X187.788 Y17.787999999999997 F6000
G92 E0.0000
G1 X212.212 Y17.787999999999997 E1.0528 F1080
G1 X212.212 Y42.212 E2.1056
G1 X187.788 Y42.212 E3.1584
G1 X187.788 Y17.787999999999997 E4.2111
G1 X210.465 Y19.286 F6000
G92 E0.0000
G1 X210.714 Y19.534999999999997 E0.0152 F1440
G1 X210.714 Y20.35 E0.0503
G1 X209.65 Y19.286 E0.1152
G1 X208.836 Y19.286 E0.1503
G1 X210.714 Y21.164 E0.2648
G1 X210.714 Y21.979 E0.2999
G1 X208.02100000000002 Y19.286 E0.4640
G1 X207.207 Y19.286 E0.4992
G1 X210.714 Y22.793 E0.7130
G1 X210.714 Y23.607999999999997 E0.7481
G1 X206.392 Y19.286 E1.0116
G1 X205.578 Y19.286 E1.0467
G1 X210.714 Y24.421999999999997 E1.3598
G1 X210.714 Y25.237000000000002 E1.3949
G1 X204.763 Y19.286 E1.7577
G1 X203.948 Y19.286 E1.7928
G1 X210.714 Y26.052 E2.2053
G1 X210.714 Y26.866 E2.2404
G1 X203.13400000000001 Y19.286 E2.7025
G1 X202.31900000000002 Y19.286 E2.7376
G1 X210.714 Y27.680999999999997 E3.2494
G1 X210.714 Y28.494999999999997 E3.2845
G1 X201.505 Y19.286 E3.8459
G1 X200.69 Y19.286 E3.8810
G1 X210.714 Y29.310000000000002 E4.4921
G1 X210.714 Y30.125 E4.5272
G1 X199.875 Y19.286 E5.1879
G1 X199.061 Y19.286 E5.2231
G1 X210.714 Y30.939 E5.9334
G1 X210.714 Y31.753999999999998 E5.9686
G1 X198.246 Y19.286 E6.7286
G1 X197.43200000000002 Y19.286 E6.7637
G1 X210.714 Y32.568 E7.5734
G1 X210.714 Y33.383 E7.6085
G1 X196.617 Y19.286 E8.4679
G1 X195.802 Y19.286 E8.5030
G1 X210.714 Y34.19799999999999 E9.4120
G1 X210.714 Y35.012 E9.4471
G1 X194.988 Y19.286 E10.4058
G1 X194.173 Y19.286 E10.4409
G1 X210.714 Y35.827 E11.4493
G1 X210.714 Y36.641000000000005 E11.4844
G1 X193.359 Y19.286 E12.5424
G1 X192.54399999999998 Y19.286 E12.5775
G1 X210.714 Y37.456 E13.6851
G1 X210.714 Y38.269999999999996 E13.7202
G1 X191.73 Y19.286 E14.8775
G1 X190.915 Y19.286 E14.9127
G1 X210.714 Y39.084999999999994 E16.1196
G1 X210.714 Y39.900000000000006 E16.1547
G1 X190.1 Y19.286 E17.4113
G1 X189.286 Y19.286 E17.4465
G1 X210.714 Y40.714 E18.7527
G1 X209.9 Y40.714 E18.7879
G1 X189.286 Y20.1 E20.0445
G1 X189.286 Y20.915 E20.0796
G1 X209.08499999999998 Y40.714 E21.2865
G1 X208.26999999999998 Y40.714 E21.3217
G1 X189.286 Y21.729999999999997 E22.4790
G1 X189.286 Y22.543999999999997 E22.5141
G1 X207.45600000000002 Y40.714 E23.6217
G1 X206.64100000000002 Y40.714 E23.6568
G1 X189.286 Y23.359 E24.7148
G1 X189.286 Y24.173000000000002 E24.7499
G1 X205.827 Y40.714 E25.7583
G1 X205.012 Y40.714 E25.7934
G1 X189.286 Y24.988 E26.7521
G1 X189.286 Y25.802 E26.7872
G1 X204.19799999999998 Y40.714 E27.6962
G1 X203.383 Y40.714 E27.7313
G1 X189.286 Y26.616999999999997 E28.5907
G1 X189.286 Y27.432000000000002 E28.6258
G1 X202.56799999999998 Y40.714 E29.4355
G1 X201.754 Y40.714 E29.4706
G1 X189.286 Y28.246000000000002 E30.2307
G1 X189.286 Y29.061 E30.2658
G1 X200.939 Y40.714 E30.9762
G1 X200.125 Y40.714 E31.0113
G1 X189.286 Y29.875 E31.6720
G1 X189.286 Y30.689999999999998 E31.7071
G1 X199.31 Y40.714 E32.3182
G1 X198.495 Y40.714 E32.3533
G1 X189.286 Y31.505000000000003 E32.9147
G1 X189.286 Y32.319 E32.9499
G1 X197.68099999999998 Y40.714 E33.4616
G1 X196.86599999999999 Y40.714 E33.4967
G1 X189.286 Y33.134 E33.9588
G1 X189.286 Y33.948 E33.9939
G1 X196.052 Y40.714 E34.4064
G1 X195.237 Y40.714 E34.4415
G1 X189.286 Y34.763000000000005 E34.8043
G1 X189.286 Y35.577 E34.8394
G1 X194.423 Y40.714 E35.1525
G1 X193.608 Y40.714 E35.1877
G1 X189.286 Y36.391999999999996 E35.4511
G1 X189.286 Y37.206999999999994 E35.4863
G1 X192.793 Y40.714 E35.7001
G1 X191.97899999999998 Y40.714 E35.7352
G1 X189.286 Y38.021 E35.8994
G1 X189.286 Y38.836 E35.9345
G1 X191.164 Y40.714 E36.0490
G1 X190.35 Y40.714 E36.0841
G1 X189.286 Y39.650000000000006 E36.1489
G1 X189.286 Y40.465 E36.1840
G1 X189.535 Y40.714 E36.1992
G92 E0.0000
;retract1
; squarez 5

;process Process
;layer 1, Z = 0.200
T0
G92 E0.0000
;retract1
;fan1;
G1 Z0.200 F1200
G1 X184.636 Y156.314 F6000
;unretract1
G92 E0.0000
G1 X186.314 Y154.636 E0.1023 F1800
G1 X213.686 Y154.636 E1.2822
G1 X215.364 Y156.314 E1.3844
G1 X215.364 Y183.686 E2.5643
G1 X213.686 Y185.364 E2.6666
G1 X186.314 Y185.364 E3.8465
G1 X184.636 Y183.686 E3.9487
G1 X184.636 Y156.314 E5.1286
G92 E0.0000
;retract1
G1 Z0.300 F1200
G1 X185.212 Y156.552 F6000
G1 Z0.200 F1200
;unretract1
G92 E0.0000
G1 X186.552 Y155.212 E0.0817 F1800
G1 X213.44799999999998 Y155.212 E1.2410
G1 X214.788 Y156.552 E1.3227
G1 X214.788 Y183.44799999999998 E2.4820
G1 X213.44799999999998 Y184.788 E2.5637
G1 X186.552 Y184.788 E3.7231
G1 X185.212 Y183.44799999999998 E3.8048
G1 X185.212 Y156.552 E4.9641
G92 E0.0000
;retract1
G1 Z0.300 F1200
G1 X187.788 Y157.788 F6000
G1 X187.788 Y158.202
G1 X188.94 Y158.94
G1 Z0.200 F1200
;unretract1
G92 E0.0000
G1 X211.06 Y158.94 E0.9535 F1440
G1 X211.06 Y181.06 E1.9069
G1 X188.94 Y181.06 E2.8604
G1 X188.94 Y158.94 E3.8139
G1 X188.364 Y158.364 F6000
G92 E0.0000
G1 X211.636 Y158.364 E1.0031 F1440
G1 X211.636 Y181.636 E2.0063
G1 X188.364 Y181.636 E3.0094
G1 X188.364 Y158.364 E4.0125
G1 X187.788 Y157.788 F6000
G92 E0.0000
G1 X212.212 Y157.788 E1.0528 F1080
G1 X212.212 Y182.212 E2.1056
G1 X187.788 Y182.212 E3.1584
G1 X187.788 Y157.788 E4.2111
G1 X210.465 Y159.286 F6000
G92 E0.0000
G1 X210.714 Y159.535 E0.0152 F1440
G1 X210.714 Y160.35 E0.0503
G1 X209.65 Y159.286 E0.1152
G1 X208.836 Y159.286 E0.1503
G1 X210.714 Y161.164 E0.2648
G1 X210.714 Y161.97899999999998 E0.2999
G1 X208.02100000000002 Y159.286 E0.4640
G1 X207.207 Y159.286 E0.4992
G1 X210.714 Y162.793 E0.7130
G1 X210.714 Y163.608 E0.7481
G1 X206.392 Y159.286 E1.0116
G1 X205.578 Y159.286 E1.0467
G1 X210.714 Y164.422 E1.3598
G1 X210.714 Y165.237 E1.3949
G1 X204.763 Y159.286 E1.7577
G1 X203.948 Y159.286 E1.7928
G1 X210.714 Y166.052 E2.2053
G1 X210.714 Y166.86599999999999 E2.2404
G1 X203.13400000000001 Y159.286 E2.7025
G1 X202.31900000000002 Y159.286 E2.7376
G1 X210.714 Y167.68099999999998 E3.2494
G1 X210.714 Y168.495 E3.2845
G1 X201.505 Y159.286 E3.8459
G1 X200.69 Y159.286 E3.8810
G1 X210.714 Y169.31 E4.4921
G1 X210.714 Y170.125 E4.5272
G1 X199.875 Y159.286 E5.1879
G1 X199.061 Y159.286 E5.2231
G1 X210.714 Y170.939 E5.9334
G1 X210.714 Y171.754 E5.9686
G1 X198.246 Y159.286 E6.7286
G1 X197.43200000000002 Y159.286 E6.7637
G1 X210.714 Y172.56799999999998 E7.5734
G1 X210.714 Y173.383 E7.6085
G1 X196.617 Y159.286 E8.4679
G1 X195.802 Y159.286 E8.5030
G1 X210.714 Y174.19799999999998 E9.4120
G1 X210.714 Y175.012 E9.4471
G1 X194.988 Y159.286 E10.4058
G1 X194.173 Y159.286 E10.4409
G1 X210.714 Y175.827 E11.4493
G1 X210.714 Y176.64100000000002 E11.4844
G1 X193.359 Y159.286 E12.5424
G1 X192.54399999999998 Y159.286 E12.5775
G1 X210.714 Y177.45600000000002 E13.6851
G1 X210.714 Y178.26999999999998 E13.7202
G1 X191.73 Y159.286 E14.8775
G1 X190.915 Y159.286 E14.9127
G1 X210.714 Y179.08499999999998 E16.1196
G1 X210.714 Y179.9 E16.1547
G1 X190.1 Y159.286 E17.4113
G1 X189.286 Y159.286 E17.4465
G1 X210.714 Y180.714 E18.7527
G1 X209.9 Y180.714 E18.7879
G1 X189.286 Y160.1 E20.0445
G1 X189.286 Y160.915 E20.0796
G1 X209.08499999999998 Y180.714 E21.2865
G1 X208.26999999999998 Y180.714 E21.3217
G1 X189.286 Y161.73 E22.4790
G1 X189.286 Y162.54399999999998 E22.5141
G1 X207.45600000000002 Y180.714 E23.6217
G1 X206.64100000000002 Y180.714 E23.6568
G1 X189.286 Y163.359 E24.7148
G1 X189.286 Y164.173 E24.7499
G1 X205.827 Y180.714 E25.7583
G1 X205.012 Y180.714 E25.7934
G1 X189.286 Y164.988 E26.7521
G1 X189.286 Y165.802 E26.7872
G1 X204.19799999999998 Y180.714 E27.6962
G1 X203.383 Y180.714 E27.7313
G1 X189.286 Y166.617 E28.5907
G1 X189.286 Y167.43200000000002 E28.6258
G1 X202.56799999999998 Y180.714 E29.4355
G1 X201.754 Y180.714 E29.4706
G1 X189.286 Y168.246 E30.2307
G1 X189.286 Y169.061 E30.2658
G1 X200.939 Y180.714 E30.9762
G1 X200.125 Y180.714 E31.0113
G1 X189.286 Y169.875 E31.6720
G1 X189.286 Y170.69 E31.7071
G1 X199.31 Y180.714 E32.3182
G1 X198.495 Y180.714 E32.3533
G1 X189.286 Y171.505 E32.9147
G1 X189.286 Y172.31900000000002 E32.9499
G1 X197.68099999999998 Y180.714 E33.4616
G1 X196.86599999999999 Y180.714 E33.4967
G1 X189.286 Y173.13400000000001 E33.9588
G1 X189.286 Y173.948 E33.9939
G1 X196.052 Y180.714 E34.4064
G1 X195.237 Y180.714 E34.4415
G1 X189.286 Y174.763 E34.8043
G1 X189.286 Y175.577 E34.8394
G1 X194.423 Y180.714 E35.1525
G1 X193.608 Y180.714 E35.1877
G1 X189.286 Y176.392 E35.4511
G1 X189.286 Y177.207 E35.4863
G1 X192.793 Y180.714 E35.7001
G1 X191.97899999999998 Y180.714 E35.7352
G1 X189.286 Y178.02100000000002 E35.8994
G1 X189.286 Y178.836 E35.9345
G1 X191.164 Y180.714 E36.0490
G1 X190.35 Y180.714 E36.0841
G1 X189.286 Y179.65 E36.1489
G1 X189.286 Y180.465 E36.1840
G1 X189.535 Y180.714 E36.1992
G92 E0.0000
;retract1
G28 X0 ; home X axis
M106 S0 ; turn off cooling fan
M104 S0 ; turn off extruder
M140 S0 ; turn off bed
M84 ; disable motors
M501 ; restore previous EEPROM values
;customend
