; G-Code originally generated by Simplify3D(R) Version 4.1.2
;This calibration test gcode modified by the Teaching Tech Calibration website: https://teachingtechyt.github.io/calibration.html
;M80 ; power supply on
G90
M82
M106 S0
M140 S55 ; custom bed temp
M190 S55 ; custom bed temp
M104 S200 T0 ; custom hot end temp
M109 S200 T0 ; custom hot end temp
G28 ; home all axes
;G29 ; probe ABL
;M420 S1 ; restore ABL mesh 
;customstart
G0 Z3; fix for delta printers that home at max
;process Process-1
;layer 1, Z = 0.200
T0
G92 E0.0000
G1 E-0.4 F2100 ; custom retraction
;fan1;
G1 Z0.200 F1200
G1 X86.378 Y92.572 F6000
G1 E0 F2100 ; custom un-retraction/prime
G92 E0.0000
G1 X87.43 Y92.136 E0.0491 F1800
G1 X142.57 Y92.136 E2.4259
G1 X143.622 Y92.572 E2.4750
G1 X147.428 Y96.378 E2.7070
G1 X147.864 Y97.43 E2.7561
G1 X147.864 Y102.57 E2.9777
G1 X147.428 Y103.622 E3.0268
G1 X143.622 Y107.428 E3.2588
G1 X142.57 Y107.864 E3.3079
G1 X87.43 Y107.864 E5.6847
G1 X86.378 Y107.428 E5.7338
G1 X82.572 Y103.622 E5.9658
G1 X82.136 Y102.57 E6.0149
G1 X82.136 Y97.43 E6.2364
G1 X82.572 Y96.378 E6.2855
G1 X86.378 Y92.572 E6.5175
G92 E0.0000
G1 E-0.4 F2100 ; custom retraction
;zhop1
G1 X86.70400000000001 Y93.06 F6000
G1 Z0.200 F1200
G1 E0 F2100 ; custom un-retraction/prime
G92 E0.0000
G1 X87.545 Y92.712 E0.0392 F1800
G1 X142.45499999999998 Y92.712 E2.4061
G1 X143.296 Y93.06 E2.4454
G1 X146.94 Y96.70400000000001 E2.6675
G1 X147.288 Y97.545 E2.7067
G1 X147.288 Y102.455 E2.9184
G1 X146.94 Y103.29599999999999 E2.9576
G1 X143.296 Y106.94 E3.1797
G1 X142.45499999999998 Y107.288 E3.2190
G1 X87.545 Y107.288 E5.5859
G1 X86.70400000000001 Y106.94 E5.6251
G1 X83.06 Y103.29599999999999 E5.8472
G1 X82.712 Y102.455 E5.8865
G1 X82.712 Y97.545 E6.0981
G1 X83.06 Y96.70400000000001 E6.1374
G1 X86.70400000000001 Y93.06 E6.3595
G92 E0.0000
G1 E-0.4 F2100 ; custom retraction
;zhop1
G1 X88.119 Y95.288 F6000
G1 X88.012 Y95.396
G1 X88.596 Y96.44
G1 Z0.200 F1200
G1 E0 F2100 ; custom un-retraction/prime
G92 E0.0000
G1 X141.404 Y96.44 E2.2763 F1440
G1 X143.56 Y98.596 E2.4077
G1 X143.56 Y101.404 E2.5287
G1 X141.404 Y103.56 E2.6602
G1 X88.596 Y103.56 E4.9364
G1 X86.44 Y101.404 E5.0679
G1 X86.44 Y98.596 E5.1889
G1 X88.596 Y96.44 E5.3203
G1 X88.358 Y95.864 F6000
G92 E0.0000
G1 X141.642 Y95.864 E2.2968 F1440
G1 X144.136 Y98.358 E2.4489
G1 X144.136 Y101.642 E2.5904
G1 X141.642 Y104.136 E2.7424
G1 X88.358 Y104.136 E5.0393
G1 X85.864 Y101.642 E5.1913
G1 X85.864 Y98.358 E5.3329
G1 X88.358 Y95.864 E5.4849
G1 X88.119 Y95.288 F6000
G92 E0.0000
G1 X141.881 Y95.288 E2.3174 F1080
G1 X144.712 Y98.119 E2.4900
G1 X144.712 Y101.881 E2.6521
G1 X141.881 Y104.712 E2.8247
G1 X88.119 Y104.712 E5.1421
G1 X85.288 Y101.881 E5.3147
G1 X85.288 Y98.119 E5.4768
G1 X88.119 Y95.288 E5.6494
G1 X88.88900000000001 Y103.214 F6000
G92 E0.0000
G1 X86.786 Y101.11099999999999 E0.1282 F1440
G1 X86.786 Y100.29599999999999 E0.1634
G1 X89.70400000000001 Y103.214 E0.3413
G1 X90.518 Y103.214 E0.3764
G1 X86.786 Y99.482 E0.6039
G1 X86.786 Y98.74000000000001 E0.6359
G1 X86.822 Y98.703 E0.6381
G1 X91.333 Y103.214 E0.9131
G1 X92.148 Y103.214 E0.9482
G1 X87.229 Y98.29599999999999 E1.2480
G1 X87.637 Y97.88900000000001 E1.2729
G1 X92.962 Y103.214 E1.5975
G1 X93.777 Y103.214 E1.6326
G1 X88.044 Y97.481 E1.9821
G1 X88.451 Y97.074 E2.0070
G1 X94.59100000000001 Y103.214 E2.3813
G1 X95.406 Y103.214 E2.4164
G1 X88.977 Y96.786 E2.8083
G1 X89.792 Y96.786 E2.8434
G1 X96.221 Y103.214 E3.2353
G1 X97.035 Y103.214 E3.2704
G1 X90.606 Y96.786 E3.6623
G1 X91.42099999999999 Y96.786 E3.6974
G1 X97.85 Y103.214 E4.0893
G1 X98.664 Y103.214 E4.1244
G1 X92.23599999999999 Y96.786 E4.5163
G1 X93.05 Y96.786 E4.5514
G1 X99.479 Y103.214 E4.9433
G1 X100.293 Y103.214 E4.9784
G1 X93.86500000000001 Y96.786 E5.3703
G1 X94.679 Y96.786 E5.4055
G1 X101.108 Y103.214 E5.7974
G1 X101.923 Y103.214 E5.8325
G1 X95.494 Y96.786 E6.2244
G1 X96.30799999999999 Y96.786 E6.2595
G1 X102.737 Y103.214 E6.6514
G1 X103.55199999999999 Y103.214 E6.6865
G1 X97.12299999999999 Y96.786 E7.0784
G1 X97.938 Y96.786 E7.1135
G1 X104.366 Y103.214 E7.5054
G1 X105.181 Y103.214 E7.5405
G1 X98.75200000000001 Y96.786 E7.9324
G1 X99.56700000000001 Y96.786 E7.9675
G1 X105.99600000000001 Y103.214 E8.3594
G1 X106.81 Y103.214 E8.3945
G1 X100.381 Y96.786 E8.7864
G1 X101.196 Y96.786 E8.8216
G1 X107.625 Y103.214 E9.2135
G1 X108.439 Y103.214 E9.2486
G1 X102.011 Y96.786 E9.6405
G1 X102.825 Y96.786 E9.6756
G1 X109.25399999999999 Y103.214 E10.0675
G1 X110.069 Y103.214 E10.1026
G1 X103.64 Y96.786 E10.4945
G1 X104.45400000000001 Y96.786 E10.5296
G1 X110.88300000000001 Y103.214 E10.9215
G1 X111.69800000000001 Y103.214 E10.9566
G1 X105.269 Y96.786 E11.3485
G1 X106.084 Y96.786 E11.3836
G1 X112.512 Y103.214 E11.7755
G1 X113.327 Y103.214 E11.8106
G1 X106.898 Y96.786 E12.2025
G1 X107.713 Y96.786 E12.2376
G1 X114.14099999999999 Y103.214 E12.6295
G1 X114.956 Y103.214 E12.6647
G1 X108.527 Y96.786 E13.0566
G1 X109.342 Y96.786 E13.0917
G1 X115.771 Y103.214 E13.4836
G1 X116.58500000000001 Y103.214 E13.5187
G1 X110.156 Y96.786 E13.9106
G1 X110.971 Y96.786 E13.9457
G1 X117.4 Y103.214 E14.3376
G1 X118.214 Y103.214 E14.3727
G1 X111.786 Y96.786 E14.7646
G1 X112.6 Y96.786 E14.7997
G1 X119.029 Y103.214 E15.1916
G1 X119.844 Y103.214 E15.2267
G1 X113.41499999999999 Y96.786 E15.6186
G1 X114.229 Y96.786 E15.6537
G1 X120.658 Y103.214 E16.0456
G1 X121.473 Y103.214 E16.0808
G1 X115.044 Y96.786 E16.4727
G1 X115.85900000000001 Y96.786 E16.5078
G1 X122.287 Y103.214 E16.8997
G1 X123.102 Y103.214 E16.9348
G1 X116.673 Y96.786 E17.3267
G1 X117.488 Y96.786 E17.3618
G1 X123.917 Y103.214 E17.7537
G1 X124.731 Y103.214 E17.7888
G1 X118.30199999999999 Y96.786 E18.1807
G1 X119.117 Y96.786 E18.2158
G1 X125.546 Y103.214 E18.6077
G1 X126.36 Y103.214 E18.6428
G1 X119.931 Y96.786 E19.0347
G1 X120.746 Y96.786 E19.0698
G1 X127.175 Y103.214 E19.4617
G1 X127.989 Y103.214 E19.4968
G1 X121.561 Y96.786 E19.8887
G1 X122.375 Y96.786 E19.9239
G1 X128.804 Y103.214 E20.3158
G1 X129.619 Y103.214 E20.3509
G1 X123.19 Y96.786 E20.7428
G1 X124.004 Y96.786 E20.7779
G1 X130.433 Y103.214 E21.1698
G1 X131.248 Y103.214 E21.2049
G1 X124.819 Y96.786 E21.5968
G1 X125.634 Y96.786 E21.6319
G1 X132.062 Y103.214 E22.0238
G1 X132.877 Y103.214 E22.0589
G1 X126.448 Y96.786 E22.4508
G1 X127.263 Y96.786 E22.4859
G1 X133.692 Y103.214 E22.8778
G1 X134.506 Y103.214 E22.9129
G1 X128.077 Y96.786 E23.3048
G1 X128.892 Y96.786 E23.3399
G1 X135.321 Y103.214 E23.7318
G1 X136.135 Y103.214 E23.7670
G1 X129.707 Y96.786 E24.1589
G1 X130.52100000000002 Y96.786 E24.1940
G1 X136.95 Y103.214 E24.5859
G1 X137.765 Y103.214 E24.6210
G1 X131.336 Y96.786 E25.0129
G1 X132.15 Y96.786 E25.0480
G1 X138.579 Y103.214 E25.4399
G1 X139.394 Y103.214 E25.4750
G1 X132.965 Y96.786 E25.8669
G1 X133.779 Y96.786 E25.9020
G1 X140.208 Y103.214 E26.2939
G1 X141.023 Y103.214 E26.3290
G1 X134.594 Y96.786 E26.7209
G1 X135.409 Y96.786 E26.7560
G1 X141.549 Y102.926 E27.1304
G1 X141.95600000000002 Y102.519 E27.1552
G1 X136.223 Y96.786 E27.5047
G1 X137.038 Y96.786 E27.5398
G1 X142.363 Y102.11099999999999 E27.8644
G1 X142.77100000000002 Y101.70400000000001 E27.8893
G1 X137.852 Y96.786 E28.1891
G1 X138.667 Y96.786 E28.2242
G1 X143.178 Y101.297 E28.4992
G1 X143.214 Y101.25999999999999 E28.5014
G1 X143.214 Y100.518 E28.5334
G1 X139.482 Y96.786 E28.7609
G1 X140.296 Y96.786 E28.7961
G1 X143.214 Y99.70400000000001 E28.9739
G1 X143.214 Y98.88900000000001 E29.0091
G1 X141.111 Y96.786 E29.1373
G92 E0.0000
G1 E-0.4 F2100 ; custom retraction
M104 S190 T0 ; custom hot end temp - A
M106 S255; custom fan 100% from layer 2
G1 Z0.400 F1200
G1 X141.503 Y96.2 F6000
G1 E0 F2100 ; custom un-retraction/prime
G92 E0.0000
G1 X143.8 Y98.497 E0.1167 F2880
G1 X143.8 Y101.503 E0.2247
G1 X141.503 Y103.8 E0.3414
G1 X88.497 Y103.8 E2.2454
G1 X86.2 Y101.503 E2.3621
G1 X86.2 Y98.497 E2.4700
G1 X88.497 Y96.2 E2.5867
G1 X141.503 Y96.2 E4.4908
G1 X141.702 Y95.72 F6000
G92 E0.0000
G1 X144.28 Y98.298 E0.1310 F2880
G1 X144.28 Y101.702 E0.2532
G1 X141.702 Y104.28 E0.3842
G1 X88.298 Y104.28 E2.3025
G1 X85.72 Y101.702 E2.4335
G1 X85.72 Y98.298 E2.5557
G1 X88.298 Y95.72 E2.6867
G1 X141.702 Y95.72 E4.6050
G1 X141.901 Y95.24000000000001 F6000
G92 E0.0000
G1 X144.76 Y98.09899999999999 E0.1453 F2160
G1 X144.76 Y101.90100000000001 E0.2818
G1 X141.901 Y104.76 E0.4271
G1 X88.09899999999999 Y104.76 E2.3596
G1 X85.24 Y101.90100000000001 E2.5049
G1 X85.24 Y98.09899999999999 E2.6414
G1 X88.09899999999999 Y95.24000000000001 E2.7867
G1 X141.901 Y95.24000000000001 E4.7193
G1 X143.512 Y101.356 F6000
G92 E0.0000
G1 X141.356 Y103.512 E0.1095 F2880
G1 X140.67700000000002 Y103.512 E0.1339
G1 X143.512 Y100.67699999999999 E0.2779
G1 X143.512 Y99.999 E0.3023
G1 X139.999 Y103.512 E0.4808
G1 X139.32 Y103.512 E0.5051
G1 X143.512 Y99.32 E0.7181
G1 X143.512 Y98.64099999999999 E0.7425
G1 X138.64100000000002 Y103.512 E0.9899
G1 X137.962 Y103.512 E1.0143
G1 X143.185 Y98.289 E1.2796
G1 X142.845 Y97.95 E1.2969
G1 X137.28300000000002 Y103.512 E1.5794
G1 X136.60399999999998 Y103.512 E1.6038
G1 X142.506 Y97.61 E1.9036
G1 X142.167 Y97.271 E1.9209
G1 X135.926 Y103.512 E2.2379
G1 X135.247 Y103.512 E2.2623
G1 X141.827 Y96.932 E2.5966
G1 X141.488 Y96.592 E2.6138
G1 X134.56799999999998 Y103.512 E2.9653
G1 X133.889 Y103.512 E2.9897
G1 X140.913 Y96.488 E3.3465
G1 X140.23399999999998 Y96.488 E3.3709
G1 X133.20999999999998 Y103.512 E3.7278
G1 X132.53199999999998 Y103.512 E3.7521
G1 X139.55599999999998 Y96.488 E4.1090
G1 X138.877 Y96.488 E4.1333
G1 X131.853 Y103.512 E4.4902
G1 X131.174 Y103.512 E4.5145
G1 X138.19799999999998 Y96.488 E4.8714
G1 X137.519 Y96.488 E4.8957
G1 X130.495 Y103.512 E5.2526
G1 X129.816 Y103.512 E5.2769
G1 X136.84 Y96.488 E5.6338
G1 X136.161 Y96.488 E5.6581
G1 X129.137 Y103.512 E6.0150
G1 X128.459 Y103.512 E6.0393
G1 X135.483 Y96.488 E6.3962
G1 X134.804 Y96.488 E6.4206
G1 X127.78 Y103.512 E6.7774
G1 X127.101 Y103.512 E6.8018
G1 X134.125 Y96.488 E7.1586
G1 X133.446 Y96.488 E7.1830
G1 X126.422 Y103.512 E7.5398
G1 X125.743 Y103.512 E7.5642
G1 X132.767 Y96.488 E7.9210
G1 X132.088 Y96.488 E7.9454
G1 X125.064 Y103.512 E8.3022
G1 X124.386 Y103.512 E8.3266
G1 X131.41 Y96.488 E8.6834
G1 X130.731 Y96.488 E8.7078
G1 X123.707 Y103.512 E9.0646
G1 X123.028 Y103.512 E9.0890
G1 X130.05200000000002 Y96.488 E9.4458
G1 X129.373 Y96.488 E9.4702
G1 X122.349 Y103.512 E9.8270
G1 X121.67 Y103.512 E9.8514
G1 X128.69400000000002 Y96.488 E10.2082
G1 X128.01600000000002 Y96.488 E10.2326
G1 X120.992 Y103.512 E10.5894
G1 X120.313 Y103.512 E10.6138
G1 X127.337 Y96.488 E10.9706
G1 X126.658 Y96.488 E10.9950
G1 X119.634 Y103.512 E11.3518
G1 X118.955 Y103.512 E11.3762
G1 X125.979 Y96.488 E11.7330
G1 X125.3 Y96.488 E11.7574
G1 X118.27600000000001 Y103.512 E12.1142
G1 X117.59700000000001 Y103.512 E12.1386
G1 X124.621 Y96.488 E12.4954
G1 X123.943 Y96.488 E12.5198
G1 X116.919 Y103.512 E12.8766
G1 X116.24000000000001 Y103.512 E12.9010
G1 X123.264 Y96.488 E13.2578
G1 X122.585 Y96.488 E13.2822
G1 X115.561 Y103.512 E13.6390
G1 X114.882 Y103.512 E13.6634
G1 X121.906 Y96.488 E14.0202
G1 X121.227 Y96.488 E14.0446
G1 X114.203 Y103.512 E14.4014
G1 X113.525 Y103.512 E14.4258
G1 X120.549 Y96.488 E14.7826
G1 X119.87 Y96.488 E14.8070
G1 X112.846 Y103.512 E15.1638
G1 X112.167 Y103.512 E15.1882
G1 X119.191 Y96.488 E15.5450
G1 X118.512 Y96.488 E15.5694
G1 X111.488 Y103.512 E15.9262
G1 X110.809 Y103.512 E15.9506
G1 X117.833 Y96.488 E16.3074
G1 X117.154 Y96.488 E16.3318
G1 X110.13 Y103.512 E16.6886
G1 X109.452 Y103.512 E16.7130
G1 X116.476 Y96.488 E17.0698
G1 X115.797 Y96.488 E17.0942
G1 X108.773 Y103.512 E17.4510
G1 X108.094 Y103.512 E17.4754
G1 X115.118 Y96.488 E17.8322
G1 X114.439 Y96.488 E17.8566
G1 X107.41499999999999 Y103.512 E18.2134
G1 X106.73599999999999 Y103.512 E18.2378
G1 X113.75999999999999 Y96.488 E18.5946
G1 X113.081 Y96.488 E18.6190
G1 X106.057 Y103.512 E18.9758
G1 X105.37899999999999 Y103.512 E19.0002
G1 X112.40299999999999 Y96.488 E19.3570
G1 X111.72399999999999 Y96.488 E19.3814
G1 X104.7 Y103.512 E19.7383
G1 X104.021 Y103.512 E19.7626
G1 X111.045 Y96.488 E20.1195
G1 X110.366 Y96.488 E20.1438
G1 X103.342 Y103.512 E20.5007
G1 X102.663 Y103.512 E20.5250
G1 X109.687 Y96.488 E20.8819
G1 X109.009 Y96.488 E20.9062
G1 X101.985 Y103.512 E21.2631
G1 X101.306 Y103.512 E21.2874
G1 X108.33 Y96.488 E21.6443
G1 X107.65100000000001 Y96.488 E21.6686
G1 X100.62700000000001 Y103.512 E22.0255
G1 X99.94800000000001 Y103.512 E22.0498
G1 X106.97200000000001 Y96.488 E22.4067
G1 X106.293 Y96.488 E22.4311
G1 X99.269 Y103.512 E22.7879
G1 X98.59 Y103.512 E22.8123
G1 X105.614 Y96.488 E23.1691
G1 X104.936 Y96.488 E23.1935
G1 X97.912 Y103.512 E23.5503
G1 X97.233 Y103.512 E23.5747
G1 X104.257 Y96.488 E23.9315
G1 X103.578 Y96.488 E23.9559
G1 X96.554 Y103.512 E24.3127
G1 X95.875 Y103.512 E24.3371
G1 X102.899 Y96.488 E24.6939
G1 X102.22 Y96.488 E24.7183
G1 X95.196 Y103.512 E25.0751
G1 X94.517 Y103.512 E25.0995
G1 X101.541 Y96.488 E25.4563
G1 X100.863 Y96.488 E25.4807
G1 X93.839 Y103.512 E25.8375
G1 X93.16 Y103.512 E25.8619
G1 X100.184 Y96.488 E26.2187
G1 X99.505 Y96.488 E26.2431
G1 X92.481 Y103.512 E26.5999
G1 X91.80199999999999 Y103.512 E26.6243
G1 X98.826 Y96.488 E26.9811
G1 X98.14699999999999 Y96.488 E27.0055
G1 X91.12299999999999 Y103.512 E27.3623
G1 X90.445 Y103.512 E27.3867
G1 X97.469 Y96.488 E27.7435
G1 X96.78999999999999 Y96.488 E27.7679
G1 X89.76599999999999 Y103.512 E28.1247
G1 X89.087 Y103.512 E28.1491
G1 X96.11099999999999 Y96.488 E28.5059
G1 X95.432 Y96.488 E28.5303
G1 X88.512 Y103.408 E28.8818
G1 X88.173 Y103.068 E28.8991
G1 X94.753 Y96.488 E29.2333
G1 X94.074 Y96.488 E29.2577
G1 X87.833 Y102.729 E29.5748
G1 X87.494 Y102.39 E29.5920
G1 X93.396 Y96.488 E29.8918
G1 X92.717 Y96.488 E29.9162
G1 X87.155 Y102.05 E30.1988
G1 X86.815 Y101.711 E30.2160
G1 X92.038 Y96.488 E30.4813
G1 X91.35900000000001 Y96.488 E30.5057
G1 X86.488 Y101.35900000000001 E30.7532
G1 X86.488 Y100.68 E30.7775
G1 X90.68 Y96.488 E30.9905
G1 X90.001 Y96.488 E31.0149
G1 X86.488 Y100.001 E31.1934
G1 X86.488 Y99.32300000000001 E31.2178
G1 X89.32300000000001 Y96.488 E31.3618
G1 X88.644 Y96.488 E31.3861
G1 X86.488 Y98.644 E31.4957
G92 E0.0000
G1 E-0.4 F2100 ; custom retraction
;layer 3, Z = 0.600
;fan3;
G1 Z0.600 F1200
G1 X86.2 Y98.497 F6000
G1 E0 F2100 ; custom un-retraction/prime
G92 E0.0000
G1 X88.497 Y96.2 E0.1167 F2880
G1 X141.503 Y96.2 E2.0207
G1 X143.8 Y98.497 E2.1374
G1 X143.8 Y101.503 E2.2454
G1 X141.503 Y103.8 E2.3621
G1 X88.497 Y103.8 E4.2661
G1 X86.2 Y101.503 E4.3828
G1 X86.2 Y98.497 E4.4908
G1 X85.72 Y98.298 F6000
G92 E0.0000
G1 X88.298 Y95.72 E0.1310 F2880
G1 X141.702 Y95.72 E2.0493
G1 X144.28 Y98.298 E2.1803
G1 X144.28 Y101.702 E2.3025
G1 X141.702 Y104.28 E2.4335
G1 X88.298 Y104.28 E4.3518
G1 X85.72 Y101.702 E4.4828
G1 X85.72 Y98.298 E4.6050
G1 X85.24 Y98.09899999999999 F6000
G92 E0.0000
G1 X88.09899999999999 Y95.24000000000001 E0.1453 F2160
G1 X141.901 Y95.24000000000001 E2.0778
G1 X144.76 Y98.09899999999999 E2.2231
G1 X144.76 Y101.90100000000001 E2.3596
G1 X141.901 Y104.76 E2.5049
G1 X88.09899999999999 Y104.76 E4.4375
G1 X85.24 Y101.90100000000001 E4.5828
G1 X85.24 Y98.09899999999999 E4.7193
G1 X88.644 Y103.512 F6000
G92 E0.0000
G1 X86.488 Y101.356 E0.1095 F2880
G1 X86.488 Y100.67699999999999 E0.1339
G1 X89.32300000000001 Y103.512 E0.2779
G1 X90.001 Y103.512 E0.3023
G1 X86.488 Y99.999 E0.4808
G1 X86.488 Y99.32 E0.5052
G1 X90.68 Y103.512 E0.7181
G1 X91.35900000000001 Y103.512 E0.7425
G1 X86.488 Y98.64099999999999 E0.9900
G1 X86.488 Y98.616 E0.9908
G1 X86.815 Y98.289 E1.0075
G1 X92.038 Y103.512 E1.2728
G1 X92.717 Y103.512 E1.2972
G1 X87.155 Y97.95 E1.5797
G1 X87.494 Y97.61 E1.5970
G1 X93.396 Y103.512 E1.8968
G1 X94.074 Y103.512 E1.9211
G1 X87.833 Y97.271 E2.2382
G1 X88.173 Y96.932 E2.2554
G1 X94.753 Y103.512 E2.5897
G1 X95.432 Y103.512 E2.6141
G1 X88.512 Y96.592 E2.9656
G1 X88.616 Y96.488 E2.9709
G1 X89.087 Y96.488 E2.9878
G1 X96.11099999999999 Y103.512 E3.3446
G1 X96.78999999999999 Y103.512 E3.3690
G1 X89.76599999999999 Y96.488 E3.7258
G1 X90.445 Y96.488 E3.7502
G1 X97.469 Y103.512 E4.1070
G1 X98.14699999999999 Y103.512 E4.1314
G1 X91.12299999999999 Y96.488 E4.4882
G1 X91.80199999999999 Y96.488 E4.5126
G1 X98.826 Y103.512 E4.8694
G1 X99.505 Y103.512 E4.8938
G1 X92.481 Y96.488 E5.2506
G1 X93.16 Y96.488 E5.2750
G1 X100.184 Y103.512 E5.6318
G1 X100.863 Y103.512 E5.6562
G1 X93.839 Y96.488 E6.0131
G1 X94.517 Y96.488 E6.0374
G1 X101.541 Y103.512 E6.3943
G1 X102.22 Y103.512 E6.4186
G1 X95.196 Y96.488 E6.7755
G1 X95.875 Y96.488 E6.7998
G1 X102.899 Y103.512 E7.1567
G1 X103.578 Y103.512 E7.1810
G1 X96.554 Y96.488 E7.5379
G1 X97.233 Y96.488 E7.5622
G1 X104.257 Y103.512 E7.9191
G1 X104.936 Y103.512 E7.9434
G1 X97.912 Y96.488 E8.3003
G1 X98.59 Y96.488 E8.3246
G1 X105.614 Y103.512 E8.6815
G1 X106.293 Y103.512 E8.7059
G1 X99.269 Y96.488 E9.0627
G1 X99.94800000000001 Y96.488 E9.0871
G1 X106.97200000000001 Y103.512 E9.4439
G1 X107.65100000000001 Y103.512 E9.4683
G1 X100.62700000000001 Y96.488 E9.8251
G1 X101.306 Y96.488 E9.8495
G1 X108.33 Y103.512 E10.2063
G1 X109.00800000000001 Y103.512 E10.2307
G1 X101.98400000000001 Y96.488 E10.5875
G1 X102.663 Y96.488 E10.6119
G1 X109.687 Y103.512 E10.9687
G1 X110.366 Y103.512 E10.9931
G1 X103.342 Y96.488 E11.3499
G1 X104.021 Y96.488 E11.3743
G1 X111.045 Y103.512 E11.7311
G1 X111.72399999999999 Y103.512 E11.7555
G1 X104.7 Y96.488 E12.1123
G1 X105.37899999999999 Y96.488 E12.1367
G1 X112.40299999999999 Y103.512 E12.4935
G1 X113.081 Y103.512 E12.5179
G1 X106.057 Y96.488 E12.8747
G1 X106.73599999999999 Y96.488 E12.8991
G1 X113.75999999999999 Y103.512 E13.2559
G1 X114.439 Y103.512 E13.2803
G1 X107.41499999999999 Y96.488 E13.6371
G1 X108.094 Y96.488 E13.6615
G1 X115.118 Y103.512 E14.0183
G1 X115.797 Y103.512 E14.0427
G1 X108.773 Y96.488 E14.3995
G1 X109.452 Y96.488 E14.4239
G1 X116.476 Y103.512 E14.7807
G1 X117.154 Y103.512 E14.8051
G1 X110.13 Y96.488 E15.1619
G1 X110.809 Y96.488 E15.1863
G1 X117.833 Y103.512 E15.5431
G1 X118.512 Y103.512 E15.5675
G1 X111.488 Y96.488 E15.9243
G1 X112.167 Y96.488 E15.9487
G1 X119.191 Y103.512 E16.3055
G1 X119.87 Y103.512 E16.3299
G1 X112.846 Y96.488 E16.6867
G1 X113.524 Y96.488 E16.7111
G1 X120.548 Y103.512 E17.0679
G1 X121.227 Y103.512 E17.0923
G1 X114.203 Y96.488 E17.4491
G1 X114.882 Y96.488 E17.4735
G1 X121.906 Y103.512 E17.8303
G1 X122.585 Y103.512 E17.8547
G1 X115.561 Y96.488 E18.2115
G1 X116.24000000000001 Y96.488 E18.2359
G1 X123.264 Y103.512 E18.5927
G1 X123.943 Y103.512 E18.6171
G1 X116.919 Y96.488 E18.9739
G1 X117.59700000000001 Y96.488 E18.9983
G1 X124.621 Y103.512 E19.3551
G1 X125.3 Y103.512 E19.3795
G1 X118.27600000000001 Y96.488 E19.7363
G1 X118.955 Y96.488 E19.7607
G1 X125.979 Y103.512 E20.1175
G1 X126.658 Y103.512 E20.1419
G1 X119.634 Y96.488 E20.4987
G1 X120.313 Y96.488 E20.5231
G1 X127.337 Y103.512 E20.8799
G1 X128.01600000000002 Y103.512 E20.9043
G1 X120.992 Y96.488 E21.2611
G1 X121.67 Y96.488 E21.2855
G1 X128.69400000000002 Y103.512 E21.6423
G1 X129.373 Y103.512 E21.6667
G1 X122.349 Y96.488 E22.0236
G1 X123.028 Y96.488 E22.0479
G1 X130.05200000000002 Y103.512 E22.4048
G1 X130.731 Y103.512 E22.4291
G1 X123.707 Y96.488 E22.7860
G1 X124.386 Y96.488 E22.8103
G1 X131.41 Y103.512 E23.1672
G1 X132.088 Y103.512 E23.1915
G1 X125.064 Y96.488 E23.5484
G1 X125.743 Y96.488 E23.5727
G1 X132.767 Y103.512 E23.9296
G1 X133.446 Y103.512 E23.9539
G1 X126.422 Y96.488 E24.3108
G1 X127.101 Y96.488 E24.3351
G1 X134.125 Y103.512 E24.6920
G1 X134.804 Y103.512 E24.7164
G1 X127.78 Y96.488 E25.0732
G1 X128.459 Y96.488 E25.0976
G1 X135.483 Y103.512 E25.4544
G1 X136.161 Y103.512 E25.4788
G1 X129.137 Y96.488 E25.8356
G1 X129.816 Y96.488 E25.8600
G1 X136.84 Y103.512 E26.2168
G1 X137.519 Y103.512 E26.2412
G1 X130.495 Y96.488 E26.5980
G1 X131.174 Y96.488 E26.6224
G1 X138.19799999999998 Y103.512 E26.9792
G1 X138.877 Y103.512 E27.0036
G1 X131.853 Y96.488 E27.3604
G1 X132.53199999999998 Y96.488 E27.3848
G1 X139.55599999999998 Y103.512 E27.7416
G1 X140.23399999999998 Y103.512 E27.7660
G1 X133.20999999999998 Y96.488 E28.1228
G1 X133.889 Y96.488 E28.1472
G1 X140.913 Y103.512 E28.5040
G1 X141.38400000000001 Y103.512 E28.5209
G1 X141.488 Y103.408 E28.5262
G1 X134.56799999999998 Y96.488 E28.8777
G1 X135.247 Y96.488 E28.9021
G1 X141.827 Y103.068 E29.2364
G1 X142.167 Y102.729 E29.2536
G1 X135.926 Y96.488 E29.5707
G1 X136.60399999999998 Y96.488 E29.5950
G1 X142.506 Y102.39 E29.8948
G1 X142.845 Y102.05 E29.9121
G1 X137.28300000000002 Y96.488 E30.1946
G1 X137.962 Y96.488 E30.2190
G1 X143.185 Y101.711 E30.4843
G1 X143.512 Y101.384 E30.5010
G1 X143.512 Y101.35900000000001 E30.5018
G1 X138.64100000000002 Y96.488 E30.7493
G1 X139.32 Y96.488 E30.7737
G1 X143.512 Y100.68 E30.9866
G1 X143.512 Y100.001 E31.0110
G1 X139.999 Y96.488 E31.1895
G1 X140.67700000000002 Y96.488 E31.2139
G1 X143.512 Y99.32300000000001 E31.3579
G1 X143.512 Y98.644 E31.3823
G1 X141.356 Y96.488 E31.4918
G92 E0.0000
G1 E-0.4 F2100 ; custom retraction
;layer 4, Z = 0.800
;fan4;
G1 Z0.800 F1200
G1 X141.503 Y96.2 F6000
G1 E0 F2100 ; custom un-retraction/prime
G92 E0.0000
G1 X143.8 Y98.497 E0.1167 F2880
G1 X143.8 Y101.503 E0.2247
G1 X141.503 Y103.8 E0.3414
G1 X88.497 Y103.8 E2.2454
G1 X86.2 Y101.503 E2.3621
G1 X86.2 Y98.497 E2.4700
G1 X88.497 Y96.2 E2.5867
G1 X141.503 Y96.2 E4.4908
G1 X141.702 Y95.72 F6000
G92 E0.0000
G1 X144.28 Y98.298 E0.1310 F2880
G1 X144.28 Y101.702 E0.2532
G1 X141.702 Y104.28 E0.3842
G1 X88.298 Y104.28 E2.3025
G1 X85.72 Y101.702 E2.4335
G1 X85.72 Y98.298 E2.5557
G1 X88.298 Y95.72 E2.6867
G1 X141.702 Y95.72 E4.6050
G1 X141.901 Y95.24000000000001 F6000
G92 E0.0000
G1 X144.76 Y98.09899999999999 E0.1453 F2160
G1 X144.76 Y101.90100000000001 E0.2818
G1 X141.901 Y104.76 E0.4271
G1 X88.09899999999999 Y104.76 E2.3596
G1 X85.24 Y101.90100000000001 E2.5049
G1 X85.24 Y98.09899999999999 E2.6414
G1 X88.09899999999999 Y95.24000000000001 E2.7867
G1 X141.901 Y95.24000000000001 E4.7193
G1 X141.59199999999998 Y101.24000000000001 F6000
G92 E0.0000
G1 X143.512 Y99.32 E0.0975 F2880
G1 X143.512 Y98.64099999999999 E0.1219
G1 X141.59199999999998 Y100.561 E0.2195
G1 X141.59199999999998 Y99.882 E0.2438
G1 X143.185 Y98.289 E0.3248
G1 X142.845 Y97.95 E0.3420
G1 X141.59199999999998 Y99.203 E0.4057
G1 X141.59199999999998 Y98.524 E0.4301
G1 X142.506 Y97.61 E0.4765
G1 X142.167 Y97.271 E0.4937
G1 X141.03 Y98.408 E0.5515
G1 X140.351 Y98.408 E0.5759
G1 X141.827 Y96.932 E0.6509
G1 X141.488 Y96.592 E0.6681
G1 X139.672 Y98.408 E0.7604
G1 X138.993 Y98.408 E0.7847
G1 X140.913 Y96.488 E0.8823
G1 X140.23399999999998 Y96.488 E0.9067
G1 X138.314 Y98.408 E1.0042
G1 X137.636 Y98.408 E1.0286
G1 X139.55599999999998 Y96.488 E1.1261
G1 X138.877 Y96.488 E1.1505
G1 X136.957 Y98.408 E1.2480
G1 X136.27800000000002 Y98.408 E1.2724
G1 X138.19799999999998 Y96.488 E1.3700
G1 X137.519 Y96.488 E1.3943
G1 X135.599 Y98.408 E1.4919
G1 X143.512 Y101.356 F6000
G92 E0.0000
G1 X141.356 Y103.512 E0.1095 F2880
G1 X140.67700000000002 Y103.512 E0.1339
G1 X143.512 Y100.67699999999999 E0.2779
G1 X143.512 Y99.999 E0.3023
G1 X139.999 Y103.512 E0.4808
G1 X139.32 Y103.512 E0.5051
G1 X141.24 Y101.592 E0.6027
G1 X140.561 Y101.592 E0.6271
G1 X138.64100000000002 Y103.512 E0.7246
G1 X137.962 Y103.512 E0.7490
G1 X139.882 Y101.592 E0.8465
G1 X139.203 Y101.592 E0.8709
G1 X137.28300000000002 Y103.512 E0.9684
G1 X136.60399999999998 Y103.512 E0.9928
G1 X138.524 Y101.592 E1.0904
G1 X137.846 Y101.592 E1.1147
G1 X135.926 Y103.512 E1.2123
G1 X135.247 Y103.512 E1.2367
G1 X137.167 Y101.592 E1.3342
G1 X136.488 Y101.592 E1.3586
G1 X134.56799999999998 Y103.512 E1.4561
G1 X133.889 Y103.512 E1.4805
G1 X135.809 Y101.592 E1.5780
G1 X135.13 Y101.592 E1.6024
G1 X133.20999999999998 Y103.512 E1.7000
G1 X132.53199999999998 Y103.512 E1.7243
G1 X134.452 Y101.592 E1.8219
G1 X134.386 Y101.592 E1.8242
G1 X134.386 Y100.97800000000001 E1.8463
G1 X131.853 Y103.512 E1.9750
G1 X131.174 Y103.512 E1.9993
G1 X134.386 Y100.3 E2.1625
G1 X134.386 Y99.62100000000001 E2.1869
G1 X130.495 Y103.512 E2.3846
G1 X129.816 Y103.512 E2.4090
G1 X134.386 Y98.94200000000001 E2.6411
G1 X134.386 Y98.408 E2.6603
G1 X134.92000000000002 Y98.408 E2.6795
G1 X136.84 Y96.488 E2.7770
G1 X136.161 Y96.488 E2.8014
G1 X129.137 Y103.512 E3.1582
G1 X128.459 Y103.512 E3.1826
G1 X135.483 Y96.488 E3.5394
G1 X134.804 Y96.488 E3.5638
G1 X127.78 Y103.512 E3.9206
G1 X127.101 Y103.512 E3.9450
G1 X134.125 Y96.488 E4.3018
G1 X133.446 Y96.488 E4.3262
G1 X126.422 Y103.512 E4.6830
G1 X125.743 Y103.512 E4.7074
G1 X132.767 Y96.488 E5.0642
G1 X132.088 Y96.488 E5.0886
G1 X125.064 Y103.512 E5.4454
G1 X124.386 Y103.512 E5.4698
G1 X131.41 Y96.488 E5.8266
G1 X130.731 Y96.488 E5.8510
G1 X123.707 Y103.512 E6.2078
G1 X123.028 Y103.512 E6.2322
G1 X130.05200000000002 Y96.488 E6.5891
G1 X129.373 Y96.488 E6.6134
G1 X122.349 Y103.512 E6.9703
G1 X121.67 Y103.512 E6.9946
G1 X128.69400000000002 Y96.488 E7.3515
G1 X128.01600000000002 Y96.488 E7.3758
G1 X120.992 Y103.512 E7.7327
G1 X120.313 Y103.512 E7.7570
G1 X127.337 Y96.488 E8.1139
G1 X126.658 Y96.488 E8.1382
G1 X119.634 Y103.512 E8.4951
G1 X118.955 Y103.512 E8.5194
G1 X125.979 Y96.488 E8.8763
G1 X125.3 Y96.488 E8.9006
G1 X118.27600000000001 Y103.512 E9.2575
G1 X117.59700000000001 Y103.512 E9.2819
G1 X124.621 Y96.488 E9.6387
G1 X123.943 Y96.488 E9.6631
G1 X116.919 Y103.512 E10.0199
G1 X116.24000000000001 Y103.512 E10.0443
G1 X123.264 Y96.488 E10.4011
G1 X122.585 Y96.488 E10.4255
G1 X115.561 Y103.512 E10.7823
G1 X114.882 Y103.512 E10.8067
G1 X121.906 Y96.488 E11.1635
G1 X121.227 Y96.488 E11.1879
G1 X114.203 Y103.512 E11.5447
G1 X113.525 Y103.512 E11.5691
G1 X120.549 Y96.488 E11.9259
G1 X119.87 Y96.488 E11.9503
G1 X112.846 Y103.512 E12.3071
G1 X112.167 Y103.512 E12.3315
G1 X119.191 Y96.488 E12.6883
G1 X118.512 Y96.488 E12.7127
G1 X111.488 Y103.512 E13.0695
G1 X110.809 Y103.512 E13.0939
G1 X117.833 Y96.488 E13.4507
G1 X117.154 Y96.488 E13.4751
G1 X110.13 Y103.512 E13.8319
G1 X109.452 Y103.512 E13.8563
G1 X116.476 Y96.488 E14.2131
G1 X115.797 Y96.488 E14.2375
G1 X108.773 Y103.512 E14.5943
G1 X108.094 Y103.512 E14.6187
G1 X115.118 Y96.488 E14.9755
G1 X114.439 Y96.488 E14.9999
G1 X107.41499999999999 Y103.512 E15.3567
G1 X106.73599999999999 Y103.512 E15.3811
G1 X113.75999999999999 Y96.488 E15.7379
G1 X113.081 Y96.488 E15.7623
G1 X106.057 Y103.512 E16.1191
G1 X105.37899999999999 Y103.512 E16.1435
G1 X112.40299999999999 Y96.488 E16.5003
G1 X111.72399999999999 Y96.488 E16.5247
G1 X104.7 Y103.512 E16.8815
G1 X104.021 Y103.512 E16.9059
G1 X111.045 Y96.488 E17.2627
G1 X110.366 Y96.488 E17.2871
G1 X103.342 Y103.512 E17.6439
G1 X102.663 Y103.512 E17.6683
G1 X109.687 Y96.488 E18.0251
G1 X109.009 Y96.488 E18.0495
G1 X101.985 Y103.512 E18.4063
G1 X101.306 Y103.512 E18.4307
G1 X108.33 Y96.488 E18.7875
G1 X107.65100000000001 Y96.488 E18.8119
G1 X100.62700000000001 Y103.512 E19.1687
G1 X99.94800000000001 Y103.512 E19.1931
G1 X106.97200000000001 Y96.488 E19.5499
G1 X106.293 Y96.488 E19.5743
G1 X99.269 Y103.512 E19.9311
G1 X98.59 Y103.512 E19.9555
G1 X105.614 Y96.488 E20.3123
G1 X104.936 Y96.488 E20.3367
G1 X97.912 Y103.512 E20.6935
G1 X97.233 Y103.512 E20.7179
G1 X104.257 Y96.488 E21.0747
G1 X103.578 Y96.488 E21.0991
G1 X96.554 Y103.512 E21.4559
G1 X95.875 Y103.512 E21.4803
G1 X102.899 Y96.488 E21.8371
G1 X102.22 Y96.488 E21.8615
G1 X95.196 Y103.512 E22.2183
G1 X94.517 Y103.512 E22.2427
G1 X101.541 Y96.488 E22.5996
G1 X100.863 Y96.488 E22.6239
G1 X93.839 Y103.512 E22.9808
G1 X93.16 Y103.512 E23.0051
G1 X100.184 Y96.488 E23.3620
G1 X99.505 Y96.488 E23.3863
G1 X92.481 Y103.512 E23.7432
G1 X91.80199999999999 Y103.512 E23.7675
G1 X98.826 Y96.488 E24.1244
G1 X98.14699999999999 Y96.488 E24.1487
G1 X93.614 Y101.02199999999999 E24.3790
G1 X93.614 Y101.592 E24.3995
G1 X93.043 Y101.592 E24.4200
G1 X91.12299999999999 Y103.512 E24.5176
G1 X90.445 Y103.512 E24.5419
G1 X92.36500000000001 Y101.592 E24.6395
G1 X91.686 Y101.592 E24.6639
G1 X89.76599999999999 Y103.512 E24.7614
G1 X89.087 Y103.512 E24.7858
G1 X91.408 Y101.191 E24.9037
G1 X91.408 Y100.512 E24.9281
G1 X88.512 Y103.408 E25.0752
G1 X88.173 Y103.068 E25.0924
G1 X91.408 Y99.833 E25.2568
G1 X91.408 Y99.154 E25.2812
G1 X87.833 Y102.729 E25.4628
G1 X87.494 Y102.39 E25.4800
G1 X91.408 Y98.476 E25.6788
G1 X91.408 Y98.408 E25.6813
G1 X91.476 Y98.408 E25.6837
G1 X93.396 Y96.488 E25.7812
G1 X92.717 Y96.488 E25.8056
G1 X87.155 Y102.05 E26.0882
G1 X86.815 Y101.711 E26.1054
G1 X92.038 Y96.488 E26.3707
G1 X91.35900000000001 Y96.488 E26.3951
G1 X86.488 Y101.35900000000001 E26.6426
G1 X86.488 Y100.68 E26.6669
G1 X90.68 Y96.488 E26.8799
G1 X90.001 Y96.488 E26.9043
G1 X86.488 Y100.001 E27.0828
G1 X86.488 Y99.32300000000001 E27.1072
G1 X89.32300000000001 Y96.488 E27.2512
G1 X88.644 Y96.488 E27.2755
G1 X86.488 Y98.644 E27.3851
G1 X92.154 Y98.408 F6000
G92 E0.0000
G1 X94.074 Y96.488 E0.0975 F2880
G1 X94.753 Y96.488 E0.1219
G1 X92.833 Y98.408 E0.2195
G1 X93.512 Y98.408 E0.2438
G1 X95.432 Y96.488 E0.3414
G1 X96.11099999999999 Y96.488 E0.3658
G1 X93.614 Y98.985 E0.4926
G1 X93.614 Y99.664 E0.5170
G1 X96.78999999999999 Y96.488 E0.6783
G1 X97.469 Y96.488 E0.7027
G1 X93.614 Y100.343 E0.8985
G1 X135.161 Y101.05199999999999 F6000
G92 E0.0000
G1 X137.265 Y98.94800000000001 E0.1336 F3600
G1 X141.05200000000002 Y98.94800000000001 E0.3036
G1 X141.05200000000002 Y99.404 E0.3241
G1 X139.404 Y101.05199999999999 E0.4288
G92 E0.0000
G1 E-0.4 F2100 ; custom retraction
;layer 5, Z = 1.000
;fan5;
;
G1 Z1.000 F1200
G1 X141.503 Y103.8 F6000
G1 E0 F2100 ; custom un-retraction/prime
G92 E0.0000
G1 X88.497 Y103.8 E1.9040 F2880
G1 X86.2 Y101.503 E2.0207
G1 X86.2 Y98.497 E2.1287
G1 X88.497 Y96.2 E2.2454
G1 X141.503 Y96.2 E4.1494
G1 X143.8 Y98.497 E4.2661
G1 X143.8 Y101.503 E4.3741
G1 X141.503 Y103.8 E4.4908
G1 X141.702 Y104.28 F6000
G92 E0.0000
G1 X88.298 Y104.28 E1.9183 F2880
G1 X85.72 Y101.702 E2.0493
G1 X85.72 Y98.298 E2.1715
G1 X88.298 Y95.72 E2.3025
G1 X141.702 Y95.72 E4.2208
G1 X144.28 Y98.298 E4.3518
G1 X144.28 Y101.702 E4.4740
G1 X141.702 Y104.28 E4.6050
G1 X141.901 Y104.76 F6000
G92 E0.0000
G1 X88.09899999999999 Y104.76 E1.9326 F2160
G1 X85.24 Y101.90100000000001 E2.0778
G1 X85.24 Y98.09899999999999 E2.2144
G1 X88.09899999999999 Y95.24000000000001 E2.3596
G1 X141.901 Y95.24000000000001 E4.2922
G1 X144.76 Y98.09899999999999 E4.4375
G1 X144.76 Y101.90100000000001 E4.5740
G1 X141.901 Y104.76 E4.7193
G1 X141.59199999999998 Y99.439 F6000
G92 E0.0000
G1 X143.512 Y101.35900000000001 E0.0975 F2880
G1 X143.512 Y101.384 E0.0984
G1 X143.185 Y101.711 E0.1150
G1 X141.59199999999998 Y100.118 E0.1960
G1 X141.59199999999998 Y100.797 E0.2203
G1 X142.845 Y102.05 E0.2840
G1 X142.506 Y102.39 E0.3013
G1 X141.59199999999998 Y101.476 E0.3477
G1 X141.59199999999998 Y101.592 E0.3519
G1 X141.03 Y101.592 E0.3721
G1 X142.167 Y102.729 E0.4298
G1 X141.827 Y103.068 E0.4471
G1 X140.351 Y101.592 E0.5221
G1 X139.672 Y101.592 E0.5465
G1 X141.488 Y103.408 E0.6387
G1 X141.38400000000001 Y103.512 E0.6440
G1 X140.913 Y103.512 E0.6609
G1 X138.993 Y101.592 E0.7584
G1 X138.314 Y101.592 E0.7828
G1 X140.23399999999998 Y103.512 E0.8803
G1 X139.55599999999998 Y103.512 E0.9047
G1 X137.636 Y101.592 E1.0023
G1 X136.957 Y101.592 E1.0267
G1 X138.877 Y103.512 E1.1242
G1 X138.19799999999998 Y103.512 E1.1486
G1 X136.27800000000002 Y101.592 E1.2461
G1 X135.599 Y101.592 E1.2705
G1 X137.519 Y103.512 E1.3680
G1 X136.84 Y103.512 E1.3924
G1 X134.92000000000002 Y101.592 E1.4899
G1 X141.356 Y96.488 F6000
G92 E0.0000
G1 X143.512 Y98.644 E0.1095 F2880
G1 X143.512 Y99.32300000000001 E0.1339
G1 X140.67700000000002 Y96.488 E0.2779
G1 X139.999 Y96.488 E0.3023
G1 X143.512 Y100.001 E0.4808
G1 X143.512 Y100.68 E0.5051
G1 X141.59199999999998 Y98.75999999999999 E0.6027
G1 X141.59199999999998 Y98.408 E0.6153
G1 X141.24 Y98.408 E0.6280
G1 X139.32 Y96.488 E0.7255
G1 X138.64100000000002 Y96.488 E0.7499
G1 X140.561 Y98.408 E0.8474
G1 X139.882 Y98.408 E0.8718
G1 X137.962 Y96.488 E0.9694
G1 X137.28300000000002 Y96.488 E0.9937
G1 X139.203 Y98.408 E1.0913
G1 X138.524 Y98.408 E1.1157
G1 X136.60399999999998 Y96.488 E1.2132
G1 X135.926 Y96.488 E1.2376
G1 X137.846 Y98.408 E1.3351
G1 X137.167 Y98.408 E1.3595
G1 X135.247 Y96.488 E1.4570
G1 X134.56799999999998 Y96.488 E1.4814
G1 X136.488 Y98.408 E1.5790
G1 X135.809 Y98.408 E1.6033
G1 X133.889 Y96.488 E1.7009
G1 X133.20999999999998 Y96.488 E1.7253
G1 X135.13 Y98.408 E1.8228
G1 X134.452 Y98.408 E1.8472
G1 X132.53199999999998 Y96.488 E1.9447
G1 X131.853 Y96.488 E1.9691
G1 X134.386 Y99.02199999999999 E2.0978
G1 X134.386 Y99.7 E2.1222
G1 X131.174 Y96.488 E2.2854
G1 X130.495 Y96.488 E2.3098
G1 X134.386 Y100.37899999999999 E2.5074
G1 X134.386 Y101.05799999999999 E2.5318
G1 X129.816 Y96.488 E2.7640
G1 X129.137 Y96.488 E2.7884
G1 X136.161 Y103.512 E3.1452
G1 X135.483 Y103.512 E3.1696
G1 X128.459 Y96.488 E3.5264
G1 X127.78 Y96.488 E3.5508
G1 X134.804 Y103.512 E3.9076
G1 X134.125 Y103.512 E3.9320
G1 X127.101 Y96.488 E4.2888
G1 X126.422 Y96.488 E4.3132
G1 X133.446 Y103.512 E4.6700
G1 X132.767 Y103.512 E4.6944
G1 X125.743 Y96.488 E5.0512
G1 X125.064 Y96.488 E5.0756
G1 X132.088 Y103.512 E5.4324
G1 X131.41 Y103.512 E5.4568
G1 X124.386 Y96.488 E5.8136
G1 X123.707 Y96.488 E5.8380
G1 X130.731 Y103.512 E6.1948
G1 X130.05200000000002 Y103.512 E6.2192
G1 X123.028 Y96.488 E6.5760
G1 X122.349 Y96.488 E6.6004
G1 X129.373 Y103.512 E6.9572
G1 X128.69400000000002 Y103.512 E6.9816
G1 X121.67 Y96.488 E7.3384
G1 X120.992 Y96.488 E7.3628
G1 X128.01600000000002 Y103.512 E7.7196
G1 X127.337 Y103.512 E7.7440
G1 X120.313 Y96.488 E8.1008
G1 X119.634 Y96.488 E8.1252
G1 X126.658 Y103.512 E8.4820
G1 X125.979 Y103.512 E8.5064
G1 X118.955 Y96.488 E8.8632
G1 X118.27600000000001 Y96.488 E8.8876
G1 X125.3 Y103.512 E9.2444
G1 X124.621 Y103.512 E9.2688
G1 X117.59700000000001 Y96.488 E9.6256
G1 X116.919 Y96.488 E9.6500
G1 X123.943 Y103.512 E10.0068
G1 X123.264 Y103.512 E10.0312
G1 X116.24000000000001 Y96.488 E10.3880
G1 X115.561 Y96.488 E10.4124
G1 X122.585 Y103.512 E10.7692
G1 X121.906 Y103.512 E10.7936
G1 X114.882 Y96.488 E11.1504
G1 X114.203 Y96.488 E11.1748
G1 X121.227 Y103.512 E11.5316
G1 X120.548 Y103.512 E11.5560
G1 X113.524 Y96.488 E11.9128
G1 X112.846 Y96.488 E11.9372
G1 X119.87 Y103.512 E12.2940
G1 X119.191 Y103.512 E12.3184
G1 X112.167 Y96.488 E12.6752
G1 X111.488 Y96.488 E12.6996
G1 X118.512 Y103.512 E13.0564
G1 X117.833 Y103.512 E13.0808
G1 X110.809 Y96.488 E13.4376
G1 X110.13 Y96.488 E13.4620
G1 X117.154 Y103.512 E13.8188
G1 X116.476 Y103.512 E13.8432
G1 X109.452 Y96.488 E14.2000
G1 X108.773 Y96.488 E14.2244
G1 X115.797 Y103.512 E14.5812
G1 X115.118 Y103.512 E14.6056
G1 X108.094 Y96.488 E14.9624
G1 X107.41499999999999 Y96.488 E14.9868
G1 X114.439 Y103.512 E15.3436
G1 X113.75999999999999 Y103.512 E15.3680
G1 X106.73599999999999 Y96.488 E15.7249
G1 X106.057 Y96.488 E15.7492
G1 X113.081 Y103.512 E16.1061
G1 X112.40299999999999 Y103.512 E16.1304
G1 X105.37899999999999 Y96.488 E16.4873
G1 X104.7 Y96.488 E16.5116
G1 X111.72399999999999 Y103.512 E16.8685
G1 X111.045 Y103.512 E16.8928
G1 X104.021 Y96.488 E17.2497
G1 X103.342 Y96.488 E17.2740
G1 X110.366 Y103.512 E17.6309
G1 X109.687 Y103.512 E17.6552
G1 X102.663 Y96.488 E18.0121
G1 X101.98400000000001 Y96.488 E18.0365
G1 X109.00800000000001 Y103.512 E18.3933
G1 X108.33 Y103.512 E18.4177
G1 X101.306 Y96.488 E18.7745
G1 X100.62700000000001 Y96.488 E18.7989
G1 X107.65100000000001 Y103.512 E19.1557
G1 X106.97200000000001 Y103.512 E19.1801
G1 X99.94800000000001 Y96.488 E19.5369
G1 X99.269 Y96.488 E19.5613
G1 X106.293 Y103.512 E19.9181
G1 X105.614 Y103.512 E19.9425
G1 X98.59 Y96.488 E20.2993
G1 X97.912 Y96.488 E20.3237
G1 X104.936 Y103.512 E20.6805
G1 X104.257 Y103.512 E20.7049
G1 X97.233 Y96.488 E21.0617
G1 X96.554 Y96.488 E21.0861
G1 X103.578 Y103.512 E21.4429
G1 X102.899 Y103.512 E21.4673
G1 X95.875 Y96.488 E21.8241
G1 X95.196 Y96.488 E21.8485
G1 X102.22 Y103.512 E22.2053
G1 X101.541 Y103.512 E22.2297
G1 X94.517 Y96.488 E22.5865
G1 X93.839 Y96.488 E22.6109
G1 X100.863 Y103.512 E22.9677
G1 X100.184 Y103.512 E22.9921
G1 X93.16 Y96.488 E23.3489
G1 X92.481 Y96.488 E23.3733
G1 X99.505 Y103.512 E23.7301
G1 X98.826 Y103.512 E23.7545
G1 X91.80199999999999 Y96.488 E24.1113
G1 X91.12299999999999 Y96.488 E24.1357
G1 X93.043 Y98.408 E24.2332
G1 X92.36500000000001 Y98.408 E24.2576
G1 X90.445 Y96.488 E24.3551
G1 X89.76599999999999 Y96.488 E24.3795
G1 X91.686 Y98.408 E24.4771
G1 X91.408 Y98.408 E24.4870
G1 X91.408 Y98.809 E24.5014
G1 X89.087 Y96.488 E24.6194
G1 X88.616 Y96.488 E24.6363
G1 X88.512 Y96.592 E24.6416
G1 X91.408 Y99.488 E24.7887
G1 X91.408 Y100.167 E24.8130
G1 X88.173 Y96.932 E24.9774
G1 X87.833 Y97.271 E24.9946
G1 X91.408 Y100.846 E25.1762
G1 X91.408 Y101.524 E25.2006
G1 X87.494 Y97.61 E25.3994
G1 X87.155 Y97.95 E25.4167
G1 X92.717 Y103.512 E25.6992
G1 X92.038 Y103.512 E25.7236
G1 X86.815 Y98.289 E25.9889
G1 X86.488 Y98.616 E26.0056
G1 X86.488 Y98.64099999999999 E26.0064
G1 X91.35900000000001 Y103.512 E26.2539
G1 X90.68 Y103.512 E26.2783
G1 X86.488 Y99.32 E26.4912
G1 X86.488 Y99.999 E26.5156
G1 X90.001 Y103.512 E26.6941
G1 X89.32300000000001 Y103.512 E26.7185
G1 X86.488 Y100.67699999999999 E26.8625
G1 X86.488 Y101.356 E26.8869
G1 X88.644 Y103.512 E26.9964
G1 X91.476 Y101.592 F6000
G92 E0.0000
G1 X93.396 Y103.512 E0.0975 F2880
G1 X94.074 Y103.512 E0.1219
G1 X92.154 Y101.592 E0.2195
G1 X92.833 Y101.592 E0.2438
G1 X94.753 Y103.512 E0.3414
G1 X95.432 Y103.512 E0.3658
G1 X93.512 Y101.592 E0.4633
G1 X93.614 Y101.592 E0.4669
G1 X93.614 Y101.015 E0.4877
G1 X96.11099999999999 Y103.512 E0.6145
G1 X96.78999999999999 Y103.512 E0.6389
G1 X93.614 Y100.336 E0.8003
G1 X93.614 Y99.657 E0.8246
G1 X97.469 Y103.512 E1.0205
G1 X98.14699999999999 Y103.512 E1.0448
G1 X93.614 Y98.97800000000001 E1.2751
G1 X135.161 Y98.94800000000001 F6000
G92 E0.0000
G1 X137.265 Y101.05199999999999 E0.1336 F3600
G1 X141.05200000000002 Y101.05199999999999 E0.3036
G1 X141.05200000000002 Y100.596 E0.3241
G1 X139.404 Y98.94800000000001 E0.4288
G92 E0.0000
G1 E-0.4 F2100 ; custom retraction
;layer 6, Z = 1.200
;fan6;
G1 Z1.200 F1200
G1 X141.4 Y98.6 F6000
G1 E0 F2100 ; custom un-retraction/prime
G92 E0.0000
G1 X141.4 Y101.4 E0.1006 F2880
G1 X134.578 Y101.4 E0.3456
G1 X134.578 Y98.6 E0.4462
G1 X141.4 Y98.6 E0.6912
G1 X141.88 Y98.12 F6000
G92 E0.0000
G1 X141.88 Y101.88 E0.1351 F2880
G1 X134.098 Y101.88 E0.4146
G1 X134.098 Y98.12 E0.5497
G1 X141.88 Y98.12 E0.8292
G1 X142.36 Y97.64 F6000
G92 E0.0000
G1 X142.36 Y102.36 E0.1695 F2160
G1 X133.618 Y102.36 E0.4836
G1 X133.618 Y97.64 E0.6531
G1 X142.36 Y97.64 E0.9671
G1 X139.404 Y101.05199999999999 F6000
G92 E0.0000
G1 X141.05200000000002 Y99.404 E0.1047 F3600
G1 X141.05200000000002 Y98.94800000000001 E0.1251
G1 X137.265 Y98.94800000000001 E0.2952
G1 X135.161 Y101.05199999999999 E0.4288
G92 E0.0000
G1 E-0.4 F2100 ; custom retraction
;zhop1
G1 X93.422 Y101.4 F6000
G1 Z1.200 F1200
G1 E0 F2100 ; custom un-retraction/prime
G92 E0.0000
G1 X91.6 Y101.4 E0.0654 F2880
G1 X91.6 Y98.6 E0.1660
G1 X93.422 Y98.6 E0.2315
G1 X93.422 Y101.4 E0.3320
G1 X93.902 Y101.88 F6000
G92 E0.0000
G1 X91.12 Y101.88 E0.0999 F2880
G1 X91.12 Y98.12 E0.2350
G1 X93.902 Y98.12 E0.3349
G1 X93.902 Y101.88 E0.4700
G1 X94.382 Y102.36 F6000
G92 E0.0000
G1 X90.64 Y102.36 E0.1344 F2160
G1 X90.64 Y97.64 E0.3040
G1 X94.382 Y97.64 E0.4384
G1 X94.382 Y102.36 E0.6079
G92 E0.0000
G1 E-0.4 F2100 ; custom retraction
;zhop1
G1 X90.64 Y101.331 F6000
G1 X87.244 Y100.744
G1 X87.244 Y100.396
G1 X86.764 Y100.26400000000001
G1 Z1.200 F1200
G1 E0 F2100 ; custom un-retraction/prime
G92 E0.0000
G1 X86.236 Y100.26400000000001 E0.0190 F2880
G1 X86.236 Y99.73599999999999 E0.0380
G1 X86.764 Y99.73599999999999 E0.0569
G1 X86.764 Y100.26400000000001 E0.0759
G1 X87.244 Y100.744 F6000
G92 E0.0000
G1 X85.756 Y100.744 E0.0535 F2160
G1 X85.756 Y99.256 E0.1069
G1 X87.244 Y99.256 E0.1604
G1 X87.244 Y100.744 E0.2138
G92 E0.0000
G1 E-0.4 F2100 ; custom retraction
;layer 7, Z = 1.400
;fan7;
G1 Z1.400 F1200
G1 X86.732 Y100.232 F6000
G1 E0 F2100 ; custom un-retraction/prime
G92 E0.0000
G1 X86.268 Y100.232 E0.0167 F2880
G1 X86.268 Y99.768 E0.0334
G1 X86.732 Y99.768 E0.0501
G1 X86.732 Y100.232 E0.0668
G1 X87.212 Y100.712 F6000
G92 E0.0000
G1 X85.788 Y100.712 E0.0512 F2160
G1 X85.788 Y99.288 E0.1024
G1 X87.212 Y99.288 E0.1536
G1 X87.212 Y100.712 E0.2047
G92 E0.0000
G1 E-0.4 F2100 ; custom retraction
;zhop1
G1 X91.4 Y101.6 F6000
G1 Z1.400 F1200
G1 E0 F2100 ; custom un-retraction/prime
G92 E0.0000
G1 X91.4 Y98.4 E0.1149 F2880
G1 X93.63499999999999 Y98.4 E0.1952
G1 X93.63499999999999 Y101.6 E0.3102
G1 X91.4 Y101.6 E0.3904
G1 X90.92 Y102.08 F6000
G92 E0.0000
G1 X90.92 Y97.92 E0.1494 F2880
G1 X94.114 Y97.92 E0.2642
G1 X94.114 Y102.08 E0.4136
G1 X90.92 Y102.08 E0.5284
G1 X90.44 Y102.56 F6000
G92 E0.0000
G1 X90.44 Y97.44 E0.1839 F2160
G1 X94.594 Y97.44 E0.3331
G1 X94.594 Y102.56 E0.5171
G1 X90.44 Y102.56 E0.6663
G92 E0.0000
G1 E-0.4 F2100 ; custom retraction
;zhop1
G1 X94.594 Y102.469 F6000
G1 X133.405 Y102.56
G1 X133.405 Y101.62100000000001
G1 X134.365 Y101.6
G1 Z1.400 F1200
G1 E0 F2100 ; custom un-retraction/prime
G92 E0.0000
G1 X134.365 Y98.4 E0.1149 F2880
G1 X141.6 Y98.4 E0.3748
G1 X141.6 Y101.6 E0.4898
G1 X134.365 Y101.6 E0.7496
G1 X133.885 Y102.08 F6000
G92 E0.0000
G1 X133.885 Y97.92 E0.1494 F2880
G1 X142.07999999999998 Y97.92 E0.4438
G1 X142.07999999999998 Y102.08 E0.5932
G1 X133.885 Y102.08 E0.8876
G1 X133.405 Y102.56 F6000
G92 E0.0000
G1 X133.405 Y97.44 E0.1839 F2160
G1 X142.56 Y97.44 E0.5128
G1 X142.56 Y102.56 E0.6967
G1 X133.405 Y102.56 E1.0255
G1 X134.961 Y98.74799999999999 F6000
G92 E0.0000
G1 X137.465 Y101.25200000000001 E0.1590 F3600
G1 X141.252 Y101.25200000000001 E0.3290
G1 X141.252 Y100.79599999999999 E0.3495
G1 X139.204 Y98.74799999999999 E0.4796
G92 E0.0000
G1 E-0.4 F2100 ; custom retraction
;layer 8, Z = 1.600
;fan8;
G1 Z1.600 F1200
G1 X141.8 Y98.2 F6000
G1 E0 F2100 ; custom un-retraction/prime
G92 E0.0000
G1 X141.8 Y101.8 E0.1293 F2880
G1 X134.184 Y101.8 E0.4029
G1 X134.184 Y98.2 E0.5322
G1 X141.8 Y98.2 E0.8058
G1 X142.28 Y97.72 F6000
G92 E0.0000
G1 X142.28 Y102.28 E0.1638 F2880
G1 X133.704 Y102.28 E0.4719
G1 X133.704 Y97.72 E0.6357
G1 X142.28 Y97.72 E0.9437
G1 X142.76 Y97.24000000000001 F6000
G92 E0.0000
G1 X142.76 Y102.75999999999999 E0.1983 F2160
G1 X133.224 Y102.75999999999999 E0.5408
G1 X133.224 Y97.24000000000001 E0.7391
G1 X142.76 Y97.24000000000001 E1.0817
G1 X139.00400000000002 Y101.452 F6000
G92 E0.0000
G1 X141.452 Y99.00399999999999 E0.1555 F3600
G1 X141.452 Y98.548 E0.1759
G1 X137.66500000000002 Y98.548 E0.3460
G1 X134.761 Y101.452 E0.5304
G92 E0.0000
G1 E-0.4 F2100 ; custom retraction
;zhop1
G1 X93.816 Y101.8 F6000
G1 Z1.600 F1200
G1 E0 F2100 ; custom un-retraction/prime
G92 E0.0000
G1 X91.2 Y101.8 E0.0940 F2880
G1 X91.2 Y98.2 E0.2233
G1 X93.816 Y98.2 E0.3173
G1 X93.816 Y101.8 E0.4466
G1 X94.29599999999999 Y102.28 F6000
G92 E0.0000
G1 X90.72 Y102.28 E0.1285 F2880
G1 X90.72 Y97.72 E0.2923
G1 X94.29599999999999 Y97.72 E0.4207
G1 X94.29599999999999 Y102.28 E0.5845
G1 X94.77600000000001 Y102.75999999999999 F6000
G92 E0.0000
G1 X90.24000000000001 Y102.75999999999999 E0.1630 F2160
G1 X90.24000000000001 Y97.24000000000001 E0.3612
G1 X94.77600000000001 Y97.24000000000001 E0.5242
G1 X94.77600000000001 Y102.75999999999999 E0.7225
G92 E0.0000
G1 E-0.4 F2100 ; custom retraction
;zhop1
G1 X87.181 Y100.681 F6000
G1 Z1.600 F1200
G1 E0 F2100 ; custom un-retraction/prime
G92 E0.0000
G1 X85.819 Y100.681 E0.0489 F2160
G1 X85.819 Y99.319 E0.0978
G1 X87.181 Y99.319 E0.1467
G1 X87.181 Y100.681 E0.1956
G1 X86.893 Y100.27600000000001 F6000
G92 E0.0000
G1 X86.776 Y100.393 E0.0060 F3600
G1 X86.107 Y100.393 E0.0300
G1 X86.107 Y100.382 E0.0303
G1 X86.882 Y99.607 E0.0697
G1 X86.203 Y99.607 E0.0941
G1 X86.107 Y99.703 E0.0990
G92 E0.0000
G1 E-0.4 F2100 ; custom retraction
;layer 9, Z = 1.800
;fan9;
G1 Z1.800 F1200
G1 X85.851 Y99.351 F6000
G1 E0 F2100 ; custom un-retraction/prime
G92 E0.0000
G1 X87.149 Y99.351 E0.0466 F2160
G1 X87.149 Y100.649 E0.0933
G1 X85.851 Y100.649 E0.1399
G1 X85.851 Y99.351 E0.1865
G1 X86.807 Y99.63900000000001 F6000
G92 E0.0000
G1 X86.861 Y99.693 E0.0027 F3600
G1 X86.861 Y100.36099999999999 E0.0267
G1 X86.851 Y100.36099999999999 E0.0271
G1 X86.139 Y99.649 E0.0633
G1 X86.139 Y100.328 E0.0877
G1 X86.172 Y100.36099999999999 E0.0893
G92 E0.0000
G1 E-0.4 F2100 ; custom retraction
;zhop1
G1 X87.149 Y100.64099999999999 F6000
G1 X87.149 Y100.649
G1 X91.2 Y101.8
G1 Z1.800 F1200
G1 E0 F2100 ; custom un-retraction/prime
G92 E0.0000
G1 X91.2 Y98.2 E0.1293 F2880
G1 X93.834 Y98.2 E0.2239
G1 X93.834 Y101.8 E0.3532
G1 X91.2 Y101.8 E0.4478
G1 X90.72 Y102.28 F6000
G92 E0.0000
G1 X90.72 Y97.72 E0.1638 F2880
G1 X94.314 Y97.72 E0.2929
G1 X94.314 Y102.28 E0.4567
G1 X90.72 Y102.28 E0.5858
G1 X90.24000000000001 Y102.75999999999999 F6000
G92 E0.0000
G1 X90.24000000000001 Y97.24000000000001 E0.1983 F2160
G1 X94.794 Y97.24000000000001 E0.3619
G1 X94.794 Y102.75999999999999 E0.5601
G1 X90.24000000000001 Y102.75999999999999 E0.7237
G92 E0.0000
G1 E-0.4 F2100 ; custom retraction
;zhop1
G1 X94.794 Y102.66 F6000
G1 X133.20600000000002 Y102.75999999999999
G1 X133.20600000000002 Y101.821
G1 X134.166 Y101.8
G1 Z1.800 F1200
G1 E0 F2100 ; custom un-retraction/prime
G92 E0.0000
G1 X134.166 Y98.2 E0.1293 F2880
G1 X141.8 Y98.2 E0.4035
G1 X141.8 Y101.8 E0.5328
G1 X134.166 Y101.8 E0.8070
G1 X133.686 Y102.28 F6000
G92 E0.0000
G1 X133.686 Y97.72 E0.1638 F2880
G1 X142.28 Y97.72 E0.4725
G1 X142.28 Y102.28 E0.6363
G1 X133.686 Y102.28 E0.9450
G1 X133.20600000000002 Y102.75999999999999 F6000
G92 E0.0000
G1 X133.20600000000002 Y97.24000000000001 E0.1983 F2160
G1 X142.76 Y97.24000000000001 E0.5415
G1 X142.76 Y102.75999999999999 E0.7397
G1 X133.20600000000002 Y102.75999999999999 E1.0829
G1 X134.761 Y98.548 F6000
G92 E0.0000
G1 X137.66500000000002 Y101.452 E0.1844 F3600
G1 X141.452 Y101.452 E0.3544
G1 X141.452 Y100.99600000000001 E0.3749
G1 X139.00400000000002 Y98.548 E0.5304
G92 E0.0000
G1 E-0.4 F2100 ; custom retraction
;layer 10, Z = 2.000
;fan10;
G1 Z2.000 F1200
G1 X141.8 Y98.2 F6000
G1 E0 F2100 ; custom un-retraction/prime
G92 E0.0000
G1 X141.8 Y101.8 E0.1293 F2880
G1 X134.14499999999998 Y101.8 E0.4043
G1 X134.14499999999998 Y98.2 E0.5336
G1 X141.8 Y98.2 E0.8086
G1 X142.28 Y97.72 F6000
G92 E0.0000
G1 X142.28 Y102.28 E0.1638 F2880
G1 X133.66500000000002 Y102.28 E0.4733
G1 X133.66500000000002 Y97.72 E0.6371
G1 X142.28 Y97.72 E0.9465
G1 X142.76 Y97.24000000000001 F6000
G92 E0.0000
G1 X142.76 Y102.75999999999999 E0.1983 F2160
G1 X133.185 Y102.75999999999999 E0.5422
G1 X133.185 Y97.24000000000001 E0.7405
G1 X142.76 Y97.24000000000001 E1.0844
G1 X139.00400000000002 Y101.452 F6000
G92 E0.0000
G1 X141.452 Y99.00399999999999 E0.1555 F3600
G1 X141.452 Y98.548 E0.1759
G1 X137.66500000000002 Y98.548 E0.3460
G1 X134.761 Y101.452 E0.5304
G92 E0.0000
G1 E-0.4 F2100 ; custom retraction
;zhop1
G1 X93.85499999999999 Y101.8 F6000
G1 Z2.000 F1200
G1 E0 F2100 ; custom un-retraction/prime
G92 E0.0000
G1 X91.2 Y101.8 E0.0954 F2880
G1 X91.2 Y98.2 E0.2247
G1 X93.85499999999999 Y98.2 E0.3200
G1 X93.85499999999999 Y101.8 E0.4494
G1 X94.33500000000001 Y102.28 F6000
G92 E0.0000
G1 X90.72 Y102.28 E0.1299 F2880
G1 X90.72 Y97.72 E0.2937
G1 X94.33500000000001 Y97.72 E0.4235
G1 X94.33500000000001 Y102.28 E0.5873
G1 X94.815 Y102.75999999999999 F6000
G92 E0.0000
G1 X90.24000000000001 Y102.75999999999999 E0.1643 F2160
G1 X90.24000000000001 Y97.24000000000001 E0.3626
G1 X94.815 Y97.24000000000001 E0.5270
G1 X94.815 Y102.75999999999999 E0.7252
G92 E0.0000
G1 E-0.4 F2100 ; custom retraction
;zhop1
G1 X90.24000000000001 Y101.487 F6000
G1 X87.11699999999999 Y100.61699999999999
G1 Z2.000 F1200
G1 E0 F2100 ; custom un-retraction/prime
G92 E0.0000
G1 X85.883 Y100.61699999999999 E0.0444 F2160
G1 X85.883 Y99.38300000000001 E0.0887
G1 X87.11699999999999 Y99.38300000000001 E0.1331
G1 X87.11699999999999 Y100.61699999999999 E0.1774
G1 X86.819 Y99.67099999999999 F6000
G92 E0.0000
G1 X86.17099999999999 Y100.319 E0.0329 F3600
G92 E0.0000
G1 E-0.4 F2100 ; custom retraction
;layer 11, Z = 2.200
;fan11;
G1 Z2.200 F1200
G1 X85.914 Y100.586 F6000
G1 E0 F2100 ; custom un-retraction/prime
G92 E0.0000
G1 X85.914 Y99.414 E0.0421 F2160
G1 X87.086 Y99.414 E0.0842
G1 X87.086 Y100.586 E0.1262
G1 X85.914 Y100.586 E0.1683
G1 X86.787 Y100.298 F6000
G92 E0.0000
G1 X86.202 Y99.713 E0.0297 F3600
G92 E0.0000
G1 E-0.4 F2100 ; custom retraction
;zhop1
G1 X87.086 Y99.445 F6000
G1 X87.086 Y99.414
G1 X90.24000000000001 Y98.491
G1 X91.2 Y98.2
G1 Z2.200 F1200
G1 E0 F2100 ; custom un-retraction/prime
G92 E0.0000
G1 X93.88 Y98.2 E0.0963 F2880
G1 X93.88 Y101.8 E0.2256
G1 X91.2 Y101.8 E0.3219
G1 X91.2 Y98.2 E0.4512
G1 X90.72 Y97.72 F6000
G92 E0.0000
G1 X94.36 Y97.72 E0.1308 F2880
G1 X94.36 Y102.28 E0.2946
G1 X90.72 Y102.28 E0.4253
G1 X90.72 Y97.72 E0.5891
G1 X90.24000000000001 Y97.24000000000001 F6000
G92 E0.0000
G1 X94.84 Y97.24000000000001 E0.1652 F2160
G1 X94.84 Y102.75999999999999 E0.3635
G1 X90.24000000000001 Y102.75999999999999 E0.5288
G1 X90.24000000000001 Y97.24000000000001 E0.7271
G92 E0.0000
G1 E-0.4 F2100 ; custom retraction
;zhop1
G1 X94.84 Y97.34100000000001 F6000
G1 X133.16 Y97.24000000000001
G1 X133.16 Y98.179
G1 X134.12 Y98.2
G1 Z2.200 F1200
G1 E0 F2100 ; custom un-retraction/prime
G92 E0.0000
G1 X141.8 Y98.2 E0.2759 F2880
G1 X141.8 Y101.8 E0.4052
G1 X134.12 Y101.8 E0.6811
G1 X134.12 Y98.2 E0.8104
G1 X133.64 Y97.72 F6000
G92 E0.0000
G1 X142.28 Y97.72 E0.3104 F2880
G1 X142.28 Y102.28 E0.4742
G1 X133.64 Y102.28 E0.7845
G1 X133.64 Y97.72 E0.9483
G1 X133.16 Y97.24000000000001 F6000
G92 E0.0000
G1 X142.76 Y97.24000000000001 E0.3449 F2160
G1 X142.76 Y102.75999999999999 E0.5431
G1 X133.16 Y102.75999999999999 E0.8880
G1 X133.16 Y97.24000000000001 E1.0863
G1 X134.761 Y98.548 F6000
G92 E0.0000
G1 X137.66500000000002 Y101.452 E0.1844 F3600
G1 X141.452 Y101.452 E0.3544
G1 X141.452 Y100.99600000000001 E0.3749
G1 X139.00400000000002 Y98.548 E0.5304
G92 E0.0000
G1 E-0.4 F2100 ; custom retraction
;layer 12, Z = 2.400
;fan12;
G1 Z2.400 F1200
G1 X141.8 Y98.2 F6000
G1 E0 F2100 ; custom un-retraction/prime
G92 E0.0000
G1 X141.8 Y101.8 E0.1293 F2880
G1 X134.086 Y101.8 E0.4064
G1 X134.086 Y98.2 E0.5357
G1 X141.8 Y98.2 E0.8128
G1 X142.28 Y97.72 F6000
G92 E0.0000
G1 X142.28 Y102.28 E0.1638 F2880
G1 X133.606 Y102.28 E0.4754
G1 X133.606 Y97.72 E0.6392
G1 X142.28 Y97.72 E0.9507
G1 X142.76 Y97.24000000000001 F6000
G92 E0.0000
G1 X142.76 Y102.75999999999999 E0.1983 F2160
G1 X133.126 Y102.75999999999999 E0.5443
G1 X133.126 Y97.24000000000001 E0.7426
G1 X142.76 Y97.24000000000001 E1.0887
G1 X139.00400000000002 Y101.452 F6000
G92 E0.0000
G1 X141.452 Y99.00399999999999 E0.1555 F3600
G1 X141.452 Y98.548 E0.1759
G1 X137.66500000000002 Y98.548 E0.3460
G1 X134.761 Y101.452 E0.5304
G92 E0.0000
G1 E-0.4 F2100 ; custom retraction
;zhop1
G1 X93.914 Y101.8 F6000
G1 Z2.400 F1200
G1 E0 F2100 ; custom un-retraction/prime
G92 E0.0000
G1 X91.2 Y101.8 E0.0975 F2880
G1 X91.2 Y98.2 E0.2268
G1 X93.914 Y98.2 E0.3243
G1 X93.914 Y101.8 E0.4536
G1 X94.394 Y102.28 F6000
G92 E0.0000
G1 X90.72 Y102.28 E0.1320 F2880
G1 X90.72 Y97.72 E0.2958
G1 X94.394 Y97.72 E0.4277
G1 X94.394 Y102.28 E0.5915
G1 X94.874 Y102.75999999999999 F6000
G92 E0.0000
G1 X90.24000000000001 Y102.75999999999999 E0.1664 F2160
G1 X90.24000000000001 Y97.24000000000001 E0.3647
G1 X94.874 Y97.24000000000001 E0.5312
G1 X94.874 Y102.75999999999999 E0.7294
G92 E0.0000
G1 E-0.4 F2100 ; custom retraction
;zhop1
G1 X87.054 Y100.554 F6000
G1 Z2.400 F1200
G1 E0 F2100 ; custom un-retraction/prime
G92 E0.0000
G1 X85.946 Y100.554 E0.0398 F2160
G1 X85.946 Y99.446 E0.0796
G1 X87.054 Y99.446 E0.1194
G1 X87.054 Y100.554 E0.1592
G1 X86.756 Y99.73400000000001 F6000
G92 E0.0000
G1 X86.23400000000001 Y100.256 E0.0265 F3600
G92 E0.0000
G1 E-0.4 F2100 ; custom retraction
;layer 13, Z = 2.600
;fan13;
G1 Z2.600 F1200
G1 X85.97800000000001 Y100.52199999999999 F6000
G1 E0 F2100 ; custom un-retraction/prime
G92 E0.0000
G1 X85.97800000000001 Y99.47800000000001 E0.0375 F2160
G1 X87.02199999999999 Y99.47800000000001 E0.0751
G1 X87.02199999999999 Y100.52199999999999 E0.1126
G1 X85.97800000000001 Y100.52199999999999 E0.1501
G1 X86.26599999999999 Y99.77600000000001 F6000
G92 E0.0000
G1 X86.724 Y100.23400000000001 E0.0233 F3600
G92 E0.0000
G1 E-0.4 F2100 ; custom retraction
;zhop1
G1 X87.02199999999999 Y100.339 F6000
G1 X87.02199999999999 Y100.52199999999999
G1 X90.24000000000001 Y101.464
G1 X91.2 Y101.8
G1 Z2.600 F1200
G1 E0 F2100 ; custom un-retraction/prime
G92 E0.0000
G1 X91.2 Y98.2 E0.1293 F2880
G1 X93.95 Y98.2 E0.2281
G1 X93.95 Y101.8 E0.3574
G1 X91.2 Y101.8 E0.4562
G1 X90.72 Y102.28 F6000
G92 E0.0000
G1 X90.72 Y97.72 E0.1638 F2880
G1 X94.43 Y97.72 E0.2971
G1 X94.43 Y102.28 E0.4609
G1 X90.72 Y102.28 E0.5941
G1 X90.24000000000001 Y102.75999999999999 F6000
G92 E0.0000
G1 X90.24000000000001 Y97.24000000000001 E0.1983 F2160
G1 X94.91 Y97.24000000000001 E0.3660
G1 X94.91 Y102.75999999999999 E0.5643
G1 X90.24000000000001 Y102.75999999999999 E0.7321
G92 E0.0000
G1 E-0.4 F2100 ; custom retraction
;zhop1
G1 X94.91 Y102.658 F6000
G1 X133.09 Y102.75999999999999
G1 X133.09 Y101.821
G1 X134.05 Y101.8
G1 Z2.600 F1200
G1 E0 F2100 ; custom un-retraction/prime
G92 E0.0000
G1 X134.05 Y98.2 E0.1293 F2880
G1 X141.8 Y98.2 E0.4077
G1 X141.8 Y101.8 E0.5370
G1 X134.05 Y101.8 E0.8154
G1 X133.57 Y102.28 F6000
G92 E0.0000
G1 X133.57 Y97.72 E0.1638 F2880
G1 X142.28 Y97.72 E0.4767
G1 X142.28 Y102.28 E0.6405
G1 X133.57 Y102.28 E0.9534
G1 X133.09 Y102.75999999999999 F6000
G92 E0.0000
G1 X133.09 Y97.24000000000001 E0.1983 F2160
G1 X142.76 Y97.24000000000001 E0.5456
G1 X142.76 Y102.75999999999999 E0.7439
G1 X133.09 Y102.75999999999999 E1.0913
G1 X134.761 Y98.548 F6000
G92 E0.0000
G1 X137.66500000000002 Y101.452 E0.1844 F3600
G1 X141.452 Y101.452 E0.3544
G1 X141.452 Y100.99600000000001 E0.3749
G1 X139.00400000000002 Y98.548 E0.5304
G92 E0.0000
G1 E-0.4 F2100 ; custom retraction
;layer 14, Z = 2.800
;fan14;
G1 Z2.800 F1200
G1 X141.8 Y98.2 F6000
G1 E0 F2100 ; custom un-retraction/prime
G92 E0.0000
G1 X141.8 Y101.8 E0.1293 F2880
G1 X134.007 Y101.8 E0.4093
G1 X134.007 Y98.2 E0.5386
G1 X141.8 Y98.2 E0.8185
G1 X142.28 Y97.72 F6000
G92 E0.0000
G1 X142.28 Y102.28 E0.1638 F2880
G1 X133.527 Y102.28 E0.4782
G1 X133.527 Y97.72 E0.6420
G1 X142.28 Y97.72 E0.9565
G1 X142.76 Y97.24000000000001 F6000
G92 E0.0000
G1 X142.76 Y102.75999999999999 E0.1983 F2160
G1 X133.047 Y102.75999999999999 E0.5472
G1 X133.047 Y97.24000000000001 E0.7455
G1 X142.76 Y97.24000000000001 E1.0944
G1 X139.00400000000002 Y101.452 F6000
G92 E0.0000
G1 X141.452 Y99.00399999999999 E0.1555 F3600
G1 X141.452 Y98.548 E0.1759
G1 X137.66500000000002 Y98.548 E0.3460
G1 X134.761 Y101.452 E0.5304
G92 E0.0000
G1 E-0.4 F2100 ; custom retraction
;zhop1
G1 X93.993 Y101.8 F6000
G1 Z2.800 F1200
G1 E0 F2100 ; custom un-retraction/prime
G92 E0.0000
G1 X91.2 Y101.8 E0.1003 F2880
G1 X91.2 Y98.2 E0.2297
G1 X93.993 Y98.2 E0.3300
G1 X93.993 Y101.8 E0.4593
G1 X94.473 Y102.28 F6000
G92 E0.0000
G1 X90.72 Y102.28 E0.1348 F2880
G1 X90.72 Y97.72 E0.2986
G1 X94.473 Y97.72 E0.4334
G1 X94.473 Y102.28 E0.5972
G1 X94.953 Y102.75999999999999 F6000
G92 E0.0000
G1 X90.24000000000001 Y102.75999999999999 E0.1693 F2160
G1 X90.24000000000001 Y97.24000000000001 E0.3676
G1 X94.953 Y97.24000000000001 E0.5369
G1 X94.953 Y102.75999999999999 E0.7352
G92 E0.0000
G1 E-0.4 F2100 ; custom retraction
;zhop1
G1 X86.991 Y100.491 F6000
G1 Z2.800 F1200
G1 E0 F2100 ; custom un-retraction/prime
G92 E0.0000
G1 X86.009 Y100.491 E0.0353 F2160
G1 X86.009 Y99.509 E0.0705
G1 X86.991 Y99.509 E0.1058
G1 X86.991 Y100.491 E0.1410
G1 X86.297 Y100.19200000000001 F6000
G92 E0.0000
G1 X86.69200000000001 Y99.797 E0.0201 F3600
G92 E0.0000
G1 E-0.4 F2100 ; custom retraction
;layer 15, Z = 3.000
;fan15;
G1 Z3.000 F1200
G1 X86.959 Y99.541 F6000
G1 E0 F2100 ; custom un-retraction/prime
G92 E0.0000
G1 X86.959 Y100.459 E0.0330 F2160
G1 X86.041 Y100.459 E0.0660
G1 X86.041 Y99.541 E0.0989
G1 X86.959 Y99.541 E0.1319
G1 X86.661 Y100.17099999999999 F6000
G92 E0.0000
G1 X86.32900000000001 Y99.839 E0.0168 F3600
G92 E0.0000
G1 E-0.4 F2100 ; custom retraction
;zhop1
G1 X86.959 Y99.62700000000001 F6000
G1 X86.959 Y99.541
G1 X90.24000000000001 Y98.523
G1 X91.2 Y98.2
G1 Z3.000 F1200
G1 E0 F2100 ; custom un-retraction/prime
G92 E0.0000
G1 X94.043 Y98.2 E0.1021 F2880
G1 X94.043 Y101.8 E0.2314
G1 X91.2 Y101.8 E0.3335
G1 X91.2 Y98.2 E0.4628
G1 X90.72 Y97.72 F6000
G92 E0.0000
G1 X94.523 Y97.72 E0.1366 F2880
G1 X94.523 Y102.28 E0.3004
G1 X90.72 Y102.28 E0.4370
G1 X90.72 Y97.72 E0.6008
G1 X90.24000000000001 Y97.24000000000001 F6000
G92 E0.0000
G1 X95.003 Y97.24000000000001 E0.1711 F2160
G1 X95.003 Y102.75999999999999 E0.3694
G1 X90.24000000000001 Y102.75999999999999 E0.5404
G1 X90.24000000000001 Y97.24000000000001 E0.7387
G92 E0.0000
G1 E-0.4 F2100 ; custom retraction
;zhop1
G1 X95.003 Y97.345 F6000
G1 X132.997 Y97.24000000000001
G1 X132.997 Y98.179
G1 X133.957 Y98.2
G1 Z3.000 F1200
G1 E0 F2100 ; custom un-retraction/prime
G92 E0.0000
G1 X141.8 Y98.2 E0.2817 F2880
G1 X141.8 Y101.8 E0.4110
G1 X133.957 Y101.8 E0.6927
G1 X133.957 Y98.2 E0.8221
G1 X133.477 Y97.72 F6000
G92 E0.0000
G1 X142.28 Y97.72 E0.3162 F2880
G1 X142.28 Y102.28 E0.4800
G1 X133.477 Y102.28 E0.7962
G1 X133.477 Y97.72 E0.9600
G1 X132.997 Y97.24000000000001 F6000
G92 E0.0000
G1 X142.76 Y97.24000000000001 E0.3507 F2160
G1 X142.76 Y102.75999999999999 E0.5490
G1 X132.997 Y102.75999999999999 E0.8996
G1 X132.997 Y97.24000000000001 E1.0979
G1 X134.761 Y98.548 F6000
G92 E0.0000
G1 X137.66500000000002 Y101.452 E0.1844 F3600
G1 X141.452 Y101.452 E0.3544
G1 X141.452 Y100.99600000000001 E0.3749
G1 X139.00400000000002 Y98.548 E0.5304
G92 E0.0000
G1 E-0.4 F2100 ; custom retraction
;layer 16, Z = 3.200
;fan16;
G1 Z3.200 F1200
G1 X141.8 Y98.2 F6000
G1 E0 F2100 ; custom un-retraction/prime
G92 E0.0000
G1 X141.8 Y101.8 E0.1293 F2880
G1 X133.904 Y101.8 E0.4129
G1 X133.904 Y98.2 E0.5423
G1 X141.8 Y98.2 E0.8259
G1 X142.28 Y97.72 F6000
G92 E0.0000
G1 X142.28 Y102.28 E0.1638 F2880
G1 X133.424 Y102.28 E0.4819
G1 X133.424 Y97.72 E0.6457
G1 X142.28 Y97.72 E0.9638
G1 X142.76 Y97.24000000000001 F6000
G92 E0.0000
G1 X142.76 Y102.75999999999999 E0.1983 F2160
G1 X132.94400000000002 Y102.75999999999999 E0.5509
G1 X132.94400000000002 Y97.24000000000001 E0.7492
G1 X142.76 Y97.24000000000001 E1.1017
G1 X139.00400000000002 Y101.452 F6000
G92 E0.0000
G1 X141.452 Y99.00399999999999 E0.1555 F3600
G1 X141.452 Y98.548 E0.1759
G1 X137.66500000000002 Y98.548 E0.3460
G1 X134.761 Y101.452 E0.5304
G92 E0.0000
G1 E-0.4 F2100 ; custom retraction
;zhop1
G1 X94.096 Y101.8 F6000
G1 Z3.200 F1200
G1 E0 F2100 ; custom un-retraction/prime
G92 E0.0000
G1 X91.2 Y101.8 E0.1040 F2880
G1 X91.2 Y98.2 E0.2333
G1 X94.096 Y98.2 E0.3373
G1 X94.096 Y101.8 E0.4667
G1 X94.576 Y102.28 F6000
G92 E0.0000
G1 X90.72 Y102.28 E0.1385 F2880
G1 X90.72 Y97.72 E0.3023
G1 X94.576 Y97.72 E0.4408
G1 X94.576 Y102.28 E0.6046
G1 X95.056 Y102.75999999999999 F6000
G92 E0.0000
G1 X90.24000000000001 Y102.75999999999999 E0.1730 F2160
G1 X90.24000000000001 Y97.24000000000001 E0.3713
G1 X95.056 Y97.24000000000001 E0.5442
G1 X95.056 Y102.75999999999999 E0.7425
G92 E0.0000
G1 E-0.4 F2100 ; custom retraction
;zhop1
G1 X90.24000000000001 Y101.378 F6000
G1 X86.92699999999999 Y100.42699999999999
G1 Z3.200 F1200
G1 E0 F2100 ; custom un-retraction/prime
G92 E0.0000
G1 X86.07300000000001 Y100.42699999999999 E0.0307 F2160
G1 X86.07300000000001 Y99.57300000000001 E0.0614
G1 X86.92699999999999 Y99.57300000000001 E0.0921
G1 X86.92699999999999 Y100.42699999999999 E0.1228
G1 X86.361 Y100.12899999999999 F6000
G92 E0.0000
G1 X86.629 Y99.86099999999999 E0.0136 F3600
G92 E0.0000
G1 E-0.4 F2100 ; custom retraction
;layer 17, Z = 3.400
;fan17;
G1 Z3.400 F1200
G1 X86.896 Y99.604 F6000
G1 E0 F2100 ; custom un-retraction/prime
G92 E0.0000
G1 X86.896 Y100.396 E0.0284 F2160
G1 X86.104 Y100.396 E0.0569
G1 X86.104 Y99.604 E0.0853
G1 X86.896 Y99.604 E0.1137
G1 X86.59700000000001 Y100.108 F6000
G92 E0.0000
G1 X86.392 Y99.90299999999999 E0.0104 F3600
G92 E0.0000
G1 E-0.4 F2100 ; custom retraction
;zhop1
G1 X86.896 Y99.725 F6000
G1 X86.896 Y99.604
G1 X90.24000000000001 Y98.53999999999999
G1 X91.2 Y98.2
G1 Z3.400 F1200
G1 E0 F2100 ; custom un-retraction/prime
G92 E0.0000
G1 X94.157 Y98.2 E0.1062 F2880
G1 X94.157 Y101.8 E0.2355
G1 X91.2 Y101.8 E0.3418
G1 X91.2 Y98.2 E0.4711
G1 X90.72 Y97.72 F6000
G92 E0.0000
G1 X94.637 Y97.72 E0.1407 F2880
G1 X94.637 Y102.28 E0.3045
G1 X90.72 Y102.28 E0.4452
G1 X90.72 Y97.72 E0.6090
G1 X90.24000000000001 Y97.24000000000001 F6000
G92 E0.0000
G1 X95.11699999999999 Y97.24000000000001 E0.1752 F2160
G1 X95.11699999999999 Y102.75999999999999 E0.3735
G1 X90.24000000000001 Y102.75999999999999 E0.5487
G1 X90.24000000000001 Y97.24000000000001 E0.7470
G92 E0.0000
G1 E-0.4 F2100 ; custom retraction
;zhop1
G1 X95.11699999999999 Y97.34700000000001 F6000
G1 X132.88299999999998 Y97.24000000000001
G1 X132.88299999999998 Y98.179
G1 X133.84300000000002 Y98.2
G1 Z3.400 F1200
G1 E0 F2100 ; custom un-retraction/prime
G92 E0.0000
G1 X141.8 Y98.2 E0.2858 F2880
G1 X141.8 Y101.8 E0.4151
G1 X133.84300000000002 Y101.8 E0.7010
G1 X133.84300000000002 Y98.2 E0.8303
G1 X133.363 Y97.72 F6000
G92 E0.0000
G1 X142.28 Y97.72 E0.3203 F2880
G1 X142.28 Y102.28 E0.4841
G1 X133.363 Y102.28 E0.8044
G1 X133.363 Y97.72 E0.9682
G1 X132.88299999999998 Y97.24000000000001 F6000
G92 E0.0000
G1 X142.76 Y97.24000000000001 E0.3548 F2160
G1 X142.76 Y102.75999999999999 E0.5531
G1 X132.88299999999998 Y102.75999999999999 E0.9079
G1 X132.88299999999998 Y97.24000000000001 E1.1062
G1 X134.761 Y98.548 F6000
G92 E0.0000
G1 X137.66500000000002 Y101.452 E0.1844 F3600
G1 X141.452 Y101.452 E0.3544
G1 X141.452 Y100.99600000000001 E0.3749
G1 X139.00400000000002 Y98.548 E0.5304
G92 E0.0000
G1 E-0.4 F2100 ; custom retraction
;layer 18, Z = 3.600
;fan18;
G1 Z3.600 F1200
G1 X141.8 Y98.2 F6000
G1 E0 F2100 ; custom un-retraction/prime
G92 E0.0000
G1 X141.8 Y101.8 E0.1293 F2880
G1 X133.776 Y101.8 E0.4175
G1 X133.776 Y98.2 E0.5469
G1 X141.8 Y98.2 E0.8351
G1 X142.28 Y97.72 F6000
G92 E0.0000
G1 X142.28 Y102.28 E0.1638 F2880
G1 X133.296 Y102.28 E0.4865
G1 X133.296 Y97.72 E0.6503
G1 X142.28 Y97.72 E0.9730
G1 X142.76 Y97.24000000000001 F6000
G92 E0.0000
G1 X142.76 Y102.75999999999999 E0.1983 F2160
G1 X132.816 Y102.75999999999999 E0.5555
G1 X132.816 Y97.24000000000001 E0.7538
G1 X142.76 Y97.24000000000001 E1.1109
G1 X139.00400000000002 Y101.452 F6000
G92 E0.0000
G1 X141.452 Y99.00399999999999 E0.1555 F3600
G1 X141.452 Y98.548 E0.1759
G1 X137.66500000000002 Y98.548 E0.3460
G1 X134.761 Y101.452 E0.5304
G92 E0.0000
G1 E-0.4 F2100 ; custom retraction
;zhop1
G1 X94.22399999999999 Y101.8 F6000
G1 Z3.600 F1200
G1 E0 F2100 ; custom un-retraction/prime
G92 E0.0000
G1 X91.2 Y101.8 E0.1086 F2880
G1 X91.2 Y98.2 E0.2379
G1 X94.22399999999999 Y98.2 E0.3465
G1 X94.22399999999999 Y101.8 E0.4759
G1 X94.70400000000001 Y102.28 F6000
G92 E0.0000
G1 X90.72 Y102.28 E0.1431 F2880
G1 X90.72 Y97.72 E0.3069
G1 X94.70400000000001 Y97.72 E0.4500
G1 X94.70400000000001 Y102.28 E0.6138
G1 X95.184 Y102.75999999999999 F6000
G92 E0.0000
G1 X90.24000000000001 Y102.75999999999999 E0.1776 F2160
G1 X90.24000000000001 Y97.24000000000001 E0.3759
G1 X95.184 Y97.24000000000001 E0.5534
G1 X95.184 Y102.75999999999999 E0.7517
G92 E0.0000
G1 E-0.4 F2100 ; custom retraction
;zhop1
G1 X86.864 Y100.364 F6000
G1 Z3.600 F1200
G1 E0 F2100 ; custom un-retraction/prime
G92 E0.0000
G1 X86.136 Y100.364 E0.0262 F2160
G1 X86.136 Y99.636 E0.0523
G1 X86.864 Y99.636 E0.0785
G1 X86.864 Y100.364 E0.1046
G1 X86.424 Y100.066 F6000
G92 E0.0000
G1 X86.566 Y99.924 E0.0072 F3600
G92 E0.0000
G1 E-0.4 F2100 ; custom retraction
;layer 19, Z = 3.800
;fan19;
G1 Z3.800 F1200
G1 X86.832 Y99.668 F6000
G1 E0 F2100 ; custom un-retraction/prime
G92 E0.0000
G1 X86.832 Y100.332 E0.0239 F2160
G1 X86.168 Y100.332 E0.0478
G1 X86.168 Y99.668 E0.0716
G1 X86.832 Y99.668 E0.0955
G1 X86.456 Y99.96600000000001 F6000
G92 E0.0000
G1 X86.53399999999999 Y100.044 E0.0040 F3600
G92 E0.0000
G1 E-0.4 F2100 ; custom retraction
;zhop1
G1 X86.832 Y100.157 F6000
G1 X86.832 Y100.332
G1 X90.24000000000001 Y101.439
G1 X91.2 Y101.8
G1 Z3.800 F1200
G1 E0 F2100 ; custom un-retraction/prime
G92 E0.0000
G1 X91.2 Y98.2 E0.1293 F2880
G1 X94.295 Y98.2 E0.2405
G1 X94.295 Y101.8 E0.3698
G1 X91.2 Y101.8 E0.4810
G1 X90.72 Y102.28 F6000
G92 E0.0000
G1 X90.72 Y97.72 E0.1638 F2880
G1 X94.775 Y97.72 E0.3095
G1 X94.775 Y102.28 E0.4733
G1 X90.72 Y102.28 E0.6189
G1 X90.24000000000001 Y102.75999999999999 F6000
G92 E0.0000
G1 X90.24000000000001 Y97.24000000000001 E0.1983 F2160
G1 X95.255 Y97.24000000000001 E0.3784
G1 X95.255 Y102.75999999999999 E0.5767
G1 X90.24000000000001 Y102.75999999999999 E0.7568
G92 E0.0000
G1 E-0.4 F2100 ; custom retraction
;zhop1
G1 X95.255 Y102.649 F6000
G1 X132.745 Y102.75999999999999
G1 X132.745 Y101.821
G1 X133.70499999999998 Y101.8
G1 Z3.800 F1200
G1 E0 F2100 ; custom un-retraction/prime
G92 E0.0000
G1 X133.70499999999998 Y98.2 E0.1293 F2880
G1 X141.8 Y98.2 E0.4201
G1 X141.8 Y101.8 E0.5494
G1 X133.70499999999998 Y101.8 E0.8402
G1 X133.225 Y102.28 F6000
G92 E0.0000
G1 X133.225 Y97.72 E0.1638 F2880
G1 X142.28 Y97.72 E0.4891
G1 X142.28 Y102.28 E0.6529
G1 X133.225 Y102.28 E0.9781
G1 X132.745 Y102.75999999999999 F6000
G92 E0.0000
G1 X132.745 Y97.24000000000001 E0.1983 F2160
G1 X142.76 Y97.24000000000001 E0.5580
G1 X142.76 Y102.75999999999999 E0.7563
G1 X132.745 Y102.75999999999999 E1.1160
G1 X134.761 Y98.548 F6000
G92 E0.0000
G1 X137.66500000000002 Y101.452 E0.1844 F3600
G1 X141.452 Y101.452 E0.3544
G1 X141.452 Y100.99600000000001 E0.3749
G1 X139.00400000000002 Y98.548 E0.5304
G92 E0.0000
G1 E-0.4 F2100 ; custom retraction
;layer 20, Z = 4.000
;fan20;
G1 Z4.000 F1200
G1 X141.8 Y98.2 F6000
G1 E0 F2100 ; custom un-retraction/prime
G92 E0.0000
G1 X141.8 Y101.8 E0.1293 F2880
G1 X133.624 Y101.8 E0.4230
G1 X133.624 Y98.2 E0.5523
G1 X141.8 Y98.2 E0.8460
G1 X142.28 Y97.72 F6000
G92 E0.0000
G1 X142.28 Y102.28 E0.1638 F2880
G1 X133.144 Y102.28 E0.4920
G1 X133.144 Y97.72 E0.6558
G1 X142.28 Y97.72 E0.9839
G1 X142.76 Y97.24000000000001 F6000
G92 E0.0000
G1 X142.76 Y102.75999999999999 E0.1983 F2160
G1 X132.664 Y102.75999999999999 E0.5609
G1 X132.664 Y97.24000000000001 E0.7592
G1 X142.76 Y97.24000000000001 E1.1218
G1 X139.00400000000002 Y101.452 F6000
G92 E0.0000
G1 X141.452 Y99.00399999999999 E0.1555 F3600
G1 X141.452 Y98.548 E0.1759
G1 X137.66500000000002 Y98.548 E0.3460
G1 X134.761 Y101.452 E0.5304
G92 E0.0000
G1 E-0.4 F2100 ; custom retraction
;zhop1
G1 X94.376 Y101.8 F6000
G1 Z4.000 F1200
G1 E0 F2100 ; custom un-retraction/prime
G92 E0.0000
G1 X91.2 Y101.8 E0.1141 F2880
G1 X91.2 Y98.2 E0.2434
G1 X94.376 Y98.2 E0.3575
G1 X94.376 Y101.8 E0.4868
G1 X94.856 Y102.28 F6000
G92 E0.0000
G1 X90.72 Y102.28 E0.1486 F2880
G1 X90.72 Y97.72 E0.3124
G1 X94.856 Y97.72 E0.4609
G1 X94.856 Y102.28 E0.6247
G1 X95.336 Y102.75999999999999 F6000
G92 E0.0000
G1 X90.24000000000001 Y102.75999999999999 E0.1830 F2160
G1 X90.24000000000001 Y97.24000000000001 E0.3813
G1 X95.336 Y97.24000000000001 E0.5644
G1 X95.336 Y102.75999999999999 E0.7626
G92 E0.0000
G1 E-0.4 F2100 ; custom retraction
;zhop1
G1 X90.24000000000001 Y101.292 F6000
G1 X86.801 Y100.301
G1 Z4.000 F1200
G1 E0 F2100 ; custom un-retraction/prime
G92 E0.0000
G1 X86.199 Y100.301 E0.0216 F2160
G1 X86.199 Y99.699 E0.0432
G1 X86.801 Y99.699 E0.0648
G1 X86.801 Y100.301 E0.0864
G1 X86.487 Y100.00200000000001 F6000
G92 E0.0000
G1 X86.502 Y99.987 E0.0008 F3600
G92 E0.0000
G1 E-0.4 F2100 ; custom retraction
;layer 21, Z = 4.200
;fan21;
G1 Z4.200 F1200
G1 X86.769 Y99.731 F6000
G1 E0 F2100 ; custom un-retraction/prime
G92 E0.0000
G1 X86.769 Y100.269 E0.0193 F2160
G1 X86.231 Y100.269 E0.0387
G1 X86.231 Y99.731 E0.0580
G1 X86.769 Y99.731 E0.0773
G92 E0.0000
G1 E-0.4 F2100 ; custom retraction
;zhop1
G1 X91.2 Y98.2 F6000
G1 Z4.200 F1200
G1 E0 F2100 ; custom un-retraction/prime
G92 E0.0000
G1 X94.461 Y98.2 E0.1171 F2880
G1 X94.461 Y101.8 E0.2465
G1 X91.2 Y101.8 E0.3636
G1 X91.2 Y98.2 E0.4929
G1 X90.72 Y97.72 F6000
G92 E0.0000
G1 X94.941 Y97.72 E0.1516 F2880
G1 X94.941 Y102.28 E0.3154
G1 X90.72 Y102.28 E0.4671
G1 X90.72 Y97.72 E0.6309
G1 X90.24000000000001 Y97.24000000000001 F6000
G92 E0.0000
G1 X95.42099999999999 Y97.24000000000001 E0.1861 F2160
G1 X95.42099999999999 Y102.75999999999999 E0.3844
G1 X90.24000000000001 Y102.75999999999999 E0.5705
G1 X90.24000000000001 Y97.24000000000001 E0.7688
G92 E0.0000
G1 E-0.4 F2100 ; custom retraction
;zhop1
G1 X95.42099999999999 Y97.35499999999999 F6000
G1 X132.579 Y97.24000000000001
G1 X132.579 Y98.179
G1 X133.539 Y98.2
G1 Z4.200 F1200
G1 E0 F2100 ; custom un-retraction/prime
G92 E0.0000
G1 X141.8 Y98.2 E0.2967 F2880
G1 X141.8 Y101.8 E0.4261
G1 X133.539 Y101.8 E0.7228
G1 X133.539 Y98.2 E0.8521
G1 X133.059 Y97.72 F6000
G92 E0.0000
G1 X142.28 Y97.72 E0.3312 F2880
G1 X142.28 Y102.28 E0.4950
G1 X133.059 Y102.28 E0.8263
G1 X133.059 Y97.72 E0.9901
G1 X132.579 Y97.24000000000001 F6000
G92 E0.0000
G1 X142.76 Y97.24000000000001 E0.3657 F2160
G1 X142.76 Y102.75999999999999 E0.5640
G1 X132.579 Y102.75999999999999 E0.9297
G1 X132.579 Y97.24000000000001 E1.1280
G1 X134.761 Y98.548 F6000
G92 E0.0000
G1 X137.66500000000002 Y101.452 E0.1844 F3600
G1 X141.452 Y101.452 E0.3544
G1 X141.452 Y100.99600000000001 E0.3749
G1 X139.00400000000002 Y98.548 E0.5304
G92 E0.0000
G1 E-0.4 F2100 ; custom retraction
;layer 22, Z = 4.400
;fan22;
G1 Z4.400 F1200
G1 X141.8 Y98.2 F6000
G1 E0 F2100 ; custom un-retraction/prime
G92 E0.0000
G1 X141.8 Y101.8 E0.1293 F2880
G1 X133.44799999999998 Y101.8 E0.4293
G1 X133.44799999999998 Y98.2 E0.5587
G1 X141.8 Y98.2 E0.8587
G1 X142.28 Y97.72 F6000
G92 E0.0000
G1 X142.28 Y102.28 E0.1638 F2880
G1 X132.96800000000002 Y102.28 E0.4983
G1 X132.96800000000002 Y97.72 E0.6621
G1 X142.28 Y97.72 E0.9966
G1 X142.76 Y97.24000000000001 F6000
G92 E0.0000
G1 X142.76 Y102.75999999999999 E0.1983 F2160
G1 X132.488 Y102.75999999999999 E0.5673
G1 X132.488 Y97.24000000000001 E0.7656
G1 X142.76 Y97.24000000000001 E1.1345
G1 X139.00400000000002 Y101.452 F6000
G92 E0.0000
G1 X141.452 Y99.00399999999999 E0.1555 F3600
G1 X141.452 Y98.548 E0.1759
G1 X137.66500000000002 Y98.548 E0.3460
G1 X134.761 Y101.452 E0.5304
G92 E0.0000
G1 E-0.4 F2100 ; custom retraction
;zhop1
G1 X94.55199999999999 Y101.8 F6000
G1 Z4.400 F1200
G1 E0 F2100 ; custom un-retraction/prime
G92 E0.0000
G1 X91.2 Y101.8 E0.1204 F2880
G1 X91.2 Y98.2 E0.2497
G1 X94.55199999999999 Y98.2 E0.3701
G1 X94.55199999999999 Y101.8 E0.4995
G1 X95.032 Y102.28 F6000
G92 E0.0000
G1 X90.72 Y102.28 E0.1549 F2880
G1 X90.72 Y97.72 E0.3187
G1 X95.032 Y97.72 E0.4736
G1 X95.032 Y102.28 E0.6374
G1 X95.512 Y102.75999999999999 F6000
G92 E0.0000
G1 X90.24000000000001 Y102.75999999999999 E0.1894 F2160
G1 X90.24000000000001 Y97.24000000000001 E0.3877
G1 X95.512 Y97.24000000000001 E0.5771
G1 X95.512 Y102.75999999999999 E0.7753
G92 E0.0000
G1 E-0.4 F2100 ; custom retraction
;zhop1
G1 X90.24000000000001 Y101.244 F6000
G1 X86.737 Y100.237
G1 Z4.400 F1200
G1 E0 F2100 ; custom un-retraction/prime
G92 E0.0000
G1 X86.263 Y100.237 E0.0171 F2160
G1 X86.263 Y99.763 E0.0341
G1 X86.737 Y99.763 E0.0512
G1 X86.737 Y100.237 E0.0682
G92 E0.0000
G1 E-0.4 F2100 ; custom retraction
;layer 23, Z = 4.600
;fan23;
G1 Z4.600 F1200
G1 X86.706 Y100.206 F6000
G1 E0 F2100 ; custom un-retraction/prime
G92 E0.0000
G1 X86.294 Y100.206 E0.0148 F2160
G1 X86.294 Y99.794 E0.0295
G1 X86.706 Y99.794 E0.0443
G1 X86.706 Y100.206 E0.0591
G92 E0.0000
G1 E-0.4 F2100 ; custom retraction
;zhop1
G1 X91.2 Y101.8 F6000
G1 Z4.600 F1200
G1 E0 F2100 ; custom un-retraction/prime
G92 E0.0000
G1 X91.2 Y98.2 E0.1293 F2880
G1 X94.654 Y98.2 E0.2534
G1 X94.654 Y101.8 E0.3827
G1 X91.2 Y101.8 E0.5067
G1 X90.72 Y102.28 F6000
G92 E0.0000
G1 X90.72 Y97.72 E0.1638 F2880
G1 X95.134 Y97.72 E0.3223
G1 X95.134 Y102.28 E0.4861
G1 X90.72 Y102.28 E0.6447
G1 X90.24000000000001 Y102.75999999999999 F6000
G92 E0.0000
G1 X90.24000000000001 Y97.24000000000001 E0.1983 F2160
G1 X95.614 Y97.24000000000001 E0.3913
G1 X95.614 Y102.75999999999999 E0.5896
G1 X90.24000000000001 Y102.75999999999999 E0.7826
G92 E0.0000
G1 E-0.4 F2100 ; custom retraction
;zhop1
G1 X95.614 Y102.64 F6000
G1 X132.386 Y102.75999999999999
G1 X132.386 Y101.821
G1 X133.346 Y101.8
G1 Z4.600 F1200
G1 E0 F2100 ; custom un-retraction/prime
G92 E0.0000
G1 X133.346 Y98.2 E0.1293 F2880
G1 X141.8 Y98.2 E0.4330
G1 X141.8 Y101.8 E0.5623
G1 X133.346 Y101.8 E0.8660
G1 X132.86599999999999 Y102.28 F6000
G92 E0.0000
G1 X132.86599999999999 Y97.72 E0.1638 F2880
G1 X142.28 Y97.72 E0.5019
G1 X142.28 Y102.28 E0.6657
G1 X132.86599999999999 Y102.28 E1.0039
G1 X132.386 Y102.75999999999999 F6000
G92 E0.0000
G1 X132.386 Y97.24000000000001 E0.1983 F2160
G1 X142.76 Y97.24000000000001 E0.5709
G1 X142.76 Y102.75999999999999 E0.7692
G1 X132.386 Y102.75999999999999 E1.1418
G1 X134.761 Y98.548 F6000
G92 E0.0000
G1 X137.66500000000002 Y101.452 E0.1844 F3600
G1 X141.452 Y101.452 E0.3544
G1 X141.452 Y100.99600000000001 E0.3749
G1 X139.00400000000002 Y98.548 E0.5304
G92 E0.0000
G1 E-0.4 F2100 ; custom retraction
;layer 24, Z = 4.800
;fan24;
G1 Z4.800 F1200
G1 X141.8 Y98.2 F6000
G1 E0 F2100 ; custom un-retraction/prime
G92 E0.0000
G1 X141.8 Y101.8 E0.1293 F2880
G1 X133.239 Y101.8 E0.4368
G1 X133.239 Y98.2 E0.5662
G1 X141.8 Y98.2 E0.8737
G1 X142.28 Y97.72 F6000
G92 E0.0000
G1 X142.28 Y102.28 E0.1638 F2880
G1 X132.75900000000001 Y102.28 E0.5058
G1 X132.75900000000001 Y97.72 E0.6696
G1 X142.28 Y97.72 E1.0116
G1 X142.76 Y97.24000000000001 F6000
G92 E0.0000
G1 X142.76 Y102.75999999999999 E0.1983 F2160
G1 X132.279 Y102.75999999999999 E0.5748
G1 X132.279 Y97.24000000000001 E0.7731
G1 X142.76 Y97.24000000000001 E1.1495
G1 X139.00400000000002 Y101.452 F6000
G92 E0.0000
G1 X141.452 Y99.00399999999999 E0.1555 F3600
G1 X141.452 Y98.548 E0.1759
G1 X137.66500000000002 Y98.548 E0.3460
G1 X134.761 Y101.452 E0.5304
G92 E0.0000
G1 E-0.4 F2100 ; custom retraction
;zhop1
G1 X94.761 Y101.8 F6000
G1 Z4.800 F1200
G1 E0 F2100 ; custom un-retraction/prime
G92 E0.0000
G1 X91.2 Y101.8 E0.1279 F2880
G1 X91.2 Y98.2 E0.2572
G1 X94.761 Y98.2 E0.3851
G1 X94.761 Y101.8 E0.5145
G1 X95.241 Y102.28 F6000
G92 E0.0000
G1 X90.72 Y102.28 E0.1624 F2880
G1 X90.72 Y97.72 E0.3262
G1 X95.241 Y97.72 E0.4886
G1 X95.241 Y102.28 E0.6524
G1 X95.721 Y102.75999999999999 F6000
G92 E0.0000
G1 X90.24000000000001 Y102.75999999999999 E0.1969 F2160
G1 X90.24000000000001 Y97.24000000000001 E0.3952
G1 X95.721 Y97.24000000000001 E0.5921
G1 X95.721 Y102.75999999999999 E0.7903
G92 E0.0000
G1 E-0.4 F2100 ; custom retraction
;zhop1
G1 X90.24000000000001 Y101.193 F6000
G1 X86.674 Y100.174
G1 Z4.800 F1200
G1 E0 F2100 ; custom un-retraction/prime
G92 E0.0000
G1 X86.326 Y100.174 E0.0125 F2160
G1 X86.326 Y99.826 E0.0250
G1 X86.674 Y99.826 E0.0375
G1 X86.674 Y100.174 E0.0500
G92 E0.0000
G1 E-0.4 F2100 ; custom retraction
;layer 25, Z = 5.000
;fan25;
G1 Z5.000 F1200
G1 X86.642 Y100.142 F6000
G1 E0 F2100 ; custom un-retraction/prime
G92 E0.0000
G1 X86.358 Y100.142 E0.0102 F2160
G1 X86.358 Y99.858 E0.0204
G1 X86.642 Y99.858 E0.0307
G1 X86.642 Y100.142 E0.0409
G92 E0.0000
G1 E-0.4 F2100 ; custom retraction
;zhop1
G1 X91.2 Y101.8 F6000
G1 Z5.000 F1200
G1 E0 F2100 ; custom un-retraction/prime
G92 E0.0000
G1 X91.2 Y98.2 E0.1293 F2880
G1 X94.875 Y98.2 E0.2613
G1 X94.875 Y101.8 E0.3906
G1 X91.2 Y101.8 E0.5226
G1 X90.72 Y102.28 F6000
G92 E0.0000
G1 X90.72 Y97.72 E0.1638 F2880
G1 X95.35499999999999 Y97.72 E0.3303
G1 X95.35499999999999 Y102.28 E0.4941
G1 X90.72 Y102.28 E0.6606
G1 X90.24000000000001 Y102.75999999999999 F6000
G92 E0.0000
G1 X90.24000000000001 Y97.24000000000001 E0.1983 F2160
G1 X95.83500000000001 Y97.24000000000001 E0.3993
G1 X95.83500000000001 Y102.75999999999999 E0.5975
G1 X90.24000000000001 Y102.75999999999999 E0.7985
G92 E0.0000
G1 E-0.4 F2100 ; custom retraction
;zhop1
G1 X95.83500000000001 Y102.63499999999999 F6000
G1 X132.16500000000002 Y102.75999999999999
G1 X132.16500000000002 Y101.821
G1 X133.125 Y101.8
G1 Z5.000 F1200
G1 E0 F2100 ; custom un-retraction/prime
G92 E0.0000
G1 X133.125 Y98.2 E0.1293 F2880
G1 X141.8 Y98.2 E0.4409
G1 X141.8 Y101.8 E0.5702
G1 X133.125 Y101.8 E0.8818
G1 X132.64499999999998 Y102.28 F6000
G92 E0.0000
G1 X132.64499999999998 Y97.72 E0.1638 F2880
G1 X142.28 Y97.72 E0.5099
G1 X142.28 Y102.28 E0.6737
G1 X132.64499999999998 Y102.28 E1.0198
G1 X132.16500000000002 Y102.75999999999999 F6000
G92 E0.0000
G1 X132.16500000000002 Y97.24000000000001 E0.1983 F2160
G1 X142.76 Y97.24000000000001 E0.5789
G1 X142.76 Y102.75999999999999 E0.7771
G1 X132.16500000000002 Y102.75999999999999 E1.1577
G1 X134.761 Y98.548 F6000
G92 E0.0000
G1 X137.66500000000002 Y101.452 E0.1844 F3600
G1 X141.452 Y101.452 E0.3544
G1 X141.452 Y100.99600000000001 E0.3749
G1 X139.00400000000002 Y98.548 E0.5304
G92 E0.0000
G1 E-0.4 F2100 ; custom retraction
;layer 26, Z = 5.200
;fan26;
G1 Z5.200 F1200
G1 X141.8 Y98.2 F6000
G1 E0 F2100 ; custom un-retraction/prime
G92 E0.0000
G1 X141.8 Y101.8 E0.1293 F2880
G1 X133.001 Y101.8 E0.4454
G1 X133.001 Y98.2 E0.5747
G1 X141.8 Y98.2 E0.8908
G1 X142.28 Y97.72 F6000
G92 E0.0000
G1 X142.28 Y102.28 E0.1638 F2880
G1 X132.52100000000002 Y102.28 E0.5144
G1 X132.52100000000002 Y97.72 E0.6782
G1 X142.28 Y97.72 E1.0287
G1 X142.76 Y97.24000000000001 F6000
G92 E0.0000
G1 X142.76 Y102.75999999999999 E0.1983 F2160
G1 X132.041 Y102.75999999999999 E0.5833
G1 X132.041 Y97.24000000000001 E0.7816
G1 X142.76 Y97.24000000000001 E1.1667
G1 X141.452 Y99.00399999999999 F6000
G92 E0.0000
G1 X139.00400000000002 Y101.452 E0.1555 F3600
G1 X134.761 Y101.452 E0.3460
G1 X137.66500000000002 Y98.548 E0.5304
G1 X133.423 Y98.548 E0.7209
G1 X133.349 Y98.622 E0.7256
G92 E0.0000
G1 E-0.4 F2100 ; custom retraction
;zhop1
G1 X94.999 Y98.2 F6000
G1 Z5.200 F1200
G1 E0 F2100 ; custom un-retraction/prime
G92 E0.0000
G1 X94.999 Y101.8 E0.1293 F2880
G1 X91.2 Y101.8 E0.2658
G1 X91.2 Y98.2 E0.3951
G1 X94.999 Y98.2 E0.5316
G1 X95.479 Y97.72 F6000
G92 E0.0000
G1 X95.479 Y102.28 E0.1638 F2880
G1 X90.72 Y102.28 E0.3348
G1 X90.72 Y97.72 E0.4986
G1 X95.479 Y97.72 E0.6695
G1 X95.959 Y97.24000000000001 F6000
G92 E0.0000
G1 X95.959 Y102.75999999999999 E0.1983 F2160
G1 X90.24000000000001 Y102.75999999999999 E0.4037
G1 X90.24000000000001 Y97.24000000000001 E0.6020
G1 X95.959 Y97.24000000000001 E0.8075
G92 E0.0000
G1 E-0.4 F2100 ; custom retraction
;zhop1
G1 X86.611 Y99.88900000000001 F6000
G1 Z5.200 F1200
G1 E0 F2100 ; custom un-retraction/prime
G92 E0.0000
G1 X86.611 Y100.11099999999999 E0.0079 F2160
G1 X86.389 Y100.11099999999999 E0.0159
G1 X86.389 Y99.88900000000001 E0.0238
G1 X86.611 Y99.88900000000001 E0.0318
G92 E0.0000
G1 E-0.4 F2100 ; custom retraction
;layer 27, Z = 5.400
;fan27;
G1 Z5.400 F1200
G1 X86.57900000000001 Y99.92099999999999 F6000
G1 E0 F2100 ; custom un-retraction/prime
G92 E0.0000
G1 X86.57900000000001 Y100.07900000000001 E0.0057 F2160
G1 X86.42099999999999 Y100.07900000000001 E0.0113
G1 X86.42099999999999 Y99.92099999999999 E0.0170
G1 X86.57900000000001 Y99.92099999999999 E0.0227
G92 E0.0000
G1 E-0.4 F2100 ; custom retraction
;zhop1
G1 X91.2 Y98.2 F6000
G1 Z5.400 F1200
G1 E0 F2100 ; custom un-retraction/prime
G92 E0.0000
G1 X95.132 Y98.2 E0.1412 F2880
G1 X95.132 Y101.8 E0.2706
G1 X91.2 Y101.8 E0.4118
G1 X91.2 Y98.2 E0.5411
G1 X90.72 Y97.72 F6000
G92 E0.0000
G1 X95.612 Y97.72 E0.1757 F2880
G1 X95.612 Y102.28 E0.3395
G1 X90.72 Y102.28 E0.5153
G1 X90.72 Y97.72 E0.6791
G1 X90.24000000000001 Y97.24000000000001 F6000
G92 E0.0000
G1 X96.092 Y97.24000000000001 E0.2102 F2160
G1 X96.092 Y102.75999999999999 E0.4085
G1 X90.24000000000001 Y102.75999999999999 E0.6187
G1 X90.24000000000001 Y97.24000000000001 E0.8170
G92 E0.0000
G1 E-0.4 F2100 ; custom retraction
;zhop1
G1 X96.092 Y97.372 F6000
G1 X131.90800000000002 Y97.24000000000001
G1 X131.90800000000002 Y98.178
G1 X132.868 Y98.2
G1 Z5.400 F1200
G1 E0 F2100 ; custom un-retraction/prime
G92 E0.0000
G1 X141.8 Y98.2 E0.3209 F2880
G1 X141.8 Y101.8 E0.4502
G1 X132.868 Y101.8 E0.7710
G1 X132.868 Y98.2 E0.9003
G1 X132.388 Y97.72 F6000
G92 E0.0000
G1 X142.28 Y97.72 E0.3553 F2880
G1 X142.28 Y102.28 E0.5191
G1 X132.388 Y102.28 E0.8745
G1 X132.388 Y97.72 E1.0383
G1 X131.90800000000002 Y97.24000000000001 F6000
G92 E0.0000
G1 X142.76 Y97.24000000000001 E0.3898 F2160
G1 X142.76 Y102.75999999999999 E0.5881
G1 X131.90800000000002 Y102.75999999999999 E0.9779
G1 X131.90800000000002 Y97.24000000000001 E1.1762
G1 X133.423 Y101.452 F6000
G92 E0.0000
G1 X133.216 Y101.245 E0.0131 F3600
G1 X133.216 Y98.548 E0.1342
G1 X134.761 Y98.548 E0.2036
G1 X137.66500000000002 Y101.452 E0.3880
G1 X141.452 Y101.452 E0.5581
G1 X141.452 Y100.99600000000001 E0.5785
G1 X139.00400000000002 Y98.548 E0.7340
G92 E0.0000
G1 E-0.4 F2100 ; custom retraction
;layer 28, Z = 5.600
;fan28;
G1 Z5.600 F1200
G1 X141.8 Y98.2 F6000
G1 E0 F2100 ; custom un-retraction/prime
G92 E0.0000
G1 X141.8 Y101.8 E0.1293 F2880
G1 X132.727 Y101.8 E0.4552
G1 X132.727 Y98.2 E0.5846
G1 X141.8 Y98.2 E0.9105
G1 X142.28 Y97.72 F6000
G92 E0.0000
G1 X142.28 Y102.28 E0.1638 F2880
G1 X132.247 Y102.28 E0.5242
G1 X132.247 Y97.72 E0.6880
G1 X142.28 Y97.72 E1.0484
G1 X142.76 Y97.24000000000001 F6000
G92 E0.0000
G1 X142.76 Y102.75999999999999 E0.1983 F2160
G1 X131.767 Y102.75999999999999 E0.5932
G1 X131.767 Y97.24000000000001 E0.7915
G1 X142.76 Y97.24000000000001 E1.1864
G1 X141.452 Y99.00399999999999 F6000
G92 E0.0000
G1 X139.00400000000002 Y101.452 E0.1555 F3600
G1 X134.761 Y101.452 E0.3460
G1 X137.66500000000002 Y98.548 E0.5304
G1 X133.423 Y98.548 E0.7209
G1 X133.075 Y98.896 E0.7430
G92 E0.0000
G1 E-0.4 F2100 ; custom retraction
;zhop1
G1 X95.273 Y98.2 F6000
G1 Z5.600 F1200
G1 E0 F2100 ; custom un-retraction/prime
G92 E0.0000
G1 X95.273 Y101.8 E0.1293 F2880
G1 X91.2 Y101.8 E0.2756
G1 X91.2 Y98.2 E0.4049
G1 X95.273 Y98.2 E0.5513
G1 X95.753 Y97.72 F6000
G92 E0.0000
G1 X95.753 Y102.28 E0.1638 F2880
G1 X90.72 Y102.28 E0.3446
G1 X90.72 Y97.72 E0.5084
G1 X95.753 Y97.72 E0.6892
G1 X96.233 Y97.24000000000001 F6000
G92 E0.0000
G1 X96.233 Y102.75999999999999 E0.1983 F2160
G1 X90.24000000000001 Y102.75999999999999 E0.4136
G1 X90.24000000000001 Y97.24000000000001 E0.6119
G1 X96.233 Y97.24000000000001 E0.8271
G92 E0.0000
G1 E-0.4 F2100 ; custom retraction
;zhop1
G1 X86.547 Y99.953 F6000
G1 Z5.600 F1200
G1 E0 F2100 ; custom un-retraction/prime
G92 E0.0000
G1 X86.547 Y100.047 E0.0034 F2160
G1 X86.453 Y100.047 E0.0068
G1 X86.453 Y99.953 E0.0102
G1 X86.547 Y99.953 E0.0136
G92 E0.0000
G1 E-0.4 F2100 ; custom retraction
;layer 29, Z = 5.800
;fan29;
G1 Z5.800 F1200
G1 X86.51599999999999 Y99.98400000000001 F6000
G1 E0 F2100 ; custom un-retraction/prime
G92 E0.0000
G1 X86.51599999999999 Y100.01599999999999 E0.0011 F2160
G1 X86.48400000000001 Y100.01599999999999 E0.0022
G1 X86.48400000000001 Y99.98400000000001 E0.0034
G1 X86.51599999999999 Y99.98400000000001 E0.0045
G92 E0.0000
G1 E-0.4 F2100 ; custom retraction
;zhop1
G1 X90.913 Y99.695 F6000
G1 Z5.800 F1200
G1 E0 F2100 ; custom un-retraction/prime
G92 E0.0000
G1 X91.2 Y99.53 E0.0119 F2880
G1 X91.2 Y98.2 E0.0597
G1 X95.423 Y98.2 E0.2114
G1 X95.423 Y101.8 E0.3407
G1 X91.2 Y101.8 E0.4924
G1 X91.2 Y100.47 E0.5402
G1 X90.913 Y100.305 E0.5521
G1 X90.913 Y99.695 E0.5740
G1 X90.72 Y99.25200000000001 F6000
G92 E0.0000
G1 X90.72 Y97.72 E0.0550 F2880
G1 X95.90299999999999 Y97.72 E0.2412
G1 X95.90299999999999 Y102.28 E0.4050
G1 X90.72 Y102.28 E0.5912
G1 X90.72 Y100.74799999999999 E0.6463
G1 X90.43299999999999 Y100.583 E0.6582
G1 X90.43299999999999 Y99.417 E0.7000
G1 X90.72 Y99.25200000000001 E0.7119
G1 X90.24000000000001 Y98.97399999999999 F6000
G92 E0.0000
G1 X90.24000000000001 Y97.24000000000001 E0.0623 F2160
G1 X96.38300000000001 Y97.24000000000001 E0.2830
G1 X96.38300000000001 Y102.75999999999999 E0.4813
G1 X90.24000000000001 Y102.75999999999999 E0.7019
G1 X90.24000000000001 Y101.02600000000001 E0.7642
G1 X89.953 Y100.86099999999999 E0.7761
G1 X89.953 Y99.13900000000001 E0.8380
G1 X90.24000000000001 Y98.97399999999999 E0.8499
G92 E0.0000
G1 E-0.4 F2100 ; custom retraction
;zhop1
G1 X132.577 Y98.2 F6000
G1 Z5.800 F1200
G1 E0 F2100 ; custom un-retraction/prime
G92 E0.0000
G1 X141.8 Y98.2 E0.3313 F2880
G1 X141.8 Y101.8 E0.4606
G1 X132.577 Y101.8 E0.7919
G1 X132.577 Y98.2 E0.9213
G1 X132.09699999999998 Y97.72 F6000
G92 E0.0000
G1 X142.28 Y97.72 E0.3658 F2880
G1 X142.28 Y102.28 E0.5296
G1 X132.09699999999998 Y102.28 E0.8954
G1 X132.09699999999998 Y97.72 E1.0592
G1 X131.61700000000002 Y97.24000000000001 F6000
G92 E0.0000
G1 X142.76 Y97.24000000000001 E0.4003 F2160
G1 X142.76 Y102.75999999999999 E0.5986
G1 X131.61700000000002 Y102.75999999999999 E0.9989
G1 X131.61700000000002 Y97.24000000000001 E1.1971
G1 X133.423 Y101.452 F6000
G92 E0.0000
G1 X132.925 Y100.95400000000001 E0.0316 F3600
G1 X132.925 Y98.548 E0.1397
G1 X134.761 Y98.548 E0.2221
G1 X137.66500000000002 Y101.452 E0.4065
G1 X141.452 Y101.452 E0.5766
G1 X141.452 Y100.99600000000001 E0.5970
G1 X139.00400000000002 Y98.548 E0.7525
G92 E0.0000
G1 E-0.4 F2100 ; custom retraction
;layer 30, Z = 6.000
;fan30;
G1 Z6.000 F1200
G1 X141.8 Y98.2 F6000
G1 E0 F2100 ; custom un-retraction/prime
G92 E0.0000
G1 X141.8 Y101.8 E0.1293 F2880
G1 X132.413 Y101.8 E0.4665
G1 X132.413 Y98.2 E0.5958
G1 X141.8 Y98.2 E0.9330
G1 X142.28 Y97.72 F6000
G92 E0.0000
G1 X142.28 Y102.28 E0.1638 F2880
G1 X131.933 Y102.28 E0.5355
G1 X131.933 Y97.72 E0.6993
G1 X142.28 Y97.72 E1.0710
G1 X142.76 Y97.24000000000001 F6000
G92 E0.0000
G1 X142.76 Y102.75999999999999 E0.1983 F2160
G1 X131.453 Y102.75999999999999 E0.6044
G1 X131.453 Y97.24000000000001 E0.8027
G1 X142.76 Y97.24000000000001 E1.2089
G1 X141.452 Y99.00399999999999 F6000
G92 E0.0000
G1 X139.00400000000002 Y101.452 E0.1555 F3600
G1 X134.761 Y101.452 E0.3460
G1 X137.66500000000002 Y98.548 E0.5304
G1 X133.423 Y98.548 E0.7209
G1 X132.761 Y99.21000000000001 E0.7629
G92 E0.0000
G1 E-0.4 F2100 ; custom retraction
;zhop1
G1 X95.587 Y98.2 F6000
G1 Z6.000 F1200
G1 E0 F2100 ; custom un-retraction/prime
G92 E0.0000
G1 X95.587 Y101.8 E0.1293 F2880
G1 X91.2 Y101.8 E0.2869
G1 X91.2 Y100.63300000000001 E0.3288
G1 X90.62700000000001 Y100.305 E0.3525
G1 X90.62700000000001 Y99.695 E0.3744
G1 X91.2 Y99.36699999999999 E0.3982
G1 X91.2 Y98.2 E0.4401
G1 X95.587 Y98.2 E0.5976
G1 X96.06700000000001 Y97.72 F6000
G92 E0.0000
G1 X96.06700000000001 Y102.28 E0.1638 F2880
G1 X90.72 Y102.28 E0.3559
G1 X90.72 Y100.911 E0.4050
G1 X90.14699999999999 Y100.583 E0.4288
G1 X90.14699999999999 Y99.417 E0.4706
G1 X90.72 Y99.089 E0.4943
G1 X90.72 Y97.72 E0.5435
G1 X96.06700000000001 Y97.72 E0.7356
G1 X96.547 Y97.24000000000001 F6000
G92 E0.0000
G1 X96.547 Y102.75999999999999 E0.1983 F2160
G1 X90.24000000000001 Y102.75999999999999 E0.4248
G1 X90.24000000000001 Y101.189 E0.4813
G1 X89.667 Y100.86099999999999 E0.5050
G1 X89.667 Y99.13900000000001 E0.5668
G1 X90.24000000000001 Y98.81 E0.5905
G1 X90.24000000000001 Y97.24000000000001 E0.6470
G1 X96.547 Y97.24000000000001 E0.8735
G92 E0.0000
G1 E-0.4 F2100 ; custom retraction
;layer 31, Z = 6.200
;fan31;
G1 Z6.200 F1200
G1 X95.762 Y98.2 F6000
G1 E0 F2100 ; custom un-retraction/prime
G92 E0.0000
G1 X95.762 Y101.8 E0.1293 F2880
G1 X91.2 Y101.8 E0.2932
G1 X91.2 Y100.797 E0.3292
G1 X90.342 Y100.305 E0.3648
G1 X90.342 Y99.695 E0.3867
G1 X91.2 Y99.203 E0.4222
G1 X91.2 Y98.2 E0.4582
G1 X95.762 Y98.2 E0.6221
G1 X96.24199999999999 Y97.72 F6000
G92 E0.0000
G1 X96.24199999999999 Y102.28 E0.1638 F2880
G1 X90.72 Y102.28 E0.3622
G1 X90.72 Y101.075 E0.4054
G1 X89.862 Y100.583 E0.4410
G1 X89.862 Y99.417 E0.4829
G1 X90.72 Y98.925 E0.5184
G1 X90.72 Y97.72 E0.5617
G1 X96.24199999999999 Y97.72 E0.7600
G1 X96.72200000000001 Y97.24000000000001 F6000
G92 E0.0000
G1 X96.72200000000001 Y102.75999999999999 E0.1983 F2160
G1 X90.24000000000001 Y102.75999999999999 E0.4311
G1 X90.24000000000001 Y101.35300000000001 E0.4817
G1 X89.382 Y100.86099999999999 E0.5172
G1 X89.382 Y99.13900000000001 E0.5791
G1 X90.24000000000001 Y98.64699999999999 E0.6146
G1 X90.24000000000001 Y97.24000000000001 E0.6651
G1 X96.72200000000001 Y97.24000000000001 E0.8980
G1 X95.465 Y98.794 F6000
G92 E0.0000
G1 X95.47399999999999 Y98.80199999999999 E0.0004 F2880
G1 X95.47399999999999 Y99.481 E0.0248
G1 X95.465 Y99.47200000000001 E0.0253
G1 X95.465 Y100.15100000000001 E0.0497
G1 X95.47399999999999 Y100.16 E0.0501
G1 X95.47399999999999 Y100.839 E0.0745
G1 X95.465 Y100.83 E0.0749
G1 X95.469 Y101.512 E0.0995
G1 X90.931 Y99.689 F6000
G92 E0.0000
G1 X91.00800000000001 Y99.767 E0.0039 F2880
G1 X91.00800000000001 Y100.35499999999999 E0.0251
G1 X90.79599999999999 Y100.233 E0.0339
G1 X90.63 Y100.06700000000001 E0.0423
G92 E0.0000
G1 E-0.4 F2100 ; custom retraction
;zhop1
G1 X96.72200000000001 Y100.321 F6000
G1 X96.72200000000001 Y102.75999999999999
G1 X131.27800000000002 Y102.75999999999999
G1 X131.27800000000002 Y101.75999999999999
G1 X132.238 Y101.8
G1 Z6.200 F1200
G1 E0 F2100 ; custom un-retraction/prime
G92 E0.0000
G1 X132.238 Y98.2 E0.1293 F2880
G1 X141.8 Y98.2 E0.4728
G1 X141.8 Y101.8 E0.6021
G1 X132.238 Y101.8 E0.9456
G1 X131.75799999999998 Y102.28 F6000
G92 E0.0000
G1 X131.75799999999998 Y97.72 E0.1638 F2880
G1 X142.28 Y97.72 E0.5418
G1 X142.28 Y102.28 E0.7056
G1 X131.75799999999998 Y102.28 E1.0835
G1 X131.27800000000002 Y102.75999999999999 F6000
G92 E0.0000
G1 X131.27800000000002 Y97.24000000000001 E0.1983 F2160
G1 X142.76 Y97.24000000000001 E0.6107
G1 X142.76 Y102.75999999999999 E0.8090
G1 X131.27800000000002 Y102.75999999999999 E1.2215
G1 X132.535 Y101.243 F6000
G92 E0.0000
G1 X132.526 Y101.23400000000001 E0.0004 F2880
G1 X132.526 Y100.555 E0.0248
G1 X132.535 Y100.564 E0.0253
G1 X132.535 Y99.88499999999999 E0.0497
G1 X132.526 Y99.87700000000001 E0.0501
G1 X132.526 Y99.19800000000001 E0.0745
G1 X132.535 Y99.206 E0.0749
G1 X132.535 Y98.52799999999999 E0.0993
G1 X132.526 Y98.519 E0.0998
G1 X133.423 Y101.452 F6000
G92 E0.0000
G1 X133.075 Y101.104 E0.0221 F3600
G1 X133.075 Y98.548 E0.1369
G1 X134.761 Y98.548 E0.2126
G1 X137.66500000000002 Y101.452 E0.3970
G1 X141.452 Y101.452 E0.5670
G1 X141.452 Y100.99600000000001 E0.5875
G1 X139.00400000000002 Y98.548 E0.7430
G92 E0.0000
G1 E-0.4 F2100 ; custom retraction
;layer 32, Z = 6.400
;fan32;
G1 Z6.400 F1200
G1 X141.8 Y98.2 F6000
G1 E0 F2100 ; custom un-retraction/prime
G92 E0.0000
G1 X141.8 Y101.8 E0.1293 F2880
G1 X132.051 Y101.8 E0.4795
G1 X132.051 Y98.2 E0.6088
G1 X141.8 Y98.2 E0.9590
G1 X142.28 Y97.72 F6000
G92 E0.0000
G1 X142.28 Y102.28 E0.1638 F2880
G1 X131.571 Y102.28 E0.5485
G1 X131.571 Y97.72 E0.7123
G1 X142.28 Y97.72 E1.0970
G1 X142.76 Y97.24000000000001 F6000
G92 E0.0000
G1 X142.76 Y102.75999999999999 E0.1983 F2160
G1 X131.091 Y102.75999999999999 E0.6175
G1 X131.091 Y97.24000000000001 E0.8157
G1 X142.76 Y97.24000000000001 E1.2349
G1 X132.339 Y98.953 F6000
G92 E0.0000
G1 X132.385 Y98.907 E0.0023 F2880
G1 X132.385 Y99.586 E0.0267
G1 X132.339 Y99.632 E0.0290
G1 X132.339 Y100.311 E0.0534
G1 X132.385 Y100.265 E0.0557
G1 X132.385 Y100.944 E0.0801
G1 X132.339 Y100.989 E0.0825
G1 X132.925 Y99.04599999999999 F6000
G92 E0.0000
G1 X133.423 Y98.548 E0.0316 F3600
G1 X137.66500000000002 Y98.548 E0.2221
G1 X134.761 Y101.452 E0.4065
G1 X139.00400000000002 Y101.452 E0.5970
G1 X141.452 Y99.00399999999999 E0.7525
G92 E0.0000
G1 E-0.4 F2100 ; custom retraction
;zhop1
G1 X95.949 Y98.2 F6000
G1 Z6.400 F1200
G1 E0 F2100 ; custom un-retraction/prime
G92 E0.0000
G1 X95.949 Y101.8 E0.1293 F2880
G1 X91.2 Y101.8 E0.2999
G1 X91.2 Y100.961 E0.3300
G1 X90.056 Y100.305 E0.3774
G1 X90.056 Y99.695 E0.3993
G1 X91.2 Y99.039 E0.4467
G1 X91.2 Y98.2 E0.4768
G1 X95.949 Y98.2 E0.6474
G1 X96.429 Y97.72 F6000
G92 E0.0000
G1 X96.429 Y102.28 E0.1638 F2880
G1 X90.72 Y102.28 E0.3689
G1 X90.72 Y101.239 E0.4063
G1 X89.576 Y100.583 E0.4536
G1 X89.576 Y99.417 E0.4955
G1 X90.72 Y98.761 E0.5429
G1 X90.72 Y97.72 E0.5803
G1 X96.429 Y97.72 E0.7854
G1 X96.90899999999999 Y97.24000000000001 F6000
G92 E0.0000
G1 X96.90899999999999 Y102.75999999999999 E0.1983 F2160
G1 X90.24000000000001 Y102.75999999999999 E0.4378
G1 X90.24000000000001 Y101.517 E0.4825
G1 X89.096 Y100.86099999999999 E0.5299
G1 X89.096 Y99.13900000000001 E0.5917
G1 X90.24000000000001 Y98.483 E0.6391
G1 X90.24000000000001 Y97.24000000000001 E0.6837
G1 X96.90899999999999 Y97.24000000000001 E0.9233
G1 X95.61500000000001 Y99.02000000000001 F6000
G92 E0.0000
G1 X95.661 Y98.97399999999999 E0.0023 F2880
G1 X95.661 Y99.65299999999999 E0.0267
G1 X95.61500000000001 Y99.699 E0.0290
G1 X95.61500000000001 Y100.378 E0.0534
G1 X95.661 Y100.332 E0.0557
G1 X95.661 Y101.011 E0.0801
G1 X95.61500000000001 Y101.056 E0.0825
G1 X90.721 Y99.842 F6000
G92 E0.0000
G1 X90.39500000000001 Y100.167 E0.0166 F2880
G92 E0.0000
G1 E-0.4 F2100 ; custom retraction
;layer 33, Z = 6.600
;fan33;
G1 Z6.600 F1200
G1 X89.77000000000001 Y100.305 F6000
G1 E0 F2100 ; custom un-retraction/prime
G92 E0.0000
G1 X89.77000000000001 Y99.695 E0.0219 F2880
G1 X91.2 Y98.875 E0.0811
G1 X91.2 Y98.2 E0.1054
G1 X96.15 Y98.2 E0.2832
G1 X96.15 Y101.8 E0.4125
G1 X91.2 Y101.8 E0.5903
G1 X91.2 Y101.125 E0.6146
G1 X89.77000000000001 Y100.305 E0.6738
G1 X89.28999999999999 Y100.583 F6000
G92 E0.0000
G1 X89.28999999999999 Y99.417 E0.0419 F2880
G1 X90.72 Y98.59700000000001 E0.1011
G1 X90.72 Y97.72 E0.1326
G1 X96.63 Y97.72 E0.3449
G1 X96.63 Y102.28 E0.5087
G1 X90.72 Y102.28 E0.7210
G1 X90.72 Y101.40299999999999 E0.7525
G1 X89.28999999999999 Y100.583 E0.8117
G1 X88.81 Y100.86099999999999 F6000
G92 E0.0000
G1 X88.81 Y99.13900000000001 E0.0619 F2160
G1 X90.24000000000001 Y98.319 E0.1211
G1 X90.24000000000001 Y97.24000000000001 E0.1598
G1 X97.11 Y97.24000000000001 E0.4066
G1 X97.11 Y102.75999999999999 E0.6049
G1 X90.24000000000001 Y102.75999999999999 E0.8517
G1 X90.24000000000001 Y101.681 E0.8904
G1 X88.81 Y100.86099999999999 E0.9496
G1 X90.291 Y99.729 F6000
G92 E0.0000
G1 X90.435 Y99.87299999999999 E0.0073 F2880
G1 X95.839 Y98.488 F6000
G92 E0.0000
G1 X95.862 Y98.512 E0.0012 F2880
G1 X95.862 Y99.19 E0.0256
G1 X95.779 Y99.107 E0.0298
G1 X95.779 Y99.786 E0.0542
G1 X95.862 Y99.869 E0.0584
G1 X95.862 Y100.548 E0.0828
G1 X95.779 Y100.465 E0.0870
G1 X95.779 Y101.144 E0.1114
G1 X95.862 Y101.227 E0.1156
G92 E0.0000
G1 E-0.4 F2100 ; custom retraction
;zhop1
G1 X131.85 Y101.8 F6000
G1 Z6.600 F1200
G1 E0 F2100 ; custom un-retraction/prime
G92 E0.0000
G1 X131.85 Y98.2 E0.1293 F2880
G1 X141.8 Y98.2 E0.4867
G1 X141.8 Y101.8 E0.6161
G1 X131.85 Y101.8 E0.9735
G1 X131.37 Y102.28 F6000
G92 E0.0000
G1 X131.37 Y97.72 E0.1638 F2880
G1 X142.28 Y97.72 E0.5557
G1 X142.28 Y102.28 E0.7195
G1 X131.37 Y102.28 E1.1114
G1 X130.89 Y102.75999999999999 F6000
G92 E0.0000
G1 X130.89 Y97.24000000000001 E0.1983 F2160
G1 X142.76 Y97.24000000000001 E0.6247
G1 X142.76 Y102.75999999999999 E0.8230
G1 X130.89 Y102.75999999999999 E1.2493
G1 X132.138 Y100.846 F6000
G92 E0.0000
G1 X132.221 Y100.929 E0.0042 F2880
G1 X132.221 Y100.25 E0.0286
G1 X132.138 Y100.167 E0.0328
G1 X132.138 Y99.488 E0.0572
G1 X132.221 Y99.571 E0.0614
G1 X132.221 Y98.893 E0.0858
G1 X132.138 Y98.81 E0.0900
G1 X133.423 Y101.452 F6000
G92 E0.0000
G1 X132.761 Y100.78999999999999 E0.0420 F3600
G1 X132.761 Y98.548 E0.1427
G1 X134.761 Y98.548 E0.2325
G1 X137.66500000000002 Y101.452 E0.4169
G1 X141.452 Y101.452 E0.5870
G1 X141.452 Y100.99600000000001 E0.6074
G1 X139.00400000000002 Y98.548 E0.7629
G92 E0.0000
G1 E-0.4 F2100 ; custom retraction
;layer 34, Z = 6.800
;fan34;
G1 Z6.800 F1200
G1 X141.8 Y98.2 F6000
G1 E0 F2100 ; custom un-retraction/prime
G92 E0.0000
G1 X141.8 Y101.8 E0.1293 F2880
G1 X131.63299999999998 Y101.8 E0.4945
G1 X131.63299999999998 Y98.2 E0.6238
G1 X141.8 Y98.2 E0.9890
G1 X142.28 Y97.72 F6000
G92 E0.0000
G1 X142.28 Y102.28 E0.1638 F2880
G1 X131.15300000000002 Y102.28 E0.5635
G1 X131.15300000000002 Y97.72 E0.7273
G1 X142.28 Y97.72 E1.1270
G1 X142.76 Y97.24000000000001 F6000
G92 E0.0000
G1 X142.76 Y102.75999999999999 E0.1983 F2160
G1 X130.673 Y102.75999999999999 E0.6325
G1 X130.673 Y97.24000000000001 E0.8307
G1 X142.76 Y97.24000000000001 E1.2649
G1 X131.921 Y98.69200000000001 F6000
G92 E0.0000
G1 X132.046 Y98.56700000000001 E0.0063 F2880
G1 X132.046 Y99.24600000000001 E0.0307
G1 X131.921 Y99.37100000000001 E0.0371
G1 X131.921 Y100.049 E0.0614
G1 X132.046 Y99.925 E0.0678
G1 X132.046 Y100.60300000000001 E0.0922
G1 X131.921 Y100.72800000000001 E0.0985
G1 X131.921 Y101.407 E0.1229
G1 X132.046 Y101.282 E0.1292
G1 X132.586 Y99.38499999999999 F6000
G92 E0.0000
G1 X133.423 Y98.548 E0.0531 F3600
G1 X137.66500000000002 Y98.548 E0.2436
G1 X134.761 Y101.452 E0.4280
G1 X139.00400000000002 Y101.452 E0.6185
G1 X141.452 Y99.00399999999999 E0.7740
G92 E0.0000
G1 E-0.4 F2100 ; custom retraction
;zhop1
G1 X96.36699999999999 Y98.2 F6000
G1 Z6.800 F1200
G1 E0 F2100 ; custom un-retraction/prime
G92 E0.0000
G1 X96.36699999999999 Y101.8 E0.1293 F2880
G1 X91.2 Y101.8 E0.3149
G1 X91.2 Y101.289 E0.3333
G1 X89.485 Y100.305 E0.4043
G1 X89.485 Y99.695 E0.4262
G1 X91.2 Y98.711 E0.4972
G1 X91.2 Y98.2 E0.5156
G1 X96.36699999999999 Y98.2 E0.7012
G1 X96.84700000000001 Y97.72 F6000
G92 E0.0000
G1 X96.84700000000001 Y102.28 E0.1638 F2880
G1 X90.72 Y102.28 E0.3839
G1 X90.72 Y101.56700000000001 E0.4095
G1 X89.005 Y100.583 E0.4805
G1 X89.005 Y99.417 E0.5224
G1 X90.72 Y98.43299999999999 E0.5934
G1 X90.72 Y97.72 E0.6191
G1 X96.84700000000001 Y97.72 E0.8391
G1 X97.327 Y97.24000000000001 F6000
G92 E0.0000
G1 X97.327 Y102.75999999999999 E0.1983 F2160
G1 X90.24000000000001 Y102.75999999999999 E0.4529
G1 X90.24000000000001 Y101.845 E0.4857
G1 X88.525 Y100.86099999999999 E0.5568
G1 X88.525 Y99.13900000000001 E0.6186
G1 X90.24000000000001 Y98.155 E0.6896
G1 X90.24000000000001 Y97.24000000000001 E0.7225
G1 X97.327 Y97.24000000000001 E0.9771
G1 X95.95400000000001 Y98.681 F6000
G92 E0.0000
G1 X96.07900000000001 Y98.556 E0.0063 F2880
G1 X96.07900000000001 Y99.235 E0.0307
G1 X95.95400000000001 Y99.36 E0.0371
G1 X95.95400000000001 Y100.039 E0.0614
G1 X96.07900000000001 Y99.914 E0.0678
G1 X96.07900000000001 Y100.593 E0.0922
G1 X95.95400000000001 Y100.718 E0.0985
G1 X95.95400000000001 Y101.39699999999999 E0.1229
G1 X96.07900000000001 Y101.27199999999999 E0.1292
G1 X90.15 Y99.73400000000001 F6000
G92 E0.0000
G1 X89.773 Y100.11099999999999 E0.0191 F2880
G92 E0.0000
G1 E-0.4 F2100 ; custom retraction
;layer 35, Z = 7.000
;fan35;
G1 Z7.000 F1200
G1 X89.199 Y100.305 F6000
G1 E0 F2100 ; custom un-retraction/prime
G92 E0.0000
G1 X89.199 Y99.695 E0.0219 F2880
G1 X91.2 Y98.547 E0.1048
G1 X91.2 Y98.2 E0.1172
G1 X96.602 Y98.2 E0.3113
G1 X96.602 Y101.8 E0.4406
G1 X91.2 Y101.8 E0.6346
G1 X91.2 Y101.453 E0.6471
G1 X89.199 Y100.305 E0.7300
G1 X88.719 Y100.583 F6000
G92 E0.0000
G1 X88.719 Y99.417 E0.0419 F2880
G1 X90.72 Y98.269 E0.1247
G1 X90.72 Y97.72 E0.1445
G1 X97.082 Y97.72 E0.3730
G1 X97.082 Y102.28 E0.5368
G1 X90.72 Y102.28 E0.7653
G1 X90.72 Y101.731 E0.7850
G1 X88.719 Y100.583 E0.8679
G1 X88.239 Y100.86099999999999 F6000
G92 E0.0000
G1 X88.239 Y99.13900000000001 E0.0619 F2160
G1 X90.24000000000001 Y97.991 E0.1447
G1 X90.24000000000001 Y97.24000000000001 E0.1717
G1 X97.562 Y97.24000000000001 E0.4347
G1 X97.562 Y102.75999999999999 E0.6330
G1 X90.24000000000001 Y102.75999999999999 E0.8960
G1 X90.24000000000001 Y102.009 E0.9230
G1 X88.239 Y100.86099999999999 E1.0058
G1 X89.65100000000001 Y99.768 F6000
G92 E0.0000
G1 X89.864 Y99.97999999999999 E0.0108 F2880
G1 X96.14099999999999 Y98.791 F6000
G92 E0.0000
G1 X96.314 Y98.963 E0.0088 F2880
G1 X96.314 Y99.642 E0.0331
G1 X96.14099999999999 Y99.469 E0.0419
G1 X96.14099999999999 Y100.148 E0.0663
G1 X96.314 Y100.321 E0.0751
G1 X96.314 Y101 E0.0994
G1 X96.14099999999999 Y100.827 E0.1082
G1 X96.14099999999999 Y101.506 E0.1326
G1 X96.14699999999999 Y101.512 E0.1329
G92 E0.0000
G1 E-0.4 F2100 ; custom retraction
;zhop1
G1 X131.398 Y101.8 F6000
G1 Z7.000 F1200
G1 E0 F2100 ; custom un-retraction/prime
G92 E0.0000
G1 X131.398 Y98.2 E0.1293 F2880
G1 X141.8 Y98.2 E0.5030
G1 X141.8 Y101.8 E0.6323
G1 X131.398 Y101.8 E1.0059
G1 X130.918 Y102.28 F6000
G92 E0.0000
G1 X130.918 Y97.72 E0.1638 F2880
G1 X142.28 Y97.72 E0.5719
G1 X142.28 Y102.28 E0.7357
G1 X130.918 Y102.28 E1.1438
G1 X130.438 Y102.75999999999999 F6000
G92 E0.0000
G1 X130.438 Y97.24000000000001 E0.1983 F2160
G1 X142.76 Y97.24000000000001 E0.6409
G1 X142.76 Y102.75999999999999 E0.8392
G1 X130.438 Y102.75999999999999 E1.2818
G1 X131.85899999999998 Y101.24600000000001 F6000
G92 E0.0000
G1 X131.686 Y101.07300000000001 E0.0088 F2880
G1 X131.686 Y100.39500000000001 E0.0331
G1 X131.85899999999998 Y100.56700000000001 E0.0419
G1 X131.85899999999998 Y99.888 E0.0663
G1 X131.686 Y99.71600000000001 E0.0750
G1 X131.686 Y99.037 E0.0994
G1 X131.85899999999998 Y99.209 E0.1082
G1 X131.85899999999998 Y98.531 E0.1326
G1 X131.816 Y98.488 E0.1347
G1 X133.423 Y101.452 F6000
G92 E0.0000
G1 X132.399 Y100.428 E0.0650 F3600
